(.../pcb-gcode-3.6.0.4/pcb-gcode.ulp)
(Copyright 2005 - 2012 by John Johnson)
(See readme.txt for licensing terms.)
(This file generated from the board:)
(.../projects/freezeTime/freezeTime.brd)
(Current profile is .../pcb-gcode-3.6.0.4/profiles/emc.pp  )
(This file generated 10.9.2014 1:12:18)
(Settings from pcb-machine.h)
(  Tool Size)
(0.2000 )
(Z Axis Settings)
(  High     Up        Down     Drill)
(20.0000 	3.0000 	-0.1000 	-2.0000 )
(spindle on time = 3.0000)
(milling depth = -0.2540)
(text depth = -0.1270)
(tool change at 12.7000 15.2400 25.4000 )
(feed rate xy = F300.00 )
(feed rate z  = F150.00 )
(Settings from pcb-defaults.h)
(isolate min = 0.0254)
(isolate max = 0.5080)
(isolate step = 0.1270)
(Generated top outlines, top drill, bottom outlines, bottom drill, )
(Unit of measure: mm)
(Metric Mode)
G21
(Absolute Coordinates)
G90
G00 X0.0000 Y0.0000 
M03
G04 P3.000000
G00 Z3.0000 
G00 X-56.6658 Y61.9045 
G01 Z-0.1000 F150.00 
G01 X-56.6658 Y62.5555 F300.00 
G01 X-56.2055 Y63.0158 
G01 X-55.5545 Y63.0158 
G01 X-55.0942 Y62.5555 
G01 X-55.0942 Y61.9045 
G01 X-55.5545 Y61.4442 
G01 X-56.2055 Y61.4442 
G01 X-56.2123 Y61.4510 
G01 X-56.9560 Y60.7072 
G01 X-57.0281 Y60.6656 
G01 X-57.1084 Y60.6441 
G01 X-70.5266 Y60.6441 
G01 X-70.6069 Y60.6656 
G01 X-70.6790 Y60.7072 
G01 X-70.7378 Y60.7660 
G01 X-71.3117 Y61.3399 
G01 X-71.3492 Y61.3474 
G01 X-71.4922 Y61.4066 
G01 X-71.6209 Y61.4926 
G01 X-71.7304 Y61.6021 
G01 X-71.8164 Y61.7308 
G01 X-71.8756 Y61.8738 
G01 X-71.9058 Y62.0256 
G01 X-71.9058 Y62.1804 
G01 X-71.8756 Y62.3322 
G01 X-71.8164 Y62.4752 
G01 X-71.7304 Y62.6039 
G01 X-71.6209 Y62.7134 
G01 X-71.4922 Y62.7994 
G01 X-71.3492 Y62.8586 
G01 X-71.1974 Y62.8888 
G01 X-71.0426 Y62.8888 
G01 X-70.8908 Y62.8586 
G01 X-70.7478 Y62.7994 
G01 X-70.6191 Y62.7134 
G01 X-70.5096 Y62.6039 
G01 X-70.4236 Y62.4752 
G01 X-70.3644 Y62.3322 
G01 X-70.3342 Y62.1804 
G01 X-70.3342 Y62.0256 
G01 X-70.3644 Y61.8738 
G01 X-70.4236 Y61.7308 
G01 X-70.5096 Y61.6021 
G01 X-70.5950 Y61.5167 
G01 X-70.3541 Y61.2759 
G01 X-57.2809 Y61.2759 
G01 X-56.6590 Y61.8977 
G01 X-56.6658 Y61.9045 
G00 Z3.0000 
G00 X-56.4122 Y23.3442 
G01 Z-0.1000 F150.00 
G01 X-57.8878 Y23.3442 F300.00 
G01 X-58.0396 Y23.3744 
G01 X-58.1826 Y23.4336 
G01 X-58.3113 Y23.5196 
G01 X-58.4208 Y23.6291 
G01 X-58.5068 Y23.7578 
G01 X-58.5660 Y23.9008 
G01 X-58.5962 Y24.0526 
G01 X-58.5962 Y24.2074 
G01 X-58.5660 Y24.3592 
G01 X-58.5068 Y24.5022 
G01 X-58.4208 Y24.6309 
G01 X-58.3113 Y24.7404 
G01 X-58.1826 Y24.8264 
G01 X-58.0396 Y24.8856 
G01 X-57.8878 Y24.9158 
G01 X-56.4122 Y24.9158 
G01 X-56.2604 Y24.8856 
G01 X-56.1174 Y24.8264 
G01 X-55.9887 Y24.7404 
G01 X-55.8792 Y24.6309 
G01 X-55.7932 Y24.5022 
G01 X-55.7340 Y24.3592 
G01 X-55.7038 Y24.2074 
G01 X-55.7038 Y24.0526 
G01 X-55.7340 Y23.9008 
G01 X-55.7932 Y23.7578 
G01 X-55.8792 Y23.6291 
G01 X-55.9887 Y23.5196 
G01 X-56.1174 Y23.4336 
G01 X-56.2604 Y23.3744 
G01 X-56.4122 Y23.3442 
G00 Z3.0000 
G00 X-56.4122 Y30.9642 
G01 Z-0.1000 F150.00 
G01 X-57.8878 Y30.9642 F300.00 
G01 X-58.0396 Y30.9944 
G01 X-58.1826 Y31.0536 
G01 X-58.3113 Y31.1396 
G01 X-58.4208 Y31.2491 
G01 X-58.5068 Y31.3778 
G01 X-58.5660 Y31.5208 
G01 X-58.5962 Y31.6726 
G01 X-58.5962 Y31.8274 
G01 X-58.5660 Y31.9792 
G01 X-58.5068 Y32.1222 
G01 X-58.4208 Y32.2509 
G01 X-58.3113 Y32.3604 
G01 X-58.1826 Y32.4464 
G01 X-58.0396 Y32.5056 
G01 X-57.8878 Y32.5358 
G01 X-56.4122 Y32.5358 
G01 X-56.2604 Y32.5056 
G01 X-56.1174 Y32.4464 
G01 X-55.9887 Y32.3604 
G01 X-55.8792 Y32.2509 
G01 X-55.7932 Y32.1222 
G01 X-55.7340 Y31.9792 
G01 X-55.7038 Y31.8274 
G01 X-55.7038 Y31.6726 
G01 X-55.7340 Y31.5208 
G01 X-55.7932 Y31.3778 
G01 X-55.8792 Y31.2491 
G01 X-55.9887 Y31.1396 
G01 X-56.1174 Y31.0536 
G01 X-56.2604 Y30.9944 
G01 X-56.4122 Y30.9642 
G00 Z3.0000 
G00 X-56.4122 Y33.5042 
G01 Z-0.1000 F150.00 
G01 X-57.8878 Y33.5042 F300.00 
G01 X-58.0396 Y33.5344 
G01 X-58.1826 Y33.5936 
G01 X-58.3113 Y33.6796 
G01 X-58.4208 Y33.7891 
G01 X-58.5068 Y33.9178 
G01 X-58.5660 Y34.0608 
G01 X-58.5962 Y34.2126 
G01 X-58.5962 Y34.3674 
G01 X-58.5660 Y34.5192 
G01 X-58.5068 Y34.6622 
G01 X-58.4208 Y34.7909 
G01 X-58.3113 Y34.9004 
G01 X-58.1826 Y34.9864 
G01 X-58.0396 Y35.0456 
G01 X-57.8878 Y35.0758 
G01 X-56.4122 Y35.0758 
G01 X-56.2604 Y35.0456 
G01 X-56.1174 Y34.9864 
G01 X-55.9887 Y34.9004 
G01 X-55.8792 Y34.7909 
G01 X-55.7932 Y34.6622 
G01 X-55.7340 Y34.5192 
G01 X-55.7038 Y34.3674 
G01 X-55.7038 Y34.2126 
G01 X-55.7340 Y34.0608 
G01 X-55.7932 Y33.9178 
G01 X-55.8792 Y33.7891 
G01 X-55.9887 Y33.6796 
G01 X-56.1174 Y33.5936 
G01 X-56.2604 Y33.5344 
G01 X-56.4122 Y33.5042 
G00 Z3.0000 
G00 X-56.4122 Y36.0442 
G01 Z-0.1000 F150.00 
G01 X-57.8878 Y36.0442 F300.00 
G01 X-58.0396 Y36.0744 
G01 X-58.1826 Y36.1336 
G01 X-58.3113 Y36.2196 
G01 X-58.4208 Y36.3291 
G01 X-58.5068 Y36.4578 
G01 X-58.5660 Y36.6008 
G01 X-58.5962 Y36.7526 
G01 X-58.5962 Y36.9074 
G01 X-58.5660 Y37.0592 
G01 X-58.5068 Y37.2022 
G01 X-58.4208 Y37.3309 
G01 X-58.3113 Y37.4404 
G01 X-58.1826 Y37.5264 
G01 X-58.0396 Y37.5856 
G01 X-57.8878 Y37.6158 
G01 X-56.4122 Y37.6158 
G01 X-56.2604 Y37.5856 
G01 X-56.1174 Y37.5264 
G01 X-55.9887 Y37.4404 
G01 X-55.8792 Y37.3309 
G01 X-55.7932 Y37.2022 
G01 X-55.7340 Y37.0592 
G01 X-55.7038 Y36.9074 
G01 X-55.7038 Y36.7526 
G01 X-55.7340 Y36.6008 
G01 X-55.7932 Y36.4578 
G01 X-55.8792 Y36.3291 
G01 X-55.9887 Y36.2196 
G01 X-56.1174 Y36.1336 
G01 X-56.2604 Y36.0744 
G01 X-56.4122 Y36.0442 
G00 Z3.0000 
G00 X-56.4122 Y43.6642 
G01 Z-0.1000 F150.00 
G01 X-57.8878 Y43.6642 F300.00 
G01 X-58.0396 Y43.6944 
G01 X-58.1826 Y43.7536 
G01 X-58.3113 Y43.8396 
G01 X-58.4208 Y43.9491 
G01 X-58.5068 Y44.0778 
G01 X-58.5660 Y44.2208 
G01 X-58.5962 Y44.3726 
G01 X-58.5962 Y44.5274 
G01 X-58.5660 Y44.6792 
G01 X-58.5068 Y44.8222 
G01 X-58.4208 Y44.9509 
G01 X-58.3113 Y45.0604 
G01 X-58.1826 Y45.1464 
G01 X-58.0396 Y45.2056 
G01 X-57.8878 Y45.2358 
G01 X-56.4122 Y45.2358 
G01 X-56.2604 Y45.2056 
G01 X-56.1174 Y45.1464 
G01 X-55.9887 Y45.0604 
G01 X-55.8792 Y44.9509 
G01 X-55.7932 Y44.8222 
G01 X-55.7340 Y44.6792 
G01 X-55.7038 Y44.5274 
G01 X-55.7038 Y44.3726 
G01 X-55.7340 Y44.2208 
G01 X-55.7932 Y44.0778 
G01 X-55.8792 Y43.9491 
G01 X-55.9887 Y43.8396 
G01 X-56.1174 Y43.7536 
G01 X-56.2604 Y43.6944 
G01 X-56.4122 Y43.6642 
G00 Z3.0000 
G00 X-56.4122 Y46.2042 
G01 Z-0.1000 F150.00 
G01 X-57.8878 Y46.2042 F300.00 
G01 X-58.0396 Y46.2344 
G01 X-58.1826 Y46.2936 
G01 X-58.3113 Y46.3796 
G01 X-58.4208 Y46.4891 
G01 X-58.5068 Y46.6178 
G01 X-58.5660 Y46.7608 
G01 X-58.5962 Y46.9126 
G01 X-58.5962 Y47.0674 
G01 X-58.5660 Y47.2192 
G01 X-58.5068 Y47.3622 
G01 X-58.4208 Y47.4909 
G01 X-58.3113 Y47.6004 
G01 X-58.1826 Y47.6864 
G01 X-58.0396 Y47.7456 
G01 X-57.8878 Y47.7758 
G01 X-56.4122 Y47.7758 
G01 X-56.2604 Y47.7456 
G01 X-56.1174 Y47.6864 
G01 X-55.9887 Y47.6004 
G01 X-55.8792 Y47.4909 
G01 X-55.7932 Y47.3622 
G01 X-55.7340 Y47.2192 
G01 X-55.7038 Y47.0674 
G01 X-55.7038 Y46.9126 
G01 X-55.7340 Y46.7608 
G01 X-55.7932 Y46.6178 
G01 X-55.8792 Y46.4891 
G01 X-55.9887 Y46.3796 
G01 X-56.1174 Y46.2936 
G01 X-56.2604 Y46.2344 
G01 X-56.4122 Y46.2042 
G00 Z3.0000 
G00 X-56.4122 Y51.2842 
G01 Z-0.1000 F150.00 
G01 X-57.8878 Y51.2842 F300.00 
G01 X-58.0396 Y51.3144 
G01 X-58.1826 Y51.3736 
G01 X-58.3113 Y51.4596 
G01 X-58.4208 Y51.5691 
G01 X-58.5068 Y51.6978 
G01 X-58.5301 Y51.7541 
G01 X-70.5693 Y51.7541 
G01 X-70.6280 Y51.6662 
G01 X-70.7162 Y51.5780 
G01 X-70.8200 Y51.5087 
G01 X-70.9352 Y51.4609 
G01 X-71.0576 Y51.4366 
G01 X-71.1824 Y51.4366 
G01 X-71.3048 Y51.4609 
G01 X-71.4200 Y51.5087 
G01 X-71.5238 Y51.5780 
G01 X-71.6120 Y51.6662 
G01 X-71.6813 Y51.7700 
G01 X-71.7291 Y51.8852 
G01 X-71.7534 Y52.0076 
G01 X-71.7534 Y52.1324 
G01 X-71.7291 Y52.2548 
G01 X-71.6813 Y52.3700 
G01 X-71.6120 Y52.4738 
G01 X-71.5238 Y52.5620 
G01 X-71.4200 Y52.6313 
G01 X-71.3048 Y52.6791 
G01 X-71.1824 Y52.7034 
G01 X-71.0576 Y52.7034 
G01 X-70.9352 Y52.6791 
G01 X-70.8200 Y52.6313 
G01 X-70.7162 Y52.5620 
G01 X-70.6280 Y52.4738 
G01 X-70.5693 Y52.3859 
G01 X-58.5301 Y52.3859 
G01 X-58.5068 Y52.4422 
G01 X-58.4208 Y52.5709 
G01 X-58.3113 Y52.6804 
G01 X-58.1826 Y52.7664 
G01 X-58.0396 Y52.8256 
G01 X-57.8878 Y52.8558 
G01 X-56.4122 Y52.8558 
G01 X-56.2604 Y52.8256 
G01 X-56.1174 Y52.7664 
G01 X-55.9887 Y52.6804 
G01 X-55.8792 Y52.5709 
G01 X-55.7932 Y52.4422 
G01 X-55.7340 Y52.2992 
G01 X-55.7038 Y52.1474 
G01 X-55.7038 Y51.9926 
G01 X-55.7340 Y51.8408 
G01 X-55.7932 Y51.6978 
G01 X-55.8792 Y51.5691 
G01 X-55.9887 Y51.4596 
G01 X-56.1174 Y51.3736 
G01 X-56.2604 Y51.3144 
G01 X-56.4122 Y51.2842 
G00 Z3.0000 
G00 X-56.4122 Y53.8242 
G01 Z-0.1000 F150.00 
G01 X-57.4890 Y53.8242 F300.00 
G01 X-58.1672 Y53.1460 
G01 X-58.2260 Y53.0872 
G01 X-58.2981 Y53.0456 
G01 X-58.3784 Y53.0241 
G01 X-71.2043 Y53.0241 
G01 X-71.2630 Y52.9362 
G01 X-71.3512 Y52.8480 
G01 X-71.4550 Y52.7787 
G01 X-71.5702 Y52.7309 
G01 X-71.6926 Y52.7066 
G01 X-71.8174 Y52.7066 
G01 X-71.9398 Y52.7309 
G01 X-72.0550 Y52.7787 
G01 X-72.1588 Y52.8480 
G01 X-72.2470 Y52.9362 
G01 X-72.3163 Y53.0400 
G01 X-72.3641 Y53.1552 
G01 X-72.3884 Y53.2776 
G01 X-72.3884 Y53.4024 
G01 X-72.3641 Y53.5248 
G01 X-72.3163 Y53.6400 
G01 X-72.2470 Y53.7438 
G01 X-72.1588 Y53.8320 
G01 X-72.0550 Y53.9013 
G01 X-71.9398 Y53.9491 
G01 X-71.8174 Y53.9734 
G01 X-71.6926 Y53.9734 
G01 X-71.5702 Y53.9491 
G01 X-71.4550 Y53.9013 
G01 X-71.3512 Y53.8320 
G01 X-71.2630 Y53.7438 
G01 X-71.2043 Y53.6559 
G01 X-58.5509 Y53.6559 
G01 X-58.2489 Y53.9579 
G01 X-58.3113 Y53.9996 
G01 X-58.4208 Y54.1091 
G01 X-58.5068 Y54.2378 
G01 X-58.5660 Y54.3808 
G01 X-58.5962 Y54.5326 
G01 X-58.5962 Y54.6874 
G01 X-58.5660 Y54.8392 
G01 X-58.5068 Y54.9822 
G01 X-58.4208 Y55.1109 
G01 X-58.3113 Y55.2204 
G01 X-58.1826 Y55.3064 
G01 X-58.0396 Y55.3656 
G01 X-57.8878 Y55.3958 
G01 X-56.4122 Y55.3958 
G01 X-56.2604 Y55.3656 
G01 X-56.1174 Y55.3064 
G01 X-55.9887 Y55.2204 
G01 X-55.8792 Y55.1109 
G01 X-55.7932 Y54.9822 
G01 X-55.7340 Y54.8392 
G01 X-55.7038 Y54.6874 
G01 X-55.7038 Y54.5326 
G01 X-55.7340 Y54.3808 
G01 X-55.7932 Y54.2378 
G01 X-55.8792 Y54.1091 
G01 X-55.9887 Y53.9996 
G01 X-56.1174 Y53.9136 
G01 X-56.2604 Y53.8544 
G01 X-56.4122 Y53.8242 
G00 Z3.0000 
G00 X-48.7922 Y56.3642 
G01 Z-0.1000 F150.00 
G01 X-50.2678 Y56.3642 F300.00 
G01 X-50.4196 Y56.3944 
G01 X-50.5626 Y56.4536 
G01 X-50.6913 Y56.5396 
G01 X-50.8008 Y56.6491 
G01 X-50.8868 Y56.7778 
G01 X-50.9460 Y56.9208 
G01 X-50.9762 Y57.0726 
G01 X-50.9762 Y57.2274 
G01 X-50.9460 Y57.3792 
G01 X-50.8868 Y57.5222 
G01 X-50.8008 Y57.6509 
G01 X-50.6913 Y57.7604 
G01 X-50.5626 Y57.8464 
G01 X-50.4196 Y57.9056 
G01 X-50.2678 Y57.9358 
G01 X-48.7922 Y57.9358 
G01 X-48.6404 Y57.9056 
G01 X-48.4974 Y57.8464 
G01 X-48.3687 Y57.7604 
G01 X-48.2592 Y57.6509 
G01 X-48.1732 Y57.5222 
G01 X-48.1140 Y57.3792 
G01 X-48.0838 Y57.2274 
G01 X-48.0838 Y57.0726 
G01 X-48.1140 Y56.9208 
G01 X-48.1732 Y56.7778 
G01 X-48.2592 Y56.6491 
G01 X-48.3687 Y56.5396 
G01 X-48.4974 Y56.4536 
G01 X-48.6404 Y56.3944 
G01 X-48.7922 Y56.3642 
G00 Z3.0000 
G00 X-48.7922 Y53.8242 
G01 Z-0.1000 F150.00 
G01 X-50.2678 Y53.8242 F300.00 
G01 X-50.4196 Y53.8544 
G01 X-50.5626 Y53.9136 
G01 X-50.6913 Y53.9996 
G01 X-50.8008 Y54.1091 
G01 X-50.8868 Y54.2378 
G01 X-50.9460 Y54.3808 
G01 X-50.9762 Y54.5326 
G01 X-50.9762 Y54.6874 
G01 X-50.9460 Y54.8392 
G01 X-50.8868 Y54.9822 
G01 X-50.8008 Y55.1109 
G01 X-50.6913 Y55.2204 
G01 X-50.5626 Y55.3064 
G01 X-50.4196 Y55.3656 
G01 X-50.2678 Y55.3958 
G01 X-48.7922 Y55.3958 
G01 X-48.6404 Y55.3656 
G01 X-48.4974 Y55.3064 
G01 X-48.3687 Y55.2204 
G01 X-48.2592 Y55.1109 
G01 X-48.1732 Y54.9822 
G01 X-48.1140 Y54.8392 
G01 X-48.0838 Y54.6874 
G01 X-48.0838 Y54.5326 
G01 X-48.1140 Y54.3808 
G01 X-48.1732 Y54.2378 
G01 X-48.2592 Y54.1091 
G01 X-48.3687 Y53.9996 
G01 X-48.4974 Y53.9136 
G01 X-48.6404 Y53.8544 
G01 X-48.7922 Y53.8242 
G00 Z3.0000 
G00 X-48.7922 Y46.2042 
G01 Z-0.1000 F150.00 
G01 X-49.8690 Y46.2042 F300.00 
G01 X-53.0872 Y42.9860 
G01 X-53.1460 Y42.9272 
G01 X-53.2181 Y42.8856 
G01 X-53.2984 Y42.8641 
G01 X-64.0042 Y42.8641 
G01 X-69.5341 Y37.3342 
G01 X-69.5341 Y34.6059 
G01 X-69.4010 Y34.6059 
G01 X-69.3593 Y34.7066 
G01 X-69.2631 Y34.8506 
G01 X-69.1406 Y34.9731 
G01 X-68.9965 Y35.0693 
G01 X-68.8365 Y35.1356 
G01 X-68.6666 Y35.1694 
G01 X-68.4934 Y35.1694 
G01 X-68.3235 Y35.1356 
G01 X-68.1634 Y35.0693 
G01 X-68.0194 Y34.9731 
G01 X-67.8969 Y34.8506 
G01 X-67.8007 Y34.7066 
G01 X-67.7344 Y34.5465 
G01 X-67.7006 Y34.3766 
G01 X-67.7006 Y34.2034 
G01 X-67.7344 Y34.0335 
G01 X-67.8007 Y33.8734 
G01 X-67.8969 Y33.7294 
G01 X-68.0194 Y33.6069 
G01 X-68.1634 Y33.5107 
G01 X-68.3235 Y33.4444 
G01 X-68.4934 Y33.4106 
G01 X-68.6666 Y33.4106 
G01 X-68.8365 Y33.4444 
G01 X-68.9965 Y33.5107 
G01 X-69.1406 Y33.6069 
G01 X-69.2631 Y33.7294 
G01 X-69.3593 Y33.8734 
G01 X-69.4010 Y33.9741 
G01 X-69.8916 Y33.9741 
G01 X-69.9719 Y33.9956 
G01 X-70.0440 Y34.0372 
G01 X-70.1028 Y34.0960 
G01 X-70.1444 Y34.1681 
G01 X-70.1659 Y34.2484 
G01 X-70.1659 Y37.5066 
G01 X-70.1444 Y37.5869 
G01 X-70.1028 Y37.6590 
G01 X-70.0440 Y37.7178 
G01 X-64.3878 Y43.3740 
G01 X-64.3290 Y43.4328 
G01 X-64.2569 Y43.4744 
G01 X-64.1766 Y43.4959 
G01 X-53.4709 Y43.4959 
G01 X-50.6289 Y46.3379 
G01 X-50.6913 Y46.3796 
G01 X-50.8008 Y46.4891 
G01 X-50.8868 Y46.6178 
G01 X-50.9460 Y46.7608 
G01 X-50.9762 Y46.9126 
G01 X-50.9762 Y47.0674 
G01 X-50.9460 Y47.2192 
G01 X-50.8868 Y47.3622 
G01 X-50.8008 Y47.4909 
G01 X-50.6913 Y47.6004 
G01 X-50.5626 Y47.6864 
G01 X-50.4196 Y47.7456 
G01 X-50.2678 Y47.7758 
G01 X-48.7922 Y47.7758 
G01 X-48.6404 Y47.7456 
G01 X-48.4974 Y47.6864 
G01 X-48.3687 Y47.6004 
G01 X-48.2592 Y47.4909 
G01 X-48.1732 Y47.3622 
G01 X-48.1140 Y47.2192 
G01 X-48.0838 Y47.0674 
G01 X-48.0838 Y46.9126 
G01 X-48.1140 Y46.7608 
G01 X-48.1732 Y46.6178 
G01 X-48.2592 Y46.4891 
G01 X-48.3687 Y46.3796 
G01 X-48.4974 Y46.2936 
G01 X-48.6404 Y46.2344 
G01 X-48.7922 Y46.2042 
G00 Z3.0000 
G00 X-48.7922 Y43.6642 
G01 Z-0.1000 F150.00 
G01 X-50.2678 Y43.6642 F300.00 
G01 X-50.4196 Y43.6944 
G01 X-50.5626 Y43.7536 
G01 X-50.6913 Y43.8396 
G01 X-50.8008 Y43.9491 
G01 X-50.8868 Y44.0778 
G01 X-50.9460 Y44.2208 
G01 X-50.9762 Y44.3726 
G01 X-50.9762 Y44.5274 
G01 X-50.9460 Y44.6792 
G01 X-50.8868 Y44.8222 
G01 X-50.8008 Y44.9509 
G01 X-50.6913 Y45.0604 
G01 X-50.5626 Y45.1464 
G01 X-50.4196 Y45.2056 
G01 X-50.2678 Y45.2358 
G01 X-48.7922 Y45.2358 
G01 X-48.6404 Y45.2056 
G01 X-48.4974 Y45.1464 
G01 X-48.3687 Y45.0604 
G01 X-48.2592 Y44.9509 
G01 X-48.1732 Y44.8222 
G01 X-48.1140 Y44.6792 
G01 X-48.0838 Y44.5274 
G01 X-48.0838 Y44.3726 
G01 X-48.1140 Y44.2208 
G01 X-48.1732 Y44.0778 
G01 X-48.2592 Y43.9491 
G01 X-48.3687 Y43.8396 
G01 X-48.4974 Y43.7536 
G01 X-48.6404 Y43.6944 
G01 X-48.7922 Y43.6642 
G00 Z3.0000 
G00 X-48.7922 Y41.1242 
G01 Z-0.1000 F150.00 
G01 X-50.2678 Y41.1242 F300.00 
G01 X-50.4196 Y41.1544 
G01 X-50.5626 Y41.2136 
G01 X-50.6913 Y41.2996 
G01 X-50.8008 Y41.4091 
G01 X-50.8868 Y41.5378 
G01 X-50.9460 Y41.6808 
G01 X-50.9762 Y41.8326 
G01 X-50.9762 Y41.9874 
G01 X-50.9460 Y42.1392 
G01 X-50.8868 Y42.2822 
G01 X-50.8008 Y42.4109 
G01 X-50.6913 Y42.5204 
G01 X-50.5626 Y42.6064 
G01 X-50.4196 Y42.6656 
G01 X-50.2678 Y42.6958 
G01 X-48.7922 Y42.6958 
G01 X-48.6404 Y42.6656 
G01 X-48.4974 Y42.6064 
G01 X-48.3687 Y42.5204 
G01 X-48.2592 Y42.4109 
G01 X-48.1732 Y42.2822 
G01 X-48.1140 Y42.1392 
G01 X-48.0838 Y41.9874 
G01 X-48.0838 Y41.8326 
G01 X-48.1140 Y41.6808 
G01 X-48.1732 Y41.5378 
G01 X-48.2592 Y41.4091 
G01 X-48.3687 Y41.2996 
G01 X-48.4974 Y41.2136 
G01 X-48.6404 Y41.1544 
G01 X-48.7922 Y41.1242 
G00 Z3.0000 
G00 X-48.7922 Y38.5842 
G01 Z-0.1000 F150.00 
G01 X-50.2678 Y38.5842 F300.00 
G01 X-50.4196 Y38.6144 
G01 X-50.5626 Y38.6736 
G01 X-50.6913 Y38.7596 
G01 X-50.8008 Y38.8691 
G01 X-50.8868 Y38.9978 
G01 X-50.9460 Y39.1408 
G01 X-50.9762 Y39.2926 
G01 X-50.9762 Y39.4474 
G01 X-50.9460 Y39.5992 
G01 X-50.8868 Y39.7422 
G01 X-50.8008 Y39.8709 
G01 X-50.6913 Y39.9804 
G01 X-50.5626 Y40.0664 
G01 X-50.4196 Y40.1256 
G01 X-50.2678 Y40.1558 
G01 X-48.7922 Y40.1558 
G01 X-48.6404 Y40.1256 
G01 X-48.4974 Y40.0664 
G01 X-48.3687 Y39.9804 
G01 X-48.2592 Y39.8709 
G01 X-48.1732 Y39.7422 
G01 X-48.1140 Y39.5992 
G01 X-48.0838 Y39.4474 
G01 X-48.0838 Y39.2926 
G01 X-48.1140 Y39.1408 
G01 X-48.1732 Y38.9978 
G01 X-48.2592 Y38.8691 
G01 X-48.3687 Y38.7596 
G01 X-48.4974 Y38.6736 
G01 X-48.6404 Y38.6144 
G01 X-48.7922 Y38.5842 
G00 Z3.0000 
G00 X-48.7922 Y36.0442 
G01 Z-0.1000 F150.00 
G01 X-50.2678 Y36.0442 F300.00 
G01 X-50.4196 Y36.0744 
G01 X-50.5626 Y36.1336 
G01 X-50.6913 Y36.2196 
G01 X-50.8008 Y36.3291 
G01 X-50.8868 Y36.4578 
G01 X-50.9460 Y36.6008 
G01 X-50.9762 Y36.7526 
G01 X-50.9762 Y36.9074 
G01 X-50.9460 Y37.0592 
G01 X-50.8868 Y37.2022 
G01 X-50.8008 Y37.3309 
G01 X-50.6913 Y37.4404 
G01 X-50.5626 Y37.5264 
G01 X-50.4196 Y37.5856 
G01 X-50.2678 Y37.6158 
G01 X-48.7922 Y37.6158 
G01 X-48.6404 Y37.5856 
G01 X-48.4974 Y37.5264 
G01 X-48.3687 Y37.4404 
G01 X-48.2592 Y37.3309 
G01 X-48.1732 Y37.2022 
G01 X-48.1140 Y37.0592 
G01 X-48.0838 Y36.9074 
G01 X-48.0838 Y36.7526 
G01 X-48.1140 Y36.6008 
G01 X-48.1732 Y36.4578 
G01 X-48.2592 Y36.3291 
G01 X-48.3687 Y36.2196 
G01 X-48.4974 Y36.1336 
G01 X-48.6404 Y36.0744 
G01 X-48.7922 Y36.0442 
G00 Z3.0000 
G00 X-48.7922 Y33.5042 
G01 Z-0.1000 F150.00 
G01 X-50.2678 Y33.5042 F300.00 
G01 X-50.4196 Y33.5344 
G01 X-50.5626 Y33.5936 
G01 X-50.6913 Y33.6796 
G01 X-50.8008 Y33.7891 
G01 X-50.8868 Y33.9178 
G01 X-50.9460 Y34.0608 
G01 X-50.9762 Y34.2126 
G01 X-50.9762 Y34.3674 
G01 X-50.9460 Y34.5192 
G01 X-50.8868 Y34.6622 
G01 X-50.8008 Y34.7909 
G01 X-50.6913 Y34.9004 
G01 X-50.5626 Y34.9864 
G01 X-50.4196 Y35.0456 
G01 X-50.2678 Y35.0758 
G01 X-48.7922 Y35.0758 
G01 X-48.6404 Y35.0456 
G01 X-48.4974 Y34.9864 
G01 X-48.3687 Y34.9004 
G01 X-48.2592 Y34.7909 
G01 X-48.1732 Y34.6622 
G01 X-48.1140 Y34.5192 
G01 X-48.0838 Y34.3674 
G01 X-48.0838 Y34.2126 
G01 X-48.1140 Y34.0608 
G01 X-48.1732 Y33.9178 
G01 X-48.2592 Y33.7891 
G01 X-48.3687 Y33.6796 
G01 X-48.4974 Y33.5936 
G01 X-48.6404 Y33.5344 
G01 X-48.7922 Y33.5042 
G00 Z3.0000 
G00 X-48.7922 Y30.9642 
G01 Z-0.1000 F150.00 
G01 X-50.2678 Y30.9642 F300.00 
G01 X-50.4196 Y30.9944 
G01 X-50.5626 Y31.0536 
G01 X-50.6913 Y31.1396 
G01 X-50.8008 Y31.2491 
G01 X-50.8868 Y31.3778 
G01 X-50.9460 Y31.5208 
G01 X-50.9762 Y31.6726 
G01 X-50.9762 Y31.8274 
G01 X-50.9460 Y31.9792 
G01 X-50.8868 Y32.1222 
G01 X-50.8008 Y32.2509 
G01 X-50.6913 Y32.3604 
G01 X-50.5626 Y32.4464 
G01 X-50.4196 Y32.5056 
G01 X-50.2678 Y32.5358 
G01 X-48.7922 Y32.5358 
G01 X-48.6404 Y32.5056 
G01 X-48.4974 Y32.4464 
G01 X-48.3687 Y32.3604 
G01 X-48.2592 Y32.2509 
G01 X-48.1732 Y32.1222 
G01 X-48.1140 Y31.9792 
G01 X-48.0838 Y31.8274 
G01 X-48.0838 Y31.6726 
G01 X-48.1140 Y31.5208 
G01 X-48.1732 Y31.3778 
G01 X-48.2592 Y31.2491 
G01 X-48.3687 Y31.1396 
G01 X-48.4974 Y31.0536 
G01 X-48.6404 Y30.9944 
G01 X-48.7922 Y30.9642 
G00 Z3.0000 
G00 X-48.7922 Y28.4242 
G01 Z-0.1000 F150.00 
G01 X-50.2678 Y28.4242 F300.00 
G01 X-50.4196 Y28.4544 
G01 X-50.5626 Y28.5136 
G01 X-50.6913 Y28.5996 
G01 X-50.8008 Y28.7091 
G01 X-50.8868 Y28.8378 
G01 X-50.9460 Y28.9808 
G01 X-50.9762 Y29.1326 
G01 X-50.9762 Y29.2874 
G01 X-50.9460 Y29.4392 
G01 X-50.8868 Y29.5822 
G01 X-50.8008 Y29.7109 
G01 X-50.6913 Y29.8204 
G01 X-50.5626 Y29.9064 
G01 X-50.4196 Y29.9656 
G01 X-50.2678 Y29.9958 
G01 X-48.7922 Y29.9958 
G01 X-48.6404 Y29.9656 
G01 X-48.4974 Y29.9064 
G01 X-48.3687 Y29.8204 
G01 X-48.2592 Y29.7109 
G01 X-48.1732 Y29.5822 
G01 X-48.1140 Y29.4392 
G01 X-48.0838 Y29.2874 
G01 X-48.0838 Y29.1326 
G01 X-48.1140 Y28.9808 
G01 X-48.1732 Y28.8378 
G01 X-48.2592 Y28.7091 
G01 X-48.3687 Y28.5996 
G01 X-48.4974 Y28.5136 
G01 X-48.6404 Y28.4544 
G01 X-48.7922 Y28.4242 
G00 Z3.0000 
G00 X-48.7922 Y25.8842 
G01 Z-0.1000 F150.00 
G01 X-50.2678 Y25.8842 F300.00 
G01 X-50.4196 Y25.9144 
G01 X-50.5626 Y25.9736 
G01 X-50.6913 Y26.0596 
G01 X-50.8008 Y26.1691 
G01 X-50.8868 Y26.2978 
G01 X-50.9460 Y26.4408 
G01 X-50.9762 Y26.5926 
G01 X-50.9762 Y26.7474 
G01 X-50.9460 Y26.8992 
G01 X-50.8868 Y27.0422 
G01 X-50.8008 Y27.1709 
G01 X-50.6913 Y27.2804 
G01 X-50.5626 Y27.3664 
G01 X-50.4196 Y27.4256 
G01 X-50.2678 Y27.4558 
G01 X-48.7922 Y27.4558 
G01 X-48.6404 Y27.4256 
G01 X-48.4974 Y27.3664 
G01 X-48.3687 Y27.2804 
G01 X-48.2592 Y27.1709 
G01 X-48.1732 Y27.0422 
G01 X-48.1140 Y26.8992 
G01 X-48.0838 Y26.7474 
G01 X-48.0838 Y26.5926 
G01 X-48.1140 Y26.4408 
G01 X-48.1732 Y26.2978 
G01 X-48.2592 Y26.1691 
G01 X-48.3687 Y26.0596 
G01 X-48.4974 Y25.9736 
G01 X-48.6404 Y25.9144 
G01 X-48.7922 Y25.8842 
G00 Z3.0000 
G00 X-48.7922 Y23.3442 
G01 Z-0.1000 F150.00 
G01 X-50.2678 Y23.3442 F300.00 
G01 X-50.4196 Y23.3744 
G01 X-50.5626 Y23.4336 
G01 X-50.6913 Y23.5196 
G01 X-50.8008 Y23.6291 
G01 X-50.8868 Y23.7578 
G01 X-50.9460 Y23.9008 
G01 X-50.9762 Y24.0526 
G01 X-50.9762 Y24.2074 
G01 X-50.9460 Y24.3592 
G01 X-50.8868 Y24.5022 
G01 X-50.8008 Y24.6309 
G01 X-50.6913 Y24.7404 
G01 X-50.5626 Y24.8264 
G01 X-50.4196 Y24.8856 
G01 X-50.2678 Y24.9158 
G01 X-48.7922 Y24.9158 
G01 X-48.6404 Y24.8856 
G01 X-48.4974 Y24.8264 
G01 X-48.3687 Y24.7404 
G01 X-48.2592 Y24.6309 
G01 X-48.1732 Y24.5022 
G01 X-48.1140 Y24.3592 
G01 X-48.0838 Y24.2074 
G01 X-48.0838 Y24.0526 
G01 X-48.1140 Y23.9008 
G01 X-48.1732 Y23.7578 
G01 X-48.2592 Y23.6291 
G01 X-48.3687 Y23.5196 
G01 X-48.4974 Y23.4336 
G01 X-48.6404 Y23.3744 
G01 X-48.7922 Y23.3442 
G00 Z3.0000 
G00 X-71.9058 Y57.1996 
G01 Z-0.1000 F150.00 
G01 X-71.9058 Y57.3544 F300.00 
G01 X-71.8756 Y57.5062 
G01 X-71.8164 Y57.6492 
G01 X-71.7304 Y57.7779 
G01 X-71.6209 Y57.8874 
G01 X-71.4922 Y57.9734 
G01 X-71.3492 Y58.0326 
G01 X-71.3117 Y58.0401 
G01 X-69.4678 Y59.8840 
G01 X-69.4090 Y59.9428 
G01 X-69.3369 Y59.9844 
G01 X-69.2566 Y60.0059 
G01 X-56.6459 Y60.0059 
G01 X-54.9259 Y61.7259 
G01 X-54.9259 Y63.1841 
G01 X-57.0191 Y63.1841 
G01 X-57.6410 Y62.5623 
G01 X-57.6342 Y62.5555 
G01 X-57.6342 Y61.9045 
G01 X-58.0945 Y61.4442 
G01 X-58.7455 Y61.4442 
G01 X-59.2058 Y61.9045 
G01 X-59.2058 Y62.5555 
G01 X-58.7455 Y63.0158 
G01 X-58.0945 Y63.0158 
G01 X-58.0877 Y63.0090 
G01 X-57.3440 Y63.7528 
G01 X-57.2719 Y63.7944 
G01 X-57.1916 Y63.8159 
G01 X-54.5684 Y63.8159 
G01 X-54.4881 Y63.7944 
G01 X-54.4160 Y63.7528 
G01 X-54.3572 Y63.6940 
G01 X-54.3156 Y63.6219 
G01 X-54.2941 Y63.5416 
G01 X-54.2941 Y61.5534 
G01 X-54.3156 Y61.4731 
G01 X-54.3572 Y61.4010 
G01 X-54.4160 Y61.3422 
G01 X-56.3210 Y59.4372 
G01 X-56.3931 Y59.3956 
G01 X-56.4734 Y59.3741 
G01 X-69.0841 Y59.3741 
G01 X-70.5950 Y57.8633 
G01 X-70.5096 Y57.7779 
G01 X-70.4236 Y57.6492 
G01 X-70.3644 Y57.5062 
G01 X-70.3342 Y57.3544 
G01 X-70.3342 Y57.1996 
G01 X-70.3644 Y57.0478 
G01 X-70.4236 Y56.9048 
G01 X-70.5096 Y56.7761 
G01 X-70.6191 Y56.6666 
G01 X-70.7478 Y56.5806 
G01 X-70.8908 Y56.5214 
G01 X-71.0426 Y56.4912 
G01 X-71.1974 Y56.4912 
G01 X-71.3492 Y56.5214 
G01 X-71.4922 Y56.5806 
G01 X-71.6209 Y56.6666 
G01 X-71.7304 Y56.7761 
G01 X-71.8164 Y56.9048 
G01 X-71.8756 Y57.0478 
G01 X-71.9058 Y57.1996 
G00 Z3.0000 
G00 X-87.4604 Y47.8158 
G01 Z-0.1000 F150.00 
G01 X-86.8158 Y48.4604 F300.00 
G01 X-85.9042 Y48.4604 
G01 X-85.2596 Y47.8158 
G01 X-85.2596 Y46.9042 
G01 X-85.9042 Y46.2596 
G01 X-86.8158 Y46.2596 
G01 X-87.2303 Y46.6741 
G01 X-96.8391 Y46.6741 
G01 X-96.8391 Y37.5958 
G01 X-90.6741 Y31.4309 
G01 X-84.4134 Y31.4309 
G01 X-84.3331 Y31.4094 
G01 X-84.2610 Y31.3678 
G01 X-78.6091 Y25.7159 
G01 X-58.5509 Y25.7159 
G01 X-58.2489 Y26.0179 
G01 X-58.3113 Y26.0596 
G01 X-58.4208 Y26.1691 
G01 X-58.5068 Y26.2978 
G01 X-58.5660 Y26.4408 
G01 X-58.5962 Y26.5926 
G01 X-58.5962 Y26.7474 
G01 X-58.5660 Y26.8992 
G01 X-58.5068 Y27.0422 
G01 X-58.4208 Y27.1709 
G01 X-58.3113 Y27.2804 
G01 X-58.1826 Y27.3664 
G01 X-58.0396 Y27.4256 
G01 X-57.8878 Y27.4558 
G01 X-56.4122 Y27.4558 
G01 X-56.2604 Y27.4256 
G01 X-56.1174 Y27.3664 
G01 X-55.9887 Y27.2804 
G01 X-55.8792 Y27.1709 
G01 X-55.7932 Y27.0422 
G01 X-55.7340 Y26.8992 
G01 X-55.7038 Y26.7474 
G01 X-55.7038 Y26.5926 
G01 X-55.7340 Y26.4408 
G01 X-55.7932 Y26.2978 
G01 X-55.8792 Y26.1691 
G01 X-55.9887 Y26.0596 
G01 X-56.1174 Y25.9736 
G01 X-56.2604 Y25.9144 
G01 X-56.4122 Y25.8842 
G01 X-57.4890 Y25.8842 
G01 X-58.1672 Y25.2060 
G01 X-58.2260 Y25.1472 
G01 X-58.2981 Y25.1056 
G01 X-58.3784 Y25.0841 
G01 X-78.7816 Y25.0841 
G01 X-78.8619 Y25.1056 
G01 X-78.9340 Y25.1472 
G01 X-84.5859 Y30.7991 
G01 X-90.8466 Y30.7991 
G01 X-90.9269 Y30.8206 
G01 X-90.9990 Y30.8622 
G01 X-97.3490 Y37.2122 
G01 X-97.4078 Y37.2710 
G01 X-97.4494 Y37.3431 
G01 X-97.4709 Y37.4234 
G01 X-97.4709 Y47.0316 
G01 X-97.4494 Y47.1119 
G01 X-97.4078 Y47.1840 
G01 X-97.3490 Y47.2428 
G01 X-97.2769 Y47.2844 
G01 X-97.1966 Y47.3059 
G01 X-87.4604 Y47.3059 
G01 X-87.4604 Y47.8158 
G00 Z3.0000 
G00 X-96.7704 Y37.6442 
G01 Z-0.1000 F150.00 
G01 X-96.7704 Y38.5558 F300.00 
G01 X-96.1258 Y39.2004 
G01 X-95.2142 Y39.2004 
G01 X-94.5696 Y38.5558 
G01 X-94.5696 Y38.4159 
G01 X-87.5884 Y38.4159 
G01 X-87.5081 Y38.3944 
G01 X-87.4360 Y38.3528 
G01 X-87.3772 Y38.2940 
G01 X-82.4191 Y33.3359 
G01 X-60.9184 Y33.3359 
G01 X-60.8381 Y33.3144 
G01 X-60.7660 Y33.2728 
G01 X-60.7072 Y33.2140 
G01 X-57.4890 Y29.9958 
G01 X-56.4122 Y29.9958 
G01 X-56.2604 Y29.9656 
G01 X-56.1174 Y29.9064 
G01 X-55.9887 Y29.8204 
G01 X-55.8792 Y29.7109 
G01 X-55.7932 Y29.5822 
G01 X-55.7340 Y29.4392 
G01 X-55.7038 Y29.2874 
G01 X-55.7038 Y29.1326 
G01 X-55.7340 Y28.9808 
G01 X-55.7932 Y28.8378 
G01 X-55.8792 Y28.7091 
G01 X-55.9887 Y28.5996 
G01 X-56.1174 Y28.5136 
G01 X-56.2604 Y28.4544 
G01 X-56.4122 Y28.4242 
G01 X-57.8878 Y28.4242 
G01 X-58.0396 Y28.4544 
G01 X-58.1826 Y28.5136 
G01 X-58.3113 Y28.5996 
G01 X-58.4208 Y28.7091 
G01 X-58.5068 Y28.8378 
G01 X-58.5660 Y28.9808 
G01 X-58.5962 Y29.1326 
G01 X-58.5962 Y29.2874 
G01 X-58.5660 Y29.4392 
G01 X-58.5068 Y29.5822 
G01 X-58.4208 Y29.7109 
G01 X-58.3113 Y29.8204 
G01 X-58.2489 Y29.8621 
G01 X-61.0909 Y32.7041 
G01 X-82.5916 Y32.7041 
G01 X-82.6719 Y32.7256 
G01 X-82.7440 Y32.7672 
G01 X-87.7609 Y37.7841 
G01 X-94.5696 Y37.7841 
G01 X-94.5696 Y37.6442 
G01 X-95.2142 Y36.9996 
G01 X-96.1258 Y36.9996 
G01 X-96.7704 Y37.6442 
G00 Z3.0000 
G00 X-87.4604 Y28.3842 
G01 Z-0.1000 F150.00 
G01 X-87.4604 Y29.2958 F300.00 
G01 X-86.8158 Y29.9404 
G01 X-85.9042 Y29.9404 
G01 X-85.2596 Y29.2958 
G01 X-85.2596 Y28.3842 
G01 X-85.9042 Y27.7396 
G01 X-86.8158 Y27.7396 
G01 X-87.4604 Y28.3842 
G00 Z3.0000 
G00 X-85.9404 Y37.6442 
G01 Z-0.1000 F150.00 
G01 X-85.9404 Y38.5558 F300.00 
G01 X-85.2958 Y39.2004 
G01 X-84.3842 Y39.2004 
G01 X-83.7396 Y38.5558 
G01 X-83.7396 Y37.6442 
G01 X-84.3842 Y36.9996 
G01 X-85.2958 Y36.9996 
G01 X-85.9404 Y37.6442 
G00 Z3.0000 
G00 X-91.6125 Y57.4501 
G01 Z-0.1000 F150.00 
G01 X-93.6043 Y57.4501 F300.00 
G01 X-93.8015 Y57.4893 
G01 X-93.9873 Y57.5662 
G01 X-94.1544 Y57.6779 
G01 X-94.2966 Y57.8201 
G01 X-94.4083 Y57.9873 
G01 X-94.4853 Y58.1731 
G01 X-94.5245 Y58.3703 
G01 X-94.5245 Y58.5713 
G01 X-94.4853 Y58.7685 
G01 X-94.4083 Y58.9543 
G01 X-94.2966 Y59.1215 
G01 X-94.1544 Y59.2637 
G01 X-93.9873 Y59.3754 
G01 X-93.8015 Y59.4523 
G01 X-93.6043 Y59.4915 
G01 X-91.6125 Y59.4915 
G01 X-91.4153 Y59.4523 
G01 X-91.2295 Y59.3754 
G01 X-91.2228 Y59.3709 
G01 X-81.4972 Y59.3709 
G01 X-81.4905 Y59.3754 
G01 X-81.3047 Y59.4523 
G01 X-81.1075 Y59.4915 
G01 X-79.1157 Y59.4915 
G01 X-78.9185 Y59.4523 
G01 X-78.7327 Y59.3754 
G01 X-78.5656 Y59.2637 
G01 X-78.4234 Y59.1215 
G01 X-78.3117 Y58.9543 
G01 X-78.2347 Y58.7685 
G01 X-78.1955 Y58.5713 
G01 X-78.1955 Y58.3703 
G01 X-78.2347 Y58.1731 
G01 X-78.3117 Y57.9873 
G01 X-78.4234 Y57.8201 
G01 X-78.5656 Y57.6779 
G01 X-78.7188 Y57.5755 
G01 X-72.2591 Y51.1159 
G01 X-58.3784 Y51.1159 
G01 X-58.2981 Y51.0944 
G01 X-58.2260 Y51.0528 
G01 X-58.1672 Y50.9940 
G01 X-57.4890 Y50.3158 
G01 X-56.4122 Y50.3158 
G01 X-56.2604 Y50.2856 
G01 X-56.1174 Y50.2264 
G01 X-55.9887 Y50.1404 
G01 X-55.8792 Y50.0309 
G01 X-55.7932 Y49.9022 
G01 X-55.7340 Y49.7592 
G01 X-55.7038 Y49.6074 
G01 X-55.7038 Y49.4526 
G01 X-55.7340 Y49.3008 
G01 X-55.7932 Y49.1578 
G01 X-55.8792 Y49.0291 
G01 X-55.9887 Y48.9196 
G01 X-56.1174 Y48.8336 
G01 X-56.2604 Y48.7744 
G01 X-56.4122 Y48.7442 
G01 X-57.8878 Y48.7442 
G01 X-58.0396 Y48.7744 
G01 X-58.1826 Y48.8336 
G01 X-58.3113 Y48.9196 
G01 X-58.4208 Y49.0291 
G01 X-58.5068 Y49.1578 
G01 X-58.5660 Y49.3008 
G01 X-58.5962 Y49.4526 
G01 X-58.5962 Y49.6074 
G01 X-58.5660 Y49.7592 
G01 X-58.5068 Y49.9022 
G01 X-58.4208 Y50.0309 
G01 X-58.3113 Y50.1404 
G01 X-58.2489 Y50.1821 
G01 X-58.5509 Y50.4841 
G01 X-72.4316 Y50.4841 
G01 X-72.5119 Y50.5056 
G01 X-72.5840 Y50.5472 
G01 X-79.4868 Y57.4501 
G01 X-81.1075 Y57.4501 
G01 X-81.3047 Y57.4893 
G01 X-81.4905 Y57.5662 
G01 X-81.6576 Y57.6779 
G01 X-81.7998 Y57.8201 
G01 X-81.9115 Y57.9873 
G01 X-81.9885 Y58.1731 
G01 X-82.0277 Y58.3703 
G01 X-82.0277 Y58.5713 
G01 X-81.9943 Y58.7391 
G01 X-90.7257 Y58.7391 
G01 X-90.6923 Y58.5713 
G01 X-90.6923 Y58.3703 
G01 X-90.7315 Y58.1731 
G01 X-90.8085 Y57.9873 
G01 X-90.9202 Y57.8201 
G01 X-91.0624 Y57.6779 
G01 X-91.2295 Y57.5662 
G01 X-91.4153 Y57.4893 
G01 X-91.6125 Y57.4501 
G00 Z3.0000 
G00 X-91.6125 Y62.4285 
G01 Z-0.1000 F150.00 
G01 X-93.6043 Y62.4285 F300.00 
G01 X-93.8015 Y62.4677 
G01 X-93.9873 Y62.5446 
G01 X-94.1544 Y62.6563 
G01 X-94.2966 Y62.7985 
G01 X-94.4083 Y62.9657 
G01 X-94.4853 Y63.1515 
G01 X-94.5245 Y63.3487 
G01 X-94.5245 Y63.5497 
G01 X-94.4853 Y63.7469 
G01 X-94.4083 Y63.9327 
G01 X-94.2966 Y64.0999 
G01 X-94.1544 Y64.2421 
G01 X-93.9873 Y64.3538 
G01 X-93.8015 Y64.4307 
G01 X-93.6043 Y64.4699 
G01 X-91.6125 Y64.4699 
G01 X-91.4153 Y64.4307 
G01 X-91.2295 Y64.3538 
G01 X-91.0624 Y64.2421 
G01 X-90.9202 Y64.0999 
G01 X-90.8085 Y63.9327 
G01 X-90.7315 Y63.7469 
G01 X-90.6923 Y63.5497 
G01 X-90.6923 Y63.3487 
G01 X-90.7315 Y63.1515 
G01 X-90.8085 Y62.9657 
G01 X-90.9202 Y62.7985 
G01 X-91.0624 Y62.6563 
G01 X-91.2295 Y62.5446 
G01 X-91.4153 Y62.4677 
G01 X-91.6125 Y62.4285 
G00 Z3.0000 
G00 X-79.1157 Y62.4285 
G01 Z-0.1000 F150.00 
G01 X-81.1075 Y62.4285 F300.00 
G01 X-81.3047 Y62.4677 
G01 X-81.4905 Y62.5446 
G01 X-81.6576 Y62.6563 
G01 X-81.7998 Y62.7985 
G01 X-81.9115 Y62.9657 
G01 X-81.9885 Y63.1515 
G01 X-82.0277 Y63.3487 
G01 X-82.0277 Y63.5497 
G01 X-81.9885 Y63.7469 
G01 X-81.9115 Y63.9327 
G01 X-81.7998 Y64.0999 
G01 X-81.6576 Y64.2421 
G01 X-81.4905 Y64.3538 
G01 X-81.3047 Y64.4307 
G01 X-81.1075 Y64.4699 
G01 X-79.4868 Y64.4699 
G01 X-73.9128 Y70.0440 
G01 X-73.8540 Y70.1028 
G01 X-73.7819 Y70.1444 
G01 X-73.7016 Y70.1659 
G01 X-70.7755 Y70.1659 
G01 X-70.7755 Y70.2334 
G01 X-70.2334 Y70.7755 
G01 X-69.4666 Y70.7755 
G01 X-68.9245 Y70.2334 
G01 X-68.9245 Y69.4666 
G01 X-68.9722 Y69.4189 
G01 X-62.8650 Y63.3117 
G01 X-61.1540 Y65.0228 
G01 X-61.0819 Y65.0644 
G01 X-61.0016 Y65.0859 
G01 X-53.2984 Y65.0859 
G01 X-53.2181 Y65.0644 
G01 X-53.1460 Y65.0228 
G01 X-53.0872 Y64.9640 
G01 X-51.1323 Y63.0090 
G01 X-51.1255 Y63.0158 
G01 X-50.4745 Y63.0158 
G01 X-50.0142 Y62.5555 
G01 X-50.0142 Y62.5459 
G01 X-27.4359 Y62.5459 
G01 X-16.7189 Y73.2629 
G01 X-16.8285 Y73.4137 
G01 X-16.9282 Y73.6094 
G01 X-16.9960 Y73.8182 
G01 X-17.0304 Y74.0352 
G01 X-17.0304 Y74.2548 
G01 X-16.9960 Y74.4718 
G01 X-16.9282 Y74.6806 
G01 X-16.8285 Y74.8763 
G01 X-16.6993 Y75.0540 
G01 X-16.5440 Y75.2094 
G01 X-16.3663 Y75.3385 
G01 X-16.1706 Y75.4382 
G01 X-15.9618 Y75.5060 
G01 X-15.7448 Y75.5404 
G01 X-15.5252 Y75.5404 
G01 X-15.3082 Y75.5060 
G01 X-15.0994 Y75.4382 
G01 X-14.9037 Y75.3385 
G01 X-14.7260 Y75.2094 
G01 X-14.5706 Y75.0540 
G01 X-14.4415 Y74.8763 
G01 X-14.3418 Y74.6806 
G01 X-14.2740 Y74.4718 
G01 X-14.2396 Y74.2548 
G01 X-14.2396 Y74.0352 
G01 X-14.2740 Y73.8182 
G01 X-14.3418 Y73.6094 
G01 X-14.4415 Y73.4137 
G01 X-14.5706 Y73.2360 
G01 X-14.7260 Y73.0806 
G01 X-14.9037 Y72.9515 
G01 X-15.0994 Y72.8518 
G01 X-15.3082 Y72.7840 
G01 X-15.5252 Y72.7496 
G01 X-15.7448 Y72.7496 
G01 X-15.9618 Y72.7840 
G01 X-16.1706 Y72.8518 
G01 X-16.2142 Y72.8740 
G01 X-27.0522 Y62.0360 
G01 X-27.1110 Y61.9772 
G01 X-27.1831 Y61.9356 
G01 X-27.2634 Y61.9141 
G01 X-50.0142 Y61.9141 
G01 X-50.0142 Y61.9045 
G01 X-50.4745 Y61.4442 
G01 X-51.1255 Y61.4442 
G01 X-51.5858 Y61.9045 
G01 X-51.5858 Y62.5555 
G01 X-51.5790 Y62.5623 
G01 X-53.4708 Y64.4541 
G01 X-60.8291 Y64.4541 
G01 X-62.6122 Y62.6710 
G01 X-62.6710 Y62.6122 
G01 X-62.7210 Y62.5623 
G01 X-62.7142 Y62.5555 
G01 X-62.7142 Y61.9045 
G01 X-63.1745 Y61.4442 
G01 X-63.8255 Y61.4442 
G01 X-64.2858 Y61.9045 
G01 X-64.2858 Y62.5555 
G01 X-63.8255 Y63.0158 
G01 X-63.4625 Y63.0158 
G01 X-69.4189 Y68.9722 
G01 X-69.4666 Y68.9245 
G01 X-70.2334 Y68.9245 
G01 X-70.7755 Y69.4666 
G01 X-70.7755 Y69.5341 
G01 X-73.5291 Y69.5341 
G01 X-78.7188 Y64.3445 
G01 X-78.5656 Y64.2421 
G01 X-78.4234 Y64.0999 
G01 X-78.3117 Y63.9327 
G01 X-78.2347 Y63.7469 
G01 X-78.1955 Y63.5497 
G01 X-78.1955 Y63.3487 
G01 X-78.2347 Y63.1515 
G01 X-78.3117 Y62.9657 
G01 X-78.4234 Y62.7985 
G01 X-78.5656 Y62.6563 
G01 X-78.7327 Y62.5446 
G01 X-78.9185 Y62.4677 
G01 X-79.1157 Y62.4285 
G00 Z3.0000 
G00 X-23.3654 Y74.0352 
G01 Z-0.1000 F150.00 
G01 X-23.3654 Y74.2548 F300.00 
G01 X-23.3310 Y74.4718 
G01 X-23.2632 Y74.6806 
G01 X-23.1635 Y74.8763 
G01 X-23.0343 Y75.0540 
G01 X-22.8790 Y75.2094 
G01 X-22.7013 Y75.3385 
G01 X-22.5056 Y75.4382 
G01 X-22.2968 Y75.5060 
G01 X-22.0798 Y75.5404 
G01 X-21.8602 Y75.5404 
G01 X-21.6432 Y75.5060 
G01 X-21.4344 Y75.4382 
G01 X-21.2386 Y75.3385 
G01 X-21.0610 Y75.2094 
G01 X-20.9056 Y75.0540 
G01 X-20.7765 Y74.8763 
G01 X-20.6768 Y74.6806 
G01 X-20.6090 Y74.4718 
G01 X-20.5746 Y74.2548 
G01 X-20.5746 Y74.0352 
G01 X-20.6090 Y73.8182 
G01 X-20.6768 Y73.6094 
G01 X-20.7765 Y73.4137 
G01 X-20.9056 Y73.2360 
G01 X-21.0610 Y73.0806 
G01 X-21.2386 Y72.9515 
G01 X-21.4344 Y72.8518 
G01 X-21.6432 Y72.7840 
G01 X-21.8602 Y72.7496 
G01 X-22.0798 Y72.7496 
G01 X-22.2968 Y72.7840 
G01 X-22.5056 Y72.8518 
G01 X-22.7013 Y72.9515 
G01 X-22.8790 Y73.0806 
G01 X-23.0343 Y73.2360 
G01 X-23.1635 Y73.4137 
G01 X-23.2632 Y73.6094 
G01 X-23.3310 Y73.8182 
G01 X-23.3654 Y74.0352 
G00 Z3.0000 
G00 X-68.2355 Y69.7588 
G01 Z-0.1000 F150.00 
G01 X-68.2355 Y69.9412 F300.00 
G01 X-68.1999 Y70.1200 
G01 X-68.1302 Y70.2884 
G01 X-68.0289 Y70.4400 
G01 X-67.9000 Y70.5689 
G01 X-67.7484 Y70.6702 
G01 X-67.5800 Y70.7399 
G01 X-67.4012 Y70.7755 
G01 X-67.2188 Y70.7755 
G01 X-67.0400 Y70.7399 
G01 X-66.9176 Y70.6892 
G01 X-66.8690 Y70.7378 
G01 X-66.7969 Y70.7794 
G01 X-66.7166 Y70.8009 
G01 X-66.6334 Y70.8009 
G01 X-66.5531 Y70.7794 
G01 X-66.4810 Y70.7378 
G01 X-66.4222 Y70.6790 
G01 X-66.3806 Y70.6069 
G01 X-66.3591 Y70.5266 
G01 X-66.3591 Y70.4434 
G01 X-66.3806 Y70.3631 
G01 X-66.4222 Y70.2910 
G01 X-66.4708 Y70.2424 
G01 X-66.4201 Y70.1200 
G01 X-66.3845 Y69.9412 
G01 X-66.3845 Y69.7588 
G01 X-66.4201 Y69.5800 
G01 X-66.4898 Y69.4116 
G01 X-66.5911 Y69.2600 
G01 X-66.7200 Y69.1311 
G01 X-66.8716 Y69.0298 
G01 X-67.0400 Y68.9601 
G01 X-67.2188 Y68.9245 
G01 X-67.4012 Y68.9245 
G01 X-67.5800 Y68.9601 
G01 X-67.7484 Y69.0298 
G01 X-67.9000 Y69.1311 
G01 X-68.0289 Y69.2600 
G01 X-68.1302 Y69.4116 
G01 X-68.1999 Y69.5800 
G01 X-68.2355 Y69.7588 
G00 Z3.0000 
G00 X-69.4594 Y26.5834 
G01 Z-0.1000 F150.00 
G01 X-69.4594 Y26.7566 F300.00 
G01 X-69.4256 Y26.9265 
G01 X-69.3593 Y27.0866 
G01 X-69.2631 Y27.2306 
G01 X-69.1406 Y27.3531 
G01 X-68.9965 Y27.4493 
G01 X-68.8365 Y27.5156 
G01 X-68.6666 Y27.5494 
G01 X-68.4934 Y27.5494 
G01 X-68.3235 Y27.5156 
G01 X-68.1634 Y27.4493 
G01 X-68.0194 Y27.3531 
G01 X-67.8969 Y27.2306 
G01 X-67.8007 Y27.0866 
G01 X-67.7344 Y26.9265 
G01 X-67.7006 Y26.7566 
G01 X-67.7006 Y26.5834 
G01 X-67.7344 Y26.4135 
G01 X-67.8007 Y26.2534 
G01 X-67.8969 Y26.1094 
G01 X-68.0194 Y25.9869 
G01 X-68.1634 Y25.8907 
G01 X-68.3235 Y25.8244 
G01 X-68.4934 Y25.7906 
G01 X-68.6666 Y25.7906 
G01 X-68.8365 Y25.8244 
G01 X-68.9965 Y25.8907 
G01 X-69.1406 Y25.9869 
G01 X-69.2631 Y26.1094 
G01 X-69.3593 Y26.2534 
G01 X-69.4256 Y26.4135 
G01 X-69.4594 Y26.5834 
G00 Z3.0000 
G00 X-69.4594 Y29.1234 
G01 Z-0.1000 F150.00 
G01 X-69.4594 Y29.2966 F300.00 
G01 X-69.4256 Y29.4665 
G01 X-69.3593 Y29.6266 
G01 X-69.2631 Y29.7706 
G01 X-69.1406 Y29.8931 
G01 X-68.9965 Y29.9893 
G01 X-68.8365 Y30.0556 
G01 X-68.6666 Y30.0894 
G01 X-68.4934 Y30.0894 
G01 X-68.3235 Y30.0556 
G01 X-68.1634 Y29.9893 
G01 X-68.0194 Y29.8931 
G01 X-67.8969 Y29.7706 
G01 X-67.8007 Y29.6266 
G01 X-67.7344 Y29.4665 
G01 X-67.7006 Y29.2966 
G01 X-67.7006 Y29.1234 
G01 X-67.7344 Y28.9535 
G01 X-67.8007 Y28.7934 
G01 X-67.8969 Y28.6494 
G01 X-68.0194 Y28.5269 
G01 X-68.1634 Y28.4307 
G01 X-68.3235 Y28.3644 
G01 X-68.4934 Y28.3306 
G01 X-68.6666 Y28.3306 
G01 X-68.8365 Y28.3644 
G01 X-68.9965 Y28.4307 
G01 X-69.1406 Y28.5269 
G01 X-69.2631 Y28.6494 
G01 X-69.3593 Y28.7934 
G01 X-69.4256 Y28.9535 
G01 X-69.4594 Y29.1234 
G00 Z3.0000 
G00 X-66.9194 Y29.1234 
G01 Z-0.1000 F150.00 
G01 X-66.9194 Y29.2966 F300.00 
G01 X-66.8856 Y29.4665 
G01 X-66.8193 Y29.6266 
G01 X-66.7231 Y29.7706 
G01 X-66.6006 Y29.8931 
G01 X-66.4566 Y29.9893 
G01 X-66.2965 Y30.0556 
G01 X-66.1266 Y30.0894 
G01 X-65.9534 Y30.0894 
G01 X-65.7835 Y30.0556 
G01 X-65.6234 Y29.9893 
G01 X-65.4794 Y29.8931 
G01 X-65.3569 Y29.7706 
G01 X-65.2607 Y29.6266 
G01 X-65.1944 Y29.4665 
G01 X-65.1606 Y29.2966 
G01 X-65.1606 Y29.1234 
G01 X-65.1944 Y28.9535 
G01 X-65.2607 Y28.7934 
G01 X-65.3569 Y28.6494 
G01 X-65.4794 Y28.5269 
G01 X-65.6234 Y28.4307 
G01 X-65.7835 Y28.3644 
G01 X-65.9534 Y28.3306 
G01 X-66.1266 Y28.3306 
G01 X-66.2965 Y28.3644 
G01 X-66.4566 Y28.4307 
G01 X-66.6006 Y28.5269 
G01 X-66.7231 Y28.6494 
G01 X-66.8193 Y28.7934 
G01 X-66.8856 Y28.9535 
G01 X-66.9194 Y29.1234 
G00 Z3.0000 
G00 X-69.4594 Y31.6634 
G01 Z-0.1000 F150.00 
G01 X-69.4594 Y31.8366 F300.00 
G01 X-69.4256 Y32.0065 
G01 X-69.3593 Y32.1666 
G01 X-69.2631 Y32.3106 
G01 X-69.1406 Y32.4331 
G01 X-68.9965 Y32.5293 
G01 X-68.8365 Y32.5956 
G01 X-68.6666 Y32.6294 
G01 X-68.4934 Y32.6294 
G01 X-68.3235 Y32.5956 
G01 X-68.1634 Y32.5293 
G01 X-68.0194 Y32.4331 
G01 X-67.8969 Y32.3106 
G01 X-67.8007 Y32.1666 
G01 X-67.7344 Y32.0065 
G01 X-67.7006 Y31.8366 
G01 X-67.7006 Y31.6634 
G01 X-67.7344 Y31.4935 
G01 X-67.8007 Y31.3334 
G01 X-67.8969 Y31.1894 
G01 X-68.0194 Y31.0669 
G01 X-68.1634 Y30.9707 
G01 X-68.3235 Y30.9044 
G01 X-68.4934 Y30.8706 
G01 X-68.6666 Y30.8706 
G01 X-68.8365 Y30.9044 
G01 X-68.9965 Y30.9707 
G01 X-69.1406 Y31.0669 
G01 X-69.2631 Y31.1894 
G01 X-69.3593 Y31.3334 
G01 X-69.4256 Y31.4935 
G01 X-69.4594 Y31.6634 
G00 Z3.0000 
G00 X-66.9194 Y31.6634 
G01 Z-0.1000 F150.00 
G01 X-66.9194 Y31.8366 F300.00 
G01 X-66.8856 Y32.0065 
G01 X-66.8193 Y32.1666 
G01 X-66.7231 Y32.3106 
G01 X-66.6006 Y32.4331 
G01 X-66.4566 Y32.5293 
G01 X-66.2965 Y32.5956 
G01 X-66.1266 Y32.6294 
G01 X-65.9534 Y32.6294 
G01 X-65.7835 Y32.5956 
G01 X-65.6234 Y32.5293 
G01 X-65.4794 Y32.4331 
G01 X-65.3569 Y32.3106 
G01 X-65.2607 Y32.1666 
G01 X-65.1944 Y32.0065 
G01 X-65.1606 Y31.8366 
G01 X-65.1606 Y31.6634 
G01 X-65.1944 Y31.4935 
G01 X-65.2607 Y31.3334 
G01 X-65.3569 Y31.1894 
G01 X-65.4794 Y31.0669 
G01 X-65.6234 Y30.9707 
G01 X-65.7835 Y30.9044 
G01 X-65.9534 Y30.8706 
G01 X-66.1266 Y30.8706 
G01 X-66.2965 Y30.9044 
G01 X-66.4566 Y30.9707 
G01 X-66.6006 Y31.0669 
G01 X-66.7231 Y31.1894 
G01 X-66.8193 Y31.3334 
G01 X-66.8856 Y31.4935 
G01 X-66.9194 Y31.6634 
G00 Z3.0000 
G00 X-66.9194 Y34.2034 
G01 Z-0.1000 F150.00 
G01 X-66.9194 Y34.3766 F300.00 
G01 X-66.8856 Y34.5465 
G01 X-66.8193 Y34.7066 
G01 X-66.7231 Y34.8506 
G01 X-66.6006 Y34.9731 
G01 X-66.4566 Y35.0693 
G01 X-66.2965 Y35.1356 
G01 X-66.1266 Y35.1694 
G01 X-65.9534 Y35.1694 
G01 X-65.7835 Y35.1356 
G01 X-65.6234 Y35.0693 
G01 X-65.4794 Y34.9731 
G01 X-65.3569 Y34.8506 
G01 X-65.2607 Y34.7066 
G01 X-65.1944 Y34.5465 
G01 X-65.1606 Y34.3766 
G01 X-65.1606 Y34.2034 
G01 X-65.1944 Y34.0335 
G01 X-65.2607 Y33.8734 
G01 X-65.3569 Y33.7294 
G01 X-65.4794 Y33.6069 
G01 X-65.6234 Y33.5107 
G01 X-65.7835 Y33.4444 
G01 X-65.9534 Y33.4106 
G01 X-66.1266 Y33.4106 
G01 X-66.2965 Y33.4444 
G01 X-66.4566 Y33.5107 
G01 X-66.6006 Y33.6069 
G01 X-66.7231 Y33.7294 
G01 X-66.8193 Y33.8734 
G01 X-66.8856 Y34.0335 
G01 X-66.9194 Y34.2034 
G00 Z3.0000 
G00 X-69.4594 Y36.7434 
G01 Z-0.1000 F150.00 
G01 X-69.4594 Y36.9166 F300.00 
G01 X-69.4256 Y37.0865 
G01 X-69.3593 Y37.2465 
G01 X-69.2631 Y37.3906 
G01 X-69.1406 Y37.5131 
G01 X-68.9965 Y37.6093 
G01 X-68.8365 Y37.6756 
G01 X-68.6666 Y37.7094 
G01 X-68.4934 Y37.7094 
G01 X-68.3235 Y37.6756 
G01 X-68.1634 Y37.6093 
G01 X-68.0194 Y37.5131 
G01 X-67.8969 Y37.3906 
G01 X-67.8007 Y37.2465 
G01 X-67.7344 Y37.0865 
G01 X-67.7006 Y36.9166 
G01 X-67.7006 Y36.7434 
G01 X-67.7344 Y36.5735 
G01 X-67.7761 Y36.4728 
G01 X-67.1791 Y35.8759 
G01 X-42.6759 Y35.8759 
G01 X-41.5278 Y37.0240 
G01 X-41.4690 Y37.0828 
G01 X-41.3969 Y37.1244 
G01 X-41.3166 Y37.1459 
G01 X-40.1359 Y37.1459 
G01 X-39.6859 Y37.5958 
G01 X-39.6859 Y47.9441 
G01 X-39.9272 Y47.9441 
G01 X-39.9493 Y47.8908 
G01 X-40.0346 Y47.7632 
G01 X-40.1432 Y47.6546 
G01 X-40.2708 Y47.5693 
G01 X-40.4127 Y47.5106 
G01 X-40.5632 Y47.4806 
G01 X-40.7168 Y47.4806 
G01 X-40.8673 Y47.5106 
G01 X-41.0092 Y47.5693 
G01 X-41.1368 Y47.6546 
G01 X-41.2454 Y47.7632 
G01 X-41.3307 Y47.8908 
G01 X-41.3894 Y48.0327 
G01 X-41.4194 Y48.1832 
G01 X-41.4194 Y48.3368 
G01 X-41.3894 Y48.4873 
G01 X-41.3674 Y48.5406 
G01 X-42.0408 Y49.2141 
G01 X-48.1499 Y49.2141 
G01 X-48.1732 Y49.1578 
G01 X-48.2592 Y49.0291 
G01 X-48.3687 Y48.9196 
G01 X-48.4974 Y48.8336 
G01 X-48.6404 Y48.7744 
G01 X-48.7922 Y48.7442 
G01 X-50.2678 Y48.7442 
G01 X-50.4196 Y48.7744 
G01 X-50.5626 Y48.8336 
G01 X-50.6913 Y48.9196 
G01 X-50.8008 Y49.0291 
G01 X-50.8868 Y49.1578 
G01 X-50.9460 Y49.3008 
G01 X-50.9762 Y49.4526 
G01 X-50.9762 Y49.6074 
G01 X-50.9460 Y49.7592 
G01 X-50.8868 Y49.9022 
G01 X-50.8008 Y50.0309 
G01 X-50.6913 Y50.1404 
G01 X-50.5626 Y50.2264 
G01 X-50.4196 Y50.2856 
G01 X-50.2678 Y50.3158 
G01 X-48.7922 Y50.3158 
G01 X-48.6404 Y50.2856 
G01 X-48.4974 Y50.2264 
G01 X-48.3687 Y50.1404 
G01 X-48.2592 Y50.0309 
G01 X-48.1732 Y49.9022 
G01 X-48.1499 Y49.8459 
G01 X-41.8684 Y49.8459 
G01 X-41.7881 Y49.8244 
G01 X-41.7160 Y49.7828 
G01 X-41.6572 Y49.7240 
G01 X-40.9206 Y48.9874 
G01 X-40.8673 Y49.0094 
G01 X-40.7168 Y49.0394 
G01 X-40.5632 Y49.0394 
G01 X-40.4127 Y49.0094 
G01 X-40.2708 Y48.9507 
G01 X-40.1432 Y48.8654 
G01 X-40.0346 Y48.7568 
G01 X-39.9493 Y48.6292 
G01 X-39.9272 Y48.5759 
G01 X-39.3284 Y48.5759 
G01 X-39.2481 Y48.5544 
G01 X-39.1760 Y48.5128 
G01 X-39.1172 Y48.4540 
G01 X-39.0756 Y48.3819 
G01 X-39.0541 Y48.3016 
G01 X-39.0541 Y37.4234 
G01 X-39.0756 Y37.3431 
G01 X-39.1172 Y37.2710 
G01 X-39.1760 Y37.2122 
G01 X-39.8110 Y36.5772 
G01 X-39.8831 Y36.5356 
G01 X-39.9634 Y36.5141 
G01 X-41.1441 Y36.5141 
G01 X-42.3510 Y35.3072 
G01 X-42.4231 Y35.2656 
G01 X-42.5034 Y35.2441 
G01 X-67.3516 Y35.2441 
G01 X-67.4319 Y35.2656 
G01 X-67.5040 Y35.3072 
G01 X-67.5628 Y35.3660 
G01 X-68.2228 Y36.0261 
G01 X-68.3235 Y35.9844 
G01 X-68.4934 Y35.9506 
G01 X-68.6666 Y35.9506 
G01 X-68.8365 Y35.9844 
G01 X-68.9965 Y36.0507 
G01 X-69.1406 Y36.1469 
G01 X-69.2631 Y36.2694 
G01 X-69.3593 Y36.4134 
G01 X-69.4256 Y36.5735 
G01 X-69.4594 Y36.7434 
G00 Z3.0000 
G00 X-66.9194 Y36.7434 
G01 Z-0.1000 F150.00 
G01 X-66.9194 Y36.9166 F300.00 
G01 X-66.8856 Y37.0865 
G01 X-66.8193 Y37.2465 
G01 X-66.7231 Y37.3906 
G01 X-66.6006 Y37.5131 
G01 X-66.4566 Y37.6093 
G01 X-66.2965 Y37.6756 
G01 X-66.1266 Y37.7094 
G01 X-65.9534 Y37.7094 
G01 X-65.7835 Y37.6756 
G01 X-65.6828 Y37.6339 
G01 X-64.9640 Y38.3528 
G01 X-64.8919 Y38.3944 
G01 X-64.8116 Y38.4159 
G01 X-61.0908 Y38.4159 
G01 X-58.2489 Y41.2579 
G01 X-58.3113 Y41.2996 
G01 X-58.4208 Y41.4091 
G01 X-58.5068 Y41.5378 
G01 X-58.5660 Y41.6808 
G01 X-58.5962 Y41.8326 
G01 X-58.5962 Y41.9874 
G01 X-58.5660 Y42.1392 
G01 X-58.5068 Y42.2822 
G01 X-58.4208 Y42.4109 
G01 X-58.3113 Y42.5204 
G01 X-58.1826 Y42.6064 
G01 X-58.0396 Y42.6656 
G01 X-57.8878 Y42.6958 
G01 X-56.4122 Y42.6958 
G01 X-56.2604 Y42.6656 
G01 X-56.1174 Y42.6064 
G01 X-55.9887 Y42.5204 
G01 X-55.8792 Y42.4109 
G01 X-55.7932 Y42.2822 
G01 X-55.7340 Y42.1392 
G01 X-55.7038 Y41.9874 
G01 X-55.7038 Y41.8326 
G01 X-55.7340 Y41.6808 
G01 X-55.7932 Y41.5378 
G01 X-55.8792 Y41.4091 
G01 X-55.9887 Y41.2996 
G01 X-56.1174 Y41.2136 
G01 X-56.2604 Y41.1544 
G01 X-56.4122 Y41.1242 
G01 X-57.4891 Y41.1242 
G01 X-60.1974 Y38.4159 
G01 X-41.3528 Y38.4159 
G01 X-41.3307 Y38.4692 
G01 X-41.2454 Y38.5968 
G01 X-41.1368 Y38.7054 
G01 X-41.0092 Y38.7907 
G01 X-40.8673 Y38.8494 
G01 X-40.7168 Y38.8794 
G01 X-40.5632 Y38.8794 
G01 X-40.4127 Y38.8494 
G01 X-40.2708 Y38.7907 
G01 X-40.1432 Y38.7054 
G01 X-40.0346 Y38.5968 
G01 X-39.9493 Y38.4692 
G01 X-39.8906 Y38.3273 
G01 X-39.8606 Y38.1768 
G01 X-39.8606 Y38.0232 
G01 X-39.8906 Y37.8727 
G01 X-39.9493 Y37.7308 
G01 X-40.0346 Y37.6032 
G01 X-40.1432 Y37.4946 
G01 X-40.2708 Y37.4093 
G01 X-40.4127 Y37.3506 
G01 X-40.5632 Y37.3206 
G01 X-40.7168 Y37.3206 
G01 X-40.8673 Y37.3506 
G01 X-41.0092 Y37.4093 
G01 X-41.1368 Y37.4946 
G01 X-41.2454 Y37.6032 
G01 X-41.3307 Y37.7308 
G01 X-41.3528 Y37.7841 
G01 X-64.6391 Y37.7841 
G01 X-65.2361 Y37.1872 
G01 X-65.1944 Y37.0865 
G01 X-65.1606 Y36.9166 
G01 X-65.1606 Y36.7434 
G01 X-65.1944 Y36.5735 
G01 X-65.2607 Y36.4134 
G01 X-65.3569 Y36.2694 
G01 X-65.4794 Y36.1469 
G01 X-65.6234 Y36.0507 
G01 X-65.7835 Y35.9844 
G01 X-65.9534 Y35.9506 
G01 X-66.1266 Y35.9506 
G01 X-66.2965 Y35.9844 
G01 X-66.4566 Y36.0507 
G01 X-66.6006 Y36.1469 
G01 X-66.7231 Y36.2694 
G01 X-66.8193 Y36.4134 
G01 X-66.8856 Y36.5735 
G01 X-66.9194 Y36.7434 
G00 Z3.0000 
G00 X-50.4936 Y66.9109 
G01 Z-0.1000 F150.00 
G01 X-50.4936 Y67.7091 F300.00 
G01 X-49.9291 Y68.2736 
G01 X-49.1309 Y68.2736 
G01 X-48.5664 Y67.7091 
G01 X-48.5664 Y66.9109 
G01 X-49.1309 Y66.3464 
G01 X-49.9291 Y66.3464 
G01 X-50.4936 Y66.9109 
G00 Z3.0000 
G00 X-60.6536 Y66.9109 
G01 Z-0.1000 F150.00 
G01 X-60.6536 Y67.7091 F300.00 
G01 X-60.0891 Y68.2736 
G01 X-59.2909 Y68.2736 
G01 X-58.7264 Y67.7091 
G01 X-58.7264 Y66.9109 
G01 X-59.2909 Y66.3464 
G01 X-60.0891 Y66.3464 
G01 X-60.6536 Y66.9109 
G00 Z3.0000 
G00 X-65.2464 Y47.4234 
G01 Z-0.1000 F150.00 
G01 X-66.8336 Y47.4234 F300.00 
G01 X-66.9952 Y47.4556 
G01 X-67.1475 Y47.5186 
G01 X-67.2845 Y47.6102 
G01 X-67.4010 Y47.7267 
G01 X-67.4926 Y47.8637 
G01 X-67.5556 Y48.0160 
G01 X-67.5878 Y48.1776 
G01 X-67.5878 Y48.3424 
G01 X-67.5556 Y48.5040 
G01 X-67.4926 Y48.6563 
G01 X-67.4010 Y48.7933 
G01 X-67.2845 Y48.9098 
G01 X-67.1475 Y49.0014 
G01 X-66.9952 Y49.0644 
G01 X-66.8336 Y49.0966 
G01 X-65.2464 Y49.0966 
G01 X-65.0848 Y49.0644 
G01 X-64.9325 Y49.0014 
G01 X-64.7955 Y48.9098 
G01 X-64.6790 Y48.7933 
G01 X-64.5874 Y48.6563 
G01 X-64.5243 Y48.5040 
G01 X-64.4922 Y48.3424 
G01 X-64.4922 Y48.1776 
G01 X-64.5243 Y48.0160 
G01 X-64.5874 Y47.8637 
G01 X-64.6790 Y47.7267 
G01 X-64.7955 Y47.6102 
G01 X-64.9325 Y47.5186 
G01 X-65.0848 Y47.4556 
G01 X-65.2464 Y47.4234 
G00 Z3.0000 
G00 X-65.2464 Y44.8834 
G01 Z-0.1000 F150.00 
G01 X-66.8336 Y44.8834 F300.00 
G01 X-66.9952 Y44.9156 
G01 X-67.1475 Y44.9786 
G01 X-67.2845 Y45.0702 
G01 X-67.4010 Y45.1867 
G01 X-67.4926 Y45.3237 
G01 X-67.5556 Y45.4760 
G01 X-67.5878 Y45.6376 
G01 X-67.5878 Y45.8024 
G01 X-67.5556 Y45.9640 
G01 X-67.4926 Y46.1163 
G01 X-67.4010 Y46.2533 
G01 X-67.2845 Y46.3698 
G01 X-67.1475 Y46.4614 
G01 X-66.9952 Y46.5244 
G01 X-66.8336 Y46.5566 
G01 X-65.2464 Y46.5566 
G01 X-65.0848 Y46.5244 
G01 X-64.9325 Y46.4614 
G01 X-64.7955 Y46.3698 
G01 X-64.6790 Y46.2533 
G01 X-64.5874 Y46.1163 
G01 X-64.5243 Y45.9640 
G01 X-64.4922 Y45.8024 
G01 X-64.4922 Y45.6376 
G01 X-64.5243 Y45.4760 
G01 X-64.5874 Y45.3237 
G01 X-64.6790 Y45.1867 
G01 X-64.7955 Y45.0702 
G01 X-64.9325 Y44.9786 
G01 X-65.0848 Y44.9156 
G01 X-65.2464 Y44.8834 
G00 Z3.0000 
G00 X-41.4194 Y35.4832 
G01 Z-0.1000 F150.00 
G01 X-41.4194 Y35.6368 F300.00 
G01 X-41.3894 Y35.7873 
G01 X-41.3307 Y35.9292 
G01 X-41.2454 Y36.0568 
G01 X-41.1368 Y36.1654 
G01 X-41.0092 Y36.2507 
G01 X-40.8673 Y36.3094 
G01 X-40.7168 Y36.3394 
G01 X-40.5632 Y36.3394 
G01 X-40.4127 Y36.3094 
G01 X-40.2708 Y36.2507 
G01 X-40.1432 Y36.1654 
G01 X-40.0346 Y36.0568 
G01 X-39.9493 Y35.9292 
G01 X-39.8906 Y35.7873 
G01 X-39.8606 Y35.6368 
G01 X-39.8606 Y35.4832 
G01 X-39.8906 Y35.3327 
G01 X-39.9493 Y35.1908 
G01 X-40.0346 Y35.0632 
G01 X-40.1432 Y34.9546 
G01 X-40.2708 Y34.8693 
G01 X-40.4127 Y34.8106 
G01 X-40.5632 Y34.7806 
G01 X-40.7168 Y34.7806 
G01 X-40.8673 Y34.8106 
G01 X-41.0092 Y34.8693 
G01 X-41.1368 Y34.9546 
G01 X-41.2454 Y35.0632 
G01 X-41.3307 Y35.1908 
G01 X-41.3894 Y35.3327 
G01 X-41.4194 Y35.4832 
G00 Z3.0000 
G00 X-41.3307 Y41.0092 
G01 Z-0.1000 F150.00 
G01 X-41.2454 Y41.1368 F300.00 
G01 X-41.1368 Y41.2454 
G01 X-41.0092 Y41.3307 
G01 X-40.8673 Y41.3894 
G01 X-40.7168 Y41.4194 
G01 X-40.5632 Y41.4194 
G01 X-40.4127 Y41.3894 
G01 X-40.2708 Y41.3307 
G01 X-40.1432 Y41.2454 
G01 X-40.0346 Y41.1368 
G01 X-39.9493 Y41.0092 
G01 X-39.8906 Y40.8673 
G01 X-39.8606 Y40.7168 
G01 X-39.8606 Y40.5632 
G01 X-39.8906 Y40.4127 
G01 X-39.9493 Y40.2708 
G01 X-40.0346 Y40.1432 
G01 X-40.1432 Y40.0346 
G01 X-40.2708 Y39.9493 
G01 X-40.4127 Y39.8906 
G01 X-40.5632 Y39.8606 
G01 X-40.7168 Y39.8606 
G01 X-40.8673 Y39.8906 
G01 X-41.0092 Y39.9493 
G01 X-41.1368 Y40.0346 
G01 X-41.2454 Y40.1432 
G01 X-41.3307 Y40.2708 
G01 X-41.3528 Y40.3241 
G01 X-55.7491 Y40.3241 
G01 X-56.0511 Y40.0221 
G01 X-55.9887 Y39.9804 
G01 X-55.8792 Y39.8709 
G01 X-55.7932 Y39.7422 
G01 X-55.7340 Y39.5992 
G01 X-55.7038 Y39.4474 
G01 X-55.7038 Y39.2926 
G01 X-55.7340 Y39.1408 
G01 X-55.7932 Y38.9978 
G01 X-55.8792 Y38.8691 
G01 X-55.9887 Y38.7596 
G01 X-56.1174 Y38.6736 
G01 X-56.2604 Y38.6144 
G01 X-56.4122 Y38.5842 
G01 X-57.8878 Y38.5842 
G01 X-58.0396 Y38.6144 
G01 X-58.1826 Y38.6736 
G01 X-58.3113 Y38.7596 
G01 X-58.4208 Y38.8691 
G01 X-58.5068 Y38.9978 
G01 X-58.5660 Y39.1408 
G01 X-58.5962 Y39.2926 
G01 X-58.5962 Y39.4474 
G01 X-58.5660 Y39.5992 
G01 X-58.5068 Y39.7422 
G01 X-58.4208 Y39.8709 
G01 X-58.3113 Y39.9804 
G01 X-58.1826 Y40.0664 
G01 X-58.0396 Y40.1256 
G01 X-57.8878 Y40.1558 
G01 X-56.8110 Y40.1558 
G01 X-56.1328 Y40.8340 
G01 X-56.0740 Y40.8928 
G01 X-56.0019 Y40.9344 
G01 X-55.9216 Y40.9559 
G01 X-41.3528 Y40.9559 
G01 X-41.3307 Y41.0092 
G00 Z3.0000 
G00 X-41.4194 Y43.1032 
G01 Z-0.1000 F150.00 
G01 X-41.4194 Y43.2568 F300.00 
G01 X-41.3894 Y43.4073 
G01 X-41.3307 Y43.5492 
G01 X-41.2454 Y43.6768 
G01 X-41.1368 Y43.7854 
G01 X-41.0092 Y43.8707 
G01 X-40.8673 Y43.9294 
G01 X-40.7168 Y43.9594 
G01 X-40.5632 Y43.9594 
G01 X-40.4127 Y43.9294 
G01 X-40.2708 Y43.8707 
G01 X-40.1432 Y43.7854 
G01 X-40.0346 Y43.6768 
G01 X-39.9493 Y43.5492 
G01 X-39.8906 Y43.4073 
G01 X-39.8606 Y43.2568 
G01 X-39.8606 Y43.1032 
G01 X-39.8906 Y42.9527 
G01 X-39.9493 Y42.8108 
G01 X-40.0346 Y42.6832 
G01 X-40.1432 Y42.5746 
G01 X-40.2708 Y42.4893 
G01 X-40.4127 Y42.4306 
G01 X-40.5632 Y42.4006 
G01 X-40.7168 Y42.4006 
G01 X-40.8673 Y42.4306 
G01 X-41.0092 Y42.4893 
G01 X-41.1368 Y42.5746 
G01 X-41.2454 Y42.6832 
G01 X-41.3307 Y42.8108 
G01 X-41.3894 Y42.9527 
G01 X-41.4194 Y43.1032 
G00 Z3.0000 
G00 X-41.4194 Y45.6432 
G01 Z-0.1000 F150.00 
G01 X-41.4194 Y45.7968 F300.00 
G01 X-41.3894 Y45.9473 
G01 X-41.3674 Y46.0006 
G01 X-43.3109 Y47.9441 
G01 X-50.8416 Y47.9441 
G01 X-50.9219 Y47.9656 
G01 X-50.9940 Y48.0072 
G01 X-55.4390 Y52.4522 
G01 X-55.4978 Y52.5110 
G01 X-55.5394 Y52.5831 
G01 X-55.5609 Y52.6634 
G01 X-55.5609 Y56.8341 
G01 X-55.7699 Y56.8341 
G01 X-55.7932 Y56.7778 
G01 X-55.8792 Y56.6491 
G01 X-55.9887 Y56.5396 
G01 X-56.1174 Y56.4536 
G01 X-56.2604 Y56.3944 
G01 X-56.4122 Y56.3642 
G01 X-57.8878 Y56.3642 
G01 X-58.0396 Y56.3944 
G01 X-58.1826 Y56.4536 
G01 X-58.3113 Y56.5396 
G01 X-58.4208 Y56.6491 
G01 X-58.5068 Y56.7778 
G01 X-58.5660 Y56.9208 
G01 X-58.5962 Y57.0726 
G01 X-58.5962 Y57.2274 
G01 X-58.5660 Y57.3792 
G01 X-58.5068 Y57.5222 
G01 X-58.4208 Y57.6509 
G01 X-58.3113 Y57.7604 
G01 X-58.1826 Y57.8464 
G01 X-58.0396 Y57.9056 
G01 X-57.8878 Y57.9358 
G01 X-56.4122 Y57.9358 
G01 X-56.2604 Y57.9056 
G01 X-56.1174 Y57.8464 
G01 X-55.9887 Y57.7604 
G01 X-55.8792 Y57.6509 
G01 X-55.7932 Y57.5222 
G01 X-55.7699 Y57.4659 
G01 X-55.2034 Y57.4659 
G01 X-55.1231 Y57.4444 
G01 X-55.0510 Y57.4028 
G01 X-54.9922 Y57.3440 
G01 X-54.9506 Y57.2719 
G01 X-54.9291 Y57.1916 
G01 X-54.9291 Y52.8359 
G01 X-50.6691 Y48.5759 
G01 X-43.1384 Y48.5759 
G01 X-43.0581 Y48.5544 
G01 X-42.9860 Y48.5128 
G01 X-42.9272 Y48.4540 
G01 X-40.9206 Y46.4474 
G01 X-40.8673 Y46.4694 
G01 X-40.7168 Y46.4994 
G01 X-40.5632 Y46.4994 
G01 X-40.4127 Y46.4694 
G01 X-40.2708 Y46.4107 
G01 X-40.1432 Y46.3254 
G01 X-40.0346 Y46.2168 
G01 X-39.9493 Y46.0892 
G01 X-39.8906 Y45.9473 
G01 X-39.8606 Y45.7968 
G01 X-39.8606 Y45.6432 
G01 X-39.8906 Y45.4927 
G01 X-39.9493 Y45.3508 
G01 X-40.0346 Y45.2232 
G01 X-40.1432 Y45.1146 
G01 X-40.2708 Y45.0293 
G01 X-40.4127 Y44.9706 
G01 X-40.5632 Y44.9406 
G01 X-40.7168 Y44.9406 
G01 X-40.8673 Y44.9706 
G01 X-41.0092 Y45.0293 
G01 X-41.1368 Y45.1146 
G01 X-41.2454 Y45.2232 
G01 X-41.3307 Y45.3508 
G01 X-41.3894 Y45.4927 
G01 X-41.4194 Y45.6432 
G00 Z3.0000 
G00 X-41.4194 Y50.7232 
G01 Z-0.1000 F150.00 
G01 X-41.4194 Y50.8768 F300.00 
G01 X-41.3894 Y51.0273 
G01 X-41.3674 Y51.0806 
G01 X-42.0408 Y51.7541 
G01 X-48.1499 Y51.7541 
G01 X-48.1732 Y51.6978 
G01 X-48.2592 Y51.5691 
G01 X-48.3687 Y51.4596 
G01 X-48.4974 Y51.3736 
G01 X-48.6404 Y51.3144 
G01 X-48.7922 Y51.2842 
G01 X-50.2678 Y51.2842 
G01 X-50.4196 Y51.3144 
G01 X-50.5626 Y51.3736 
G01 X-50.6913 Y51.4596 
G01 X-50.8008 Y51.5691 
G01 X-50.8868 Y51.6978 
G01 X-50.9460 Y51.8408 
G01 X-50.9762 Y51.9926 
G01 X-50.9762 Y52.1474 
G01 X-50.9460 Y52.2992 
G01 X-50.8868 Y52.4422 
G01 X-50.8008 Y52.5709 
G01 X-50.6913 Y52.6804 
G01 X-50.5626 Y52.7664 
G01 X-50.4196 Y52.8256 
G01 X-50.2678 Y52.8558 
G01 X-48.7922 Y52.8558 
G01 X-48.6404 Y52.8256 
G01 X-48.4974 Y52.7664 
G01 X-48.3687 Y52.6804 
G01 X-48.2592 Y52.5709 
G01 X-48.1732 Y52.4422 
G01 X-48.1499 Y52.3859 
G01 X-41.8684 Y52.3859 
G01 X-41.7881 Y52.3644 
G01 X-41.7160 Y52.3228 
G01 X-41.6572 Y52.2640 
G01 X-40.9206 Y51.5274 
G01 X-40.8673 Y51.5494 
G01 X-40.7168 Y51.5794 
G01 X-40.5632 Y51.5794 
G01 X-40.4127 Y51.5494 
G01 X-40.2708 Y51.4907 
G01 X-40.1432 Y51.4054 
G01 X-40.0346 Y51.2968 
G01 X-39.9493 Y51.1692 
G01 X-39.8906 Y51.0273 
G01 X-39.8606 Y50.8768 
G01 X-39.8606 Y50.7232 
G01 X-39.8906 Y50.5727 
G01 X-39.9493 Y50.4308 
G01 X-40.0346 Y50.3032 
G01 X-40.1432 Y50.1946 
G01 X-40.2708 Y50.1093 
G01 X-40.4127 Y50.0506 
G01 X-40.5632 Y50.0206 
G01 X-40.7168 Y50.0206 
G01 X-40.8673 Y50.0506 
G01 X-41.0092 Y50.1093 
G01 X-41.1368 Y50.1946 
G01 X-41.2454 Y50.3032 
G01 X-41.3307 Y50.4308 
G01 X-41.3894 Y50.5727 
G01 X-41.4194 Y50.7232 
G00 Z3.0000 
G00 X-41.4194 Y53.2632 
G01 Z-0.1000 F150.00 
G01 X-41.4194 Y53.4168 F300.00 
G01 X-41.3894 Y53.5673 
G01 X-41.3307 Y53.7092 
G01 X-41.2454 Y53.8368 
G01 X-41.1368 Y53.9454 
G01 X-41.0092 Y54.0307 
G01 X-40.8673 Y54.0894 
G01 X-40.7168 Y54.1194 
G01 X-40.5632 Y54.1194 
G01 X-40.4127 Y54.0894 
G01 X-40.2708 Y54.0307 
G01 X-40.1432 Y53.9454 
G01 X-40.0346 Y53.8368 
G01 X-39.9493 Y53.7092 
G01 X-39.8906 Y53.5673 
G01 X-39.8606 Y53.4168 
G01 X-39.8606 Y53.2632 
G01 X-39.8906 Y53.1127 
G01 X-39.9493 Y52.9708 
G01 X-40.0346 Y52.8432 
G01 X-40.1432 Y52.7346 
G01 X-40.2708 Y52.6493 
G01 X-40.4127 Y52.5906 
G01 X-40.5632 Y52.5606 
G01 X-40.7168 Y52.5606 
G01 X-40.8673 Y52.5906 
G01 X-41.0092 Y52.6493 
G01 X-41.1368 Y52.7346 
G01 X-41.2454 Y52.8432 
G01 X-41.3307 Y52.9708 
G01 X-41.3894 Y53.1127 
G01 X-41.4194 Y53.2632 
G00 Z3.0000 
G00 X-80.6894 Y31.1231 
G01 Z-0.1000 F150.00 
G01 X-80.6894 Y31.2569 F300.00 
G01 X-80.6633 Y31.3882 
G01 X-80.6121 Y31.5118 
G01 X-80.5377 Y31.6231 
G01 X-80.4431 Y31.7177 
G01 X-80.3318 Y31.7921 
G01 X-80.2082 Y31.8433 
G01 X-80.0769 Y31.8694 
G01 X-79.9431 Y31.8694 
G01 X-79.8118 Y31.8433 
G01 X-79.6882 Y31.7921 
G01 X-79.5769 Y31.7177 
G01 X-79.4823 Y31.6231 
G01 X-79.4079 Y31.5118 
G01 X-79.3567 Y31.3882 
G01 X-79.3306 Y31.2569 
G01 X-79.3306 Y31.1231 
G01 X-79.3567 Y30.9918 
G01 X-79.3811 Y30.9329 
G01 X-76.7041 Y28.2559 
G01 X-67.2684 Y28.2559 
G01 X-67.1881 Y28.2344 
G01 X-67.1160 Y28.1928 
G01 X-66.3972 Y27.4739 
G01 X-66.2965 Y27.5156 
G01 X-66.1266 Y27.5494 
G01 X-65.9534 Y27.5494 
G01 X-65.7835 Y27.5156 
G01 X-65.6234 Y27.4493 
G01 X-65.4794 Y27.3531 
G01 X-65.3569 Y27.2306 
G01 X-65.2607 Y27.0866 
G01 X-65.1944 Y26.9265 
G01 X-65.1606 Y26.7566 
G01 X-65.1606 Y26.5834 
G01 X-65.1944 Y26.4135 
G01 X-65.2607 Y26.2534 
G01 X-65.3569 Y26.1094 
G01 X-65.4794 Y25.9869 
G01 X-65.6234 Y25.8907 
G01 X-65.7835 Y25.8244 
G01 X-65.9534 Y25.7906 
G01 X-66.1266 Y25.7906 
G01 X-66.2965 Y25.8244 
G01 X-66.4566 Y25.8907 
G01 X-66.6006 Y25.9869 
G01 X-66.7231 Y26.1094 
G01 X-66.8193 Y26.2534 
G01 X-66.8856 Y26.4135 
G01 X-66.9194 Y26.5834 
G01 X-66.9194 Y26.7566 
G01 X-66.8856 Y26.9265 
G01 X-66.8439 Y27.0272 
G01 X-67.4408 Y27.6241 
G01 X-76.8766 Y27.6241 
G01 X-76.9569 Y27.6456 
G01 X-77.0290 Y27.6872 
G01 X-77.0878 Y27.7460 
G01 X-79.8674 Y30.5257 
G01 X-79.9431 Y30.5106 
G01 X-80.0769 Y30.5106 
G01 X-80.2082 Y30.5367 
G01 X-80.3318 Y30.5879 
G01 X-80.4431 Y30.6623 
G01 X-80.5377 Y30.7569 
G01 X-80.6121 Y30.8682 
G01 X-80.6633 Y30.9918 
G01 X-80.6894 Y31.1231 
G00 Z3.0000 
G00 X-80.6894 Y24.6231 
G01 Z-0.1000 F150.00 
G01 X-80.6894 Y24.7569 F300.00 
G01 X-80.6633 Y24.8882 
G01 X-80.6121 Y25.0118 
G01 X-80.5377 Y25.1231 
G01 X-80.4431 Y25.2177 
G01 X-80.3318 Y25.2921 
G01 X-80.2082 Y25.3433 
G01 X-80.0769 Y25.3694 
G01 X-79.9431 Y25.3694 
G01 X-79.8118 Y25.3433 
G01 X-79.6882 Y25.2921 
G01 X-79.5769 Y25.2177 
G01 X-79.4823 Y25.1231 
G01 X-79.4079 Y25.0118 
G01 X-79.3567 Y24.8882 
G01 X-79.3306 Y24.7569 
G01 X-79.3306 Y24.6231 
G01 X-79.3567 Y24.4918 
G01 X-79.4079 Y24.3682 
G01 X-79.4823 Y24.2569 
G01 X-79.5769 Y24.1623 
G01 X-79.6882 Y24.0879 
G01 X-79.8118 Y24.0367 
G01 X-79.9431 Y24.0106 
G01 X-80.0769 Y24.0106 
G01 X-80.2082 Y24.0367 
G01 X-80.3318 Y24.0879 
G01 X-80.4431 Y24.1623 
G01 X-80.5377 Y24.2569 
G01 X-80.6121 Y24.3682 
G01 X-80.6633 Y24.4918 
G01 X-80.6894 Y24.6231 
G00 Z3.0000 
G00 X-39.8368 Y40.2107 
G01 Z-0.1000 F150.00 
G01 X-39.9360 Y40.0622 F300.00 
G01 X-40.0622 Y39.9360 
G01 X-40.2107 Y39.8368 
G01 X-40.3756 Y39.7684 
G01 X-40.5507 Y39.7336 
G01 X-40.7293 Y39.7336 
G01 X-40.9044 Y39.7684 
G01 X-41.0693 Y39.8368 
G01 X-41.2178 Y39.9360 
G01 X-41.3440 Y40.0622 
G01 X-41.4342 Y40.1971 
G01 X-48.4811 Y40.1971 
G01 X-48.4372 Y40.1789 
G01 X-48.2877 Y40.0790 
G01 X-48.1606 Y39.9519 
G01 X-48.0607 Y39.8024 
G01 X-47.9919 Y39.6363 
G01 X-47.9568 Y39.4599 
G01 X-47.9568 Y39.2801 
G01 X-47.9919 Y39.1037 
G01 X-48.0607 Y38.9376 
G01 X-48.1606 Y38.7881 
G01 X-48.2877 Y38.6610 
G01 X-48.4372 Y38.5611 
G01 X-48.4811 Y38.5429 
G01 X-41.4342 Y38.5429 
G01 X-41.3440 Y38.6778 
G01 X-41.2178 Y38.8040 
G01 X-41.0693 Y38.9032 
G01 X-40.9044 Y38.9716 
G01 X-40.7293 Y39.0064 
G01 X-40.5507 Y39.0064 
G01 X-40.3756 Y38.9716 
G01 X-40.2107 Y38.9032 
G01 X-40.0622 Y38.8040 
G01 X-39.9360 Y38.6778 
G01 X-39.8368 Y38.5293 
G01 X-39.8129 Y38.4717 
G01 X-39.8129 Y40.2683 
G01 X-39.8368 Y40.2107 
G00 Z3.0000 
G00 X-39.8368 Y37.6707 
G01 Z-0.1000 F150.00 
G01 X-39.9295 Y37.5318 F300.00 
G01 X-39.8129 Y37.6485 
G01 X-39.8129 Y37.7283 
G01 X-39.8368 Y37.6707 
G00 Z3.0000 
G00 X-50.6228 Y36.0211 
G01 Z-0.1000 F150.00 
G01 X-50.7723 Y36.1210 F300.00 
G01 X-50.8994 Y36.2481 
G01 X-50.9993 Y36.3976 
G01 X-51.0681 Y36.5637 
G01 X-51.1032 Y36.7401 
G01 X-51.1032 Y36.9199 
G01 X-51.0681 Y37.0963 
G01 X-50.9993 Y37.2624 
G01 X-50.8994 Y37.4119 
G01 X-50.7723 Y37.5390 
G01 X-50.6228 Y37.6389 
G01 X-50.5789 Y37.6571 
G01 X-56.1011 Y37.6571 
G01 X-56.0572 Y37.6389 
G01 X-55.9077 Y37.5390 
G01 X-55.7806 Y37.4119 
G01 X-55.6807 Y37.2624 
G01 X-55.6119 Y37.0963 
G01 X-55.5768 Y36.9199 
G01 X-55.5768 Y36.7401 
G01 X-55.6119 Y36.5637 
G01 X-55.6807 Y36.3976 
G01 X-55.7806 Y36.2481 
G01 X-55.9077 Y36.1210 
G01 X-56.0572 Y36.0211 
G01 X-56.1011 Y36.0029 
G01 X-50.5789 Y36.0029 
G01 X-50.6228 Y36.0211 
G00 Z3.0000 
G00 X-58.2428 Y36.0211 
G01 Z-0.1000 F150.00 
G01 X-58.3923 Y36.1210 F300.00 
G01 X-58.5194 Y36.2481 
G01 X-58.6193 Y36.3976 
G01 X-58.6881 Y36.5637 
G01 X-58.7232 Y36.7401 
G01 X-58.7232 Y36.9199 
G01 X-58.6881 Y37.0963 
G01 X-58.6193 Y37.2624 
G01 X-58.5194 Y37.4119 
G01 X-58.3923 Y37.5390 
G01 X-58.2428 Y37.6389 
G01 X-58.1989 Y37.6571 
G01 X-64.5865 Y37.6571 
G01 X-65.0863 Y37.1574 
G01 X-65.0723 Y37.1236 
G01 X-65.0336 Y36.9291 
G01 X-65.0336 Y36.7309 
G01 X-65.0723 Y36.5364 
G01 X-65.1481 Y36.3533 
G01 X-65.2583 Y36.1885 
G01 X-65.3985 Y36.0483 
G01 X-65.4664 Y36.0029 
G01 X-58.1989 Y36.0029 
G01 X-58.2428 Y36.0211 
G00 Z3.0000 
G00 X-55.8612 Y40.0325 
G01 Z-0.1000 F150.00 
G01 X-55.7806 Y39.9519 F300.00 
G01 X-55.6807 Y39.8024 
G01 X-55.6119 Y39.6363 
G01 X-55.5768 Y39.4599 
G01 X-55.5768 Y39.2801 
G01 X-55.6119 Y39.1037 
G01 X-55.6807 Y38.9376 
G01 X-55.7806 Y38.7881 
G01 X-55.9077 Y38.6610 
G01 X-56.0572 Y38.5611 
G01 X-56.1011 Y38.5429 
G01 X-50.5789 Y38.5429 
G01 X-50.6228 Y38.5611 
G01 X-50.7723 Y38.6610 
G01 X-50.8994 Y38.7881 
G01 X-50.9993 Y38.9376 
G01 X-51.0681 Y39.1037 
G01 X-51.1032 Y39.2801 
G01 X-51.1032 Y39.4599 
G01 X-51.0681 Y39.6363 
G01 X-50.9993 Y39.8024 
G01 X-50.8994 Y39.9519 
G01 X-50.7723 Y40.0790 
G01 X-50.6228 Y40.1789 
G01 X-50.5789 Y40.1971 
G01 X-55.6965 Y40.1971 
G01 X-55.8612 Y40.0325 
G00 Z3.0000 
G00 X-40.2107 Y37.2968 
G01 Z-0.1000 F150.00 
G01 X-40.2683 Y37.2729 F300.00 
G01 X-40.1885 Y37.2729 
G01 X-40.0718 Y37.3895 
G01 X-40.2107 Y37.2968 
G00 Z3.0000 
G00 X-41.0693 Y37.2968 
G01 Z-0.1000 F150.00 
G01 X-41.2178 Y37.3960 F300.00 
G01 X-41.3440 Y37.5222 
G01 X-41.4342 Y37.6571 
G01 X-48.4811 Y37.6571 
G01 X-48.4372 Y37.6389 
G01 X-48.2877 Y37.5390 
G01 X-48.1606 Y37.4119 
G01 X-48.0607 Y37.2624 
G01 X-47.9919 Y37.0963 
G01 X-47.9568 Y36.9199 
G01 X-47.9568 Y36.7401 
G01 X-47.9919 Y36.5637 
G01 X-48.0607 Y36.3976 
G01 X-48.1606 Y36.2481 
G01 X-48.2877 Y36.1210 
G01 X-48.4372 Y36.0211 
G01 X-48.4811 Y36.0029 
G01 X-42.7285 Y36.0029 
G01 X-41.6294 Y37.1019 
G01 X-41.5469 Y37.1844 
G01 X-41.4460 Y37.2427 
G01 X-41.3333 Y37.2729 
G01 X-41.0117 Y37.2729 
G01 X-41.0693 Y37.2968 
G00 Z3.0000 
G00 X-41.2082 Y36.2705 
G01 Z-0.1000 F150.00 
G01 X-41.0693 Y36.3632 F300.00 
G01 X-41.0117 Y36.3871 
G01 X-41.0915 Y36.3871 
G01 X-41.2082 Y36.2705 
G00 Z3.0000 
G00 X-58.1989 Y38.5429 
G01 Z-0.1000 F150.00 
G01 X-58.2428 Y38.5611 F300.00 
G01 X-58.3923 Y38.6610 
G01 X-58.5194 Y38.7881 
G01 X-58.6193 Y38.9376 
G01 X-58.6881 Y39.1037 
G01 X-58.7232 Y39.2801 
G01 X-58.7232 Y39.4599 
G01 X-58.6881 Y39.6363 
G01 X-58.6193 Y39.8024 
G01 X-58.5952 Y39.8384 
G01 X-59.8908 Y38.5429 
G01 X-58.1989 Y38.5429 
G00 Z3.0000 
G00 X-56.7928 Y62.6081 
G01 Z-0.1000 F150.00 
G01 X-56.3438 Y63.0571 F300.00 
G01 X-56.9665 Y63.0571 
G01 X-57.5072 Y62.5164 
G01 X-57.5072 Y61.8519 
G01 X-57.9562 Y61.4029 
G01 X-57.3335 Y61.4029 
G01 X-56.7928 Y61.9436 
G01 X-56.7928 Y62.6081 
G00 Z3.0000 
G00 X-55.0529 Y62.6938 
G01 Z-0.1000 F150.00 
G01 X-55.0529 Y63.0571 F300.00 
G01 X-55.4162 Y63.0571 
G01 X-55.0529 Y62.6938 
G00 Z3.0000 
G00 X-40.8884 Y46.5947 
G01 Z-0.1000 F150.00 
G01 X-40.7293 Y46.6264 F300.00 
G01 X-40.5507 Y46.6264 
G01 X-40.3756 Y46.5916 
G01 X-40.2107 Y46.5232 
G01 X-40.0622 Y46.4240 
G01 X-39.9360 Y46.2978 
G01 X-39.8368 Y46.1493 
G01 X-39.8129 Y46.0917 
G01 X-39.8129 Y47.8171 
G01 X-39.8458 Y47.8171 
G01 X-39.9360 Y47.6822 
G01 X-40.0622 Y47.5560 
G01 X-40.2107 Y47.4568 
G01 X-40.3756 Y47.3884 
G01 X-40.5507 Y47.3536 
G01 X-40.7293 Y47.3536 
G01 X-40.9044 Y47.3884 
G01 X-41.0693 Y47.4568 
G01 X-41.2178 Y47.5560 
G01 X-41.3440 Y47.6822 
G01 X-41.4432 Y47.8307 
G01 X-41.5116 Y47.9956 
G01 X-41.5464 Y48.1707 
G01 X-41.5464 Y48.3493 
G01 X-41.5147 Y48.5084 
G01 X-42.0935 Y49.0871 
G01 X-48.0677 Y49.0871 
G01 X-48.1606 Y48.9481 
G01 X-48.2877 Y48.8210 
G01 X-48.4372 Y48.7211 
G01 X-48.4811 Y48.7029 
G01 X-43.1217 Y48.7029 
G01 X-43.0090 Y48.6727 
G01 X-42.9081 Y48.6144 
G01 X-42.8256 Y48.5319 
G01 X-40.8884 Y46.5947 
G00 Z3.0000 
G00 X-50.5789 Y48.7029 
G01 Z-0.1000 F150.00 
G01 X-50.6228 Y48.7211 F300.00 
G01 X-50.6588 Y48.7452 
G01 X-50.6165 Y48.7029 
G01 X-50.5789 Y48.7029 
G00 Z3.0000 
G00 X-68.8736 Y37.7977 
G01 Z-0.1000 F150.00 
G01 X-68.6791 Y37.8364 F300.00 
G01 X-68.4809 Y37.8364 
G01 X-68.2864 Y37.7977 
G01 X-68.1033 Y37.7219 
G01 X-67.9385 Y37.6117 
G01 X-67.7983 Y37.4715 
G01 X-67.6881 Y37.3067 
G01 X-67.6123 Y37.1236 
G01 X-67.5736 Y36.9291 
G01 X-67.5736 Y36.7309 
G01 X-67.6123 Y36.5364 
G01 X-67.6263 Y36.5026 
G01 X-67.1265 Y36.0029 
G01 X-66.6136 Y36.0029 
G01 X-66.6815 Y36.0483 
G01 X-66.8217 Y36.1885 
G01 X-66.9319 Y36.3533 
G01 X-67.0077 Y36.5364 
G01 X-67.0464 Y36.7309 
G01 X-67.0464 Y36.9291 
G01 X-67.0077 Y37.1236 
G01 X-66.9319 Y37.3067 
G01 X-66.8217 Y37.4715 
G01 X-66.6815 Y37.6117 
G01 X-66.5167 Y37.7219 
G01 X-66.3336 Y37.7977 
G01 X-66.1391 Y37.8364 
G01 X-65.9409 Y37.8364 
G01 X-65.7464 Y37.7977 
G01 X-65.7126 Y37.7837 
G01 X-65.0419 Y38.4544 
G01 X-64.9410 Y38.5127 
G01 X-64.8283 Y38.5429 
G01 X-61.1435 Y38.5429 
G01 X-58.4388 Y41.2475 
G01 X-58.5194 Y41.3281 
G01 X-58.6193 Y41.4776 
G01 X-58.6881 Y41.6437 
G01 X-58.7232 Y41.8201 
G01 X-58.7232 Y41.9999 
G01 X-58.6881 Y42.1763 
G01 X-58.6193 Y42.3424 
G01 X-58.5194 Y42.4919 
G01 X-58.3923 Y42.6190 
G01 X-58.2428 Y42.7189 
G01 X-58.1989 Y42.7371 
G01 X-63.9515 Y42.7371 
G01 X-68.9032 Y37.7854 
G01 X-68.8736 Y37.7977 
G00 Z3.0000 
G00 X-69.3617 Y34.9315 
G01 Z-0.1000 F150.00 
G01 X-69.2215 Y35.0717 F300.00 
G01 X-69.0567 Y35.1819 
G01 X-68.8736 Y35.2577 
G01 X-68.6791 Y35.2964 
G01 X-68.4809 Y35.2964 
G01 X-68.2864 Y35.2577 
G01 X-68.1033 Y35.1819 
G01 X-67.9385 Y35.0717 
G01 X-67.7983 Y34.9315 
G01 X-67.6881 Y34.7667 
G01 X-67.6123 Y34.5836 
G01 X-67.5736 Y34.3891 
G01 X-67.5736 Y34.1909 
G01 X-67.6123 Y33.9964 
G01 X-67.6881 Y33.8133 
G01 X-67.7983 Y33.6485 
G01 X-67.9385 Y33.5083 
G01 X-68.0064 Y33.4629 
G01 X-66.6136 Y33.4629 
G01 X-66.6815 Y33.5083 
G01 X-66.8217 Y33.6485 
G01 X-66.9319 Y33.8133 
G01 X-67.0077 Y33.9964 
G01 X-67.0464 Y34.1909 
G01 X-67.0464 Y34.3891 
G01 X-67.0077 Y34.5836 
G01 X-66.9319 Y34.7667 
G01 X-66.8217 Y34.9315 
G01 X-66.6815 Y35.0717 
G01 X-66.6136 Y35.1171 
G01 X-67.3683 Y35.1171 
G01 X-67.4810 Y35.1473 
G01 X-67.5819 Y35.2056 
G01 X-67.6644 Y35.2881 
G01 X-68.2526 Y35.8763 
G01 X-68.2864 Y35.8623 
G01 X-68.4809 Y35.8236 
G01 X-68.6791 Y35.8236 
G01 X-68.8736 Y35.8623 
G01 X-69.0567 Y35.9381 
G01 X-69.2215 Y36.0483 
G01 X-69.3617 Y36.1885 
G01 X-69.4071 Y36.2564 
G01 X-69.4071 Y34.8636 
G01 X-69.3617 Y34.9315 
G00 Z3.0000 
G00 X-56.0572 Y42.7189 
G01 Z-0.1000 F150.00 
G01 X-55.9077 Y42.6190 F300.00 
G01 X-55.7806 Y42.4919 
G01 X-55.6807 Y42.3424 
G01 X-55.6119 Y42.1763 
G01 X-55.5768 Y41.9999 
G01 X-55.5768 Y41.8201 
G01 X-55.6119 Y41.6437 
G01 X-55.6807 Y41.4776 
G01 X-55.7806 Y41.3281 
G01 X-55.9077 Y41.2010 
G01 X-56.0572 Y41.1011 
G01 X-56.2233 Y41.0323 
G01 X-56.3997 Y40.9972 
G01 X-57.4364 Y40.9972 
G01 X-58.2788 Y40.1548 
G01 X-58.2428 Y40.1789 
G01 X-58.0767 Y40.2477 
G01 X-57.9003 Y40.2828 
G01 X-56.8636 Y40.2828 
G01 X-56.2344 Y40.9119 
G01 X-56.1519 Y40.9944 
G01 X-56.0510 Y41.0527 
G01 X-55.9383 Y41.0829 
G01 X-50.5789 Y41.0829 
G01 X-50.6228 Y41.1011 
G01 X-50.7723 Y41.2010 
G01 X-50.8994 Y41.3281 
G01 X-50.9993 Y41.4776 
G01 X-51.0681 Y41.6437 
G01 X-51.1032 Y41.8201 
G01 X-51.1032 Y41.9999 
G01 X-51.0681 Y42.1763 
G01 X-50.9993 Y42.3424 
G01 X-50.8994 Y42.4919 
G01 X-50.7723 Y42.6190 
G01 X-50.6228 Y42.7189 
G01 X-50.4567 Y42.7877 
G01 X-50.2803 Y42.8228 
G01 X-48.7797 Y42.8228 
G01 X-48.6033 Y42.7877 
G01 X-48.4372 Y42.7189 
G01 X-48.2877 Y42.6190 
G01 X-48.1606 Y42.4919 
G01 X-48.0607 Y42.3424 
G01 X-47.9919 Y42.1763 
G01 X-47.9568 Y41.9999 
G01 X-47.9568 Y41.8201 
G01 X-47.9919 Y41.6437 
G01 X-48.0607 Y41.4776 
G01 X-48.1606 Y41.3281 
G01 X-48.2877 Y41.2010 
G01 X-48.4372 Y41.1011 
G01 X-48.4811 Y41.0829 
G01 X-41.4342 Y41.0829 
G01 X-41.3440 Y41.2178 
G01 X-41.2178 Y41.3440 
G01 X-41.0693 Y41.4432 
G01 X-40.9044 Y41.5116 
G01 X-40.7293 Y41.5464 
G01 X-40.5507 Y41.5464 
G01 X-40.3756 Y41.5116 
G01 X-40.2107 Y41.4432 
G01 X-40.0622 Y41.3440 
G01 X-39.9360 Y41.2178 
G01 X-39.8368 Y41.0693 
G01 X-39.8129 Y41.0117 
G01 X-39.8129 Y42.8083 
G01 X-39.8368 Y42.7507 
G01 X-39.9360 Y42.6022 
G01 X-40.0622 Y42.4760 
G01 X-40.2107 Y42.3768 
G01 X-40.3756 Y42.3084 
G01 X-40.5507 Y42.2736 
G01 X-40.7293 Y42.2736 
G01 X-40.9044 Y42.3084 
G01 X-41.0693 Y42.3768 
G01 X-41.2178 Y42.4760 
G01 X-41.3440 Y42.6022 
G01 X-41.4432 Y42.7507 
G01 X-41.5116 Y42.9156 
G01 X-41.5464 Y43.0907 
G01 X-41.5464 Y43.2693 
G01 X-41.5116 Y43.4444 
G01 X-41.4432 Y43.6093 
G01 X-41.3440 Y43.7578 
G01 X-41.2178 Y43.8840 
G01 X-41.0693 Y43.9832 
G01 X-40.9044 Y44.0516 
G01 X-40.7293 Y44.0864 
G01 X-40.5507 Y44.0864 
G01 X-40.3756 Y44.0516 
G01 X-40.2107 Y43.9832 
G01 X-40.0622 Y43.8840 
G01 X-39.9360 Y43.7578 
G01 X-39.8368 Y43.6093 
G01 X-39.8129 Y43.5517 
G01 X-39.8129 Y45.3483 
G01 X-39.8368 Y45.2907 
G01 X-39.9360 Y45.1422 
G01 X-40.0622 Y45.0160 
G01 X-40.2107 Y44.9168 
G01 X-40.3756 Y44.8484 
G01 X-40.5507 Y44.8136 
G01 X-40.7293 Y44.8136 
G01 X-40.9044 Y44.8484 
G01 X-41.0693 Y44.9168 
G01 X-41.2178 Y45.0160 
G01 X-41.3440 Y45.1422 
G01 X-41.4432 Y45.2907 
G01 X-41.5116 Y45.4556 
G01 X-41.5464 Y45.6307 
G01 X-41.5464 Y45.8093 
G01 X-41.5147 Y45.9684 
G01 X-43.3635 Y47.8171 
G01 X-48.4811 Y47.8171 
G01 X-48.4372 Y47.7989 
G01 X-48.2877 Y47.6990 
G01 X-48.1606 Y47.5719 
G01 X-48.0607 Y47.4224 
G01 X-47.9919 Y47.2563 
G01 X-47.9568 Y47.0799 
G01 X-47.9568 Y46.9001 
G01 X-47.9919 Y46.7237 
G01 X-48.0607 Y46.5576 
G01 X-48.1606 Y46.4081 
G01 X-48.2877 Y46.2810 
G01 X-48.4372 Y46.1811 
G01 X-48.6033 Y46.1123 
G01 X-48.7797 Y46.0772 
G01 X-49.8164 Y46.0772 
G01 X-50.6588 Y45.2348 
G01 X-50.6228 Y45.2589 
G01 X-50.4567 Y45.3277 
G01 X-50.2803 Y45.3628 
G01 X-48.7797 Y45.3628 
G01 X-48.6033 Y45.3277 
G01 X-48.4372 Y45.2589 
G01 X-48.2877 Y45.1590 
G01 X-48.1606 Y45.0319 
G01 X-48.0607 Y44.8824 
G01 X-47.9919 Y44.7163 
G01 X-47.9568 Y44.5399 
G01 X-47.9568 Y44.3601 
G01 X-47.9919 Y44.1837 
G01 X-48.0607 Y44.0176 
G01 X-48.1606 Y43.8681 
G01 X-48.2877 Y43.7410 
G01 X-48.4372 Y43.6411 
G01 X-48.6033 Y43.5723 
G01 X-48.7797 Y43.5372 
G01 X-50.2803 Y43.5372 
G01 X-50.4567 Y43.5723 
G01 X-50.6228 Y43.6411 
G01 X-50.7723 Y43.7410 
G01 X-50.8994 Y43.8681 
G01 X-50.9993 Y44.0176 
G01 X-51.0681 Y44.1837 
G01 X-51.1032 Y44.3601 
G01 X-51.1032 Y44.5399 
G01 X-51.0681 Y44.7163 
G01 X-50.9993 Y44.8824 
G01 X-50.9752 Y44.9184 
G01 X-52.9856 Y42.9081 
G01 X-53.0681 Y42.8256 
G01 X-53.1690 Y42.7673 
G01 X-53.2817 Y42.7371 
G01 X-56.1011 Y42.7371 
G01 X-56.0572 Y42.7189 
G00 Z3.0000 
G00 X-66.6815 Y25.8883 
G01 Z-0.1000 F150.00 
G01 X-66.8217 Y26.0285 F300.00 
G01 X-66.9319 Y26.1933 
G01 X-67.0077 Y26.3764 
G01 X-67.0464 Y26.5709 
G01 X-67.0464 Y26.7691 
G01 X-67.0077 Y26.9636 
G01 X-66.9937 Y26.9974 
G01 X-67.4935 Y27.4971 
G01 X-68.0064 Y27.4971 
G01 X-67.9385 Y27.4517 
G01 X-67.7983 Y27.3115 
G01 X-67.6881 Y27.1467 
G01 X-67.6123 Y26.9636 
G01 X-67.5736 Y26.7691 
G01 X-67.5736 Y26.5709 
G01 X-67.6123 Y26.3764 
G01 X-67.6881 Y26.1933 
G01 X-67.7983 Y26.0285 
G01 X-67.9385 Y25.8883 
G01 X-68.0064 Y25.8429 
G01 X-66.6136 Y25.8429 
G01 X-66.6815 Y25.8883 
G00 Z3.0000 
G00 X-56.3997 Y23.2172 
G01 Z-0.1000 F150.00 
G01 X-57.9003 Y23.2172 F300.00 
G01 X-58.0767 Y23.2523 
G01 X-58.2428 Y23.3211 
G01 X-58.3923 Y23.4210 
G01 X-58.5194 Y23.5481 
G01 X-58.6193 Y23.6976 
G01 X-58.6881 Y23.8637 
G01 X-58.7232 Y24.0401 
G01 X-58.7232 Y24.2199 
G01 X-58.6881 Y24.3963 
G01 X-58.6193 Y24.5624 
G01 X-58.5194 Y24.7119 
G01 X-58.3923 Y24.8390 
G01 X-58.2428 Y24.9389 
G01 X-58.0767 Y25.0077 
G01 X-57.9003 Y25.0428 
G01 X-56.3997 Y25.0428 
G01 X-56.2233 Y25.0077 
G01 X-56.0572 Y24.9389 
G01 X-55.9077 Y24.8390 
G01 X-55.7806 Y24.7119 
G01 X-55.6807 Y24.5624 
G01 X-55.6119 Y24.3963 
G01 X-55.5768 Y24.2199 
G01 X-55.5768 Y24.0401 
G01 X-55.6119 Y23.8637 
G01 X-55.6807 Y23.6976 
G01 X-55.7806 Y23.5481 
G01 X-55.9077 Y23.4210 
G01 X-56.0572 Y23.3211 
G01 X-56.2233 Y23.2523 
G01 X-56.3997 Y23.2172 
G00 Z3.0000 
G00 X-56.3997 Y46.0772 
G01 Z-0.1000 F150.00 
G01 X-57.9003 Y46.0772 F300.00 
G01 X-58.0767 Y46.1123 
G01 X-58.2428 Y46.1811 
G01 X-58.3923 Y46.2810 
G01 X-58.5194 Y46.4081 
G01 X-58.6193 Y46.5576 
G01 X-58.6881 Y46.7237 
G01 X-58.7232 Y46.9001 
G01 X-58.7232 Y47.0799 
G01 X-58.6881 Y47.2563 
G01 X-58.6193 Y47.4224 
G01 X-58.5194 Y47.5719 
G01 X-58.3923 Y47.6990 
G01 X-58.2428 Y47.7989 
G01 X-58.0767 Y47.8677 
G01 X-57.9003 Y47.9028 
G01 X-56.3997 Y47.9028 
G01 X-56.2233 Y47.8677 
G01 X-56.0572 Y47.7989 
G01 X-55.9077 Y47.6990 
G01 X-55.7806 Y47.5719 
G01 X-55.6807 Y47.4224 
G01 X-55.6119 Y47.2563 
G01 X-55.5768 Y47.0799 
G01 X-55.5768 Y46.9001 
G01 X-55.6119 Y46.7237 
G01 X-55.6807 Y46.5576 
G01 X-55.7806 Y46.4081 
G01 X-55.9077 Y46.2810 
G01 X-56.0572 Y46.1811 
G01 X-56.2233 Y46.1123 
G01 X-56.3997 Y46.0772 
G00 Z3.0000 
G00 X-56.3997 Y53.6972 
G01 Z-0.1000 F150.00 
G01 X-57.4364 Y53.6972 F300.00 
G01 X-58.0656 Y53.0681 
G01 X-58.1481 Y52.9856 
G01 X-58.2490 Y52.9273 
G01 X-58.3617 Y52.8971 
G01 X-71.1364 Y52.8971 
G01 X-71.1644 Y52.8553 
G01 X-71.1892 Y52.8304 
G01 X-71.0451 Y52.8304 
G01 X-70.8982 Y52.8012 
G01 X-70.7598 Y52.7439 
G01 X-70.6353 Y52.6606 
G01 X-70.5294 Y52.5547 
G01 X-70.5014 Y52.5129 
G01 X-58.6123 Y52.5129 
G01 X-58.5194 Y52.6519 
G01 X-58.3923 Y52.7790 
G01 X-58.2428 Y52.8789 
G01 X-58.0767 Y52.9477 
G01 X-57.9003 Y52.9828 
G01 X-56.3997 Y52.9828 
G01 X-56.2233 Y52.9477 
G01 X-56.0572 Y52.8789 
G01 X-55.9077 Y52.7790 
G01 X-55.7806 Y52.6519 
G01 X-55.6807 Y52.5024 
G01 X-55.6119 Y52.3363 
G01 X-55.5768 Y52.1599 
G01 X-55.5768 Y51.9801 
G01 X-55.6119 Y51.8037 
G01 X-55.6807 Y51.6376 
G01 X-55.7806 Y51.4881 
G01 X-55.9077 Y51.3610 
G01 X-56.0572 Y51.2611 
G01 X-56.2233 Y51.1923 
G01 X-56.3997 Y51.1572 
G01 X-57.9003 Y51.1572 
G01 X-58.0767 Y51.1923 
G01 X-58.2428 Y51.2611 
G01 X-58.3923 Y51.3610 
G01 X-58.5194 Y51.4881 
G01 X-58.6123 Y51.6271 
G01 X-70.5014 Y51.6271 
G01 X-70.5294 Y51.5853 
G01 X-70.6353 Y51.4794 
G01 X-70.7598 Y51.3961 
G01 X-70.8982 Y51.3388 
G01 X-71.0451 Y51.3096 
G01 X-71.1949 Y51.3096 
G01 X-71.3418 Y51.3388 
G01 X-71.4802 Y51.3961 
G01 X-71.6047 Y51.4794 
G01 X-71.7106 Y51.5853 
G01 X-71.7939 Y51.7098 
G01 X-71.8512 Y51.8482 
G01 X-71.8804 Y51.9951 
G01 X-71.8804 Y52.1449 
G01 X-71.8512 Y52.2918 
G01 X-71.7939 Y52.4302 
G01 X-71.7106 Y52.5547 
G01 X-71.6858 Y52.5796 
G01 X-71.8299 Y52.5796 
G01 X-71.9768 Y52.6088 
G01 X-72.1152 Y52.6661 
G01 X-72.2397 Y52.7494 
G01 X-72.3456 Y52.8553 
G01 X-72.4289 Y52.9798 
G01 X-72.4862 Y53.1182 
G01 X-72.5154 Y53.2651 
G01 X-72.5154 Y53.4149 
G01 X-72.4862 Y53.5618 
G01 X-72.4289 Y53.7002 
G01 X-72.3456 Y53.8247 
G01 X-72.2397 Y53.9306 
G01 X-72.1152 Y54.0139 
G01 X-71.9768 Y54.0712 
G01 X-71.8299 Y54.1004 
G01 X-71.6801 Y54.1004 
G01 X-71.5332 Y54.0712 
G01 X-71.3948 Y54.0139 
G01 X-71.2703 Y53.9306 
G01 X-71.1644 Y53.8247 
G01 X-71.1364 Y53.7829 
G01 X-58.6035 Y53.7829 
G01 X-58.4388 Y53.9475 
G01 X-58.5194 Y54.0281 
G01 X-58.6193 Y54.1776 
G01 X-58.6881 Y54.3437 
G01 X-58.7232 Y54.5201 
G01 X-58.7232 Y54.6999 
G01 X-58.6881 Y54.8763 
G01 X-58.6193 Y55.0424 
G01 X-58.5194 Y55.1919 
G01 X-58.3923 Y55.3190 
G01 X-58.2428 Y55.4189 
G01 X-58.0767 Y55.4877 
G01 X-57.9003 Y55.5228 
G01 X-56.3997 Y55.5228 
G01 X-56.2233 Y55.4877 
G01 X-56.0572 Y55.4189 
G01 X-55.9077 Y55.3190 
G01 X-55.7806 Y55.1919 
G01 X-55.6879 Y55.0532 
G01 X-55.6879 Y56.7068 
G01 X-55.7806 Y56.5681 
G01 X-55.9077 Y56.4410 
G01 X-56.0572 Y56.3411 
G01 X-56.2233 Y56.2723 
G01 X-56.3997 Y56.2372 
G01 X-57.9003 Y56.2372 
G01 X-58.0767 Y56.2723 
G01 X-58.2428 Y56.3411 
G01 X-58.3923 Y56.4410 
G01 X-58.5194 Y56.5681 
G01 X-58.6193 Y56.7176 
G01 X-58.6881 Y56.8837 
G01 X-58.7232 Y57.0601 
G01 X-58.7232 Y57.2399 
G01 X-58.6881 Y57.4163 
G01 X-58.6193 Y57.5824 
G01 X-58.5194 Y57.7319 
G01 X-58.3923 Y57.8590 
G01 X-58.2428 Y57.9589 
G01 X-58.0767 Y58.0277 
G01 X-57.9003 Y58.0628 
G01 X-56.3997 Y58.0628 
G01 X-56.2233 Y58.0277 
G01 X-56.0572 Y57.9589 
G01 X-55.9077 Y57.8590 
G01 X-55.7806 Y57.7319 
G01 X-55.6877 Y57.5929 
G01 X-55.1867 Y57.5929 
G01 X-55.0740 Y57.5627 
G01 X-54.9731 Y57.5044 
G01 X-54.8906 Y57.4219 
G01 X-54.8323 Y57.3210 
G01 X-54.8021 Y57.2083 
G01 X-54.8021 Y52.8885 
G01 X-50.9752 Y49.0616 
G01 X-50.9993 Y49.0976 
G01 X-51.0681 Y49.2637 
G01 X-51.1032 Y49.4401 
G01 X-51.1032 Y49.6199 
G01 X-51.0681 Y49.7963 
G01 X-50.9993 Y49.9624 
G01 X-50.8994 Y50.1119 
G01 X-50.7723 Y50.2390 
G01 X-50.6228 Y50.3389 
G01 X-50.4567 Y50.4077 
G01 X-50.2803 Y50.4428 
G01 X-48.7797 Y50.4428 
G01 X-48.6033 Y50.4077 
G01 X-48.4372 Y50.3389 
G01 X-48.2877 Y50.2390 
G01 X-48.1606 Y50.1119 
G01 X-48.0677 Y49.9729 
G01 X-41.8517 Y49.9729 
G01 X-41.7390 Y49.9427 
G01 X-41.6381 Y49.8844 
G01 X-41.5556 Y49.8019 
G01 X-40.8884 Y49.1347 
G01 X-40.7293 Y49.1664 
G01 X-40.5507 Y49.1664 
G01 X-40.3756 Y49.1316 
G01 X-40.2107 Y49.0632 
G01 X-40.0622 Y48.9640 
G01 X-39.9360 Y48.8378 
G01 X-39.8458 Y48.7029 
G01 X-39.3117 Y48.7029 
G01 X-39.1990 Y48.6727 
G01 X-39.0981 Y48.6144 
G01 X-39.0156 Y48.5319 
G01 X-38.9573 Y48.4310 
G01 X-38.9271 Y48.3183 
G01 X-38.9271 Y37.4067 
G01 X-38.9573 Y37.2940 
G01 X-39.0156 Y37.1931 
G01 X-39.0981 Y37.1106 
G01 X-39.7331 Y36.4756 
G01 X-39.8340 Y36.4173 
G01 X-39.9467 Y36.3871 
G01 X-40.2683 Y36.3871 
G01 X-40.2107 Y36.3632 
G01 X-40.0622 Y36.2640 
G01 X-39.9360 Y36.1378 
G01 X-39.8368 Y35.9893 
G01 X-39.7684 Y35.8244 
G01 X-39.7336 Y35.6493 
G01 X-39.7336 Y35.4707 
G01 X-39.7684 Y35.2956 
G01 X-39.8368 Y35.1307 
G01 X-39.9360 Y34.9822 
G01 X-40.0622 Y34.8560 
G01 X-40.2107 Y34.7568 
G01 X-40.3756 Y34.6884 
G01 X-40.5507 Y34.6536 
G01 X-40.7293 Y34.6536 
G01 X-40.9044 Y34.6884 
G01 X-41.0693 Y34.7568 
G01 X-41.2178 Y34.8560 
G01 X-41.3440 Y34.9822 
G01 X-41.4432 Y35.1307 
G01 X-41.5116 Y35.2956 
G01 X-41.5464 Y35.4707 
G01 X-41.5464 Y35.6493 
G01 X-41.5116 Y35.8244 
G01 X-41.4432 Y35.9893 
G01 X-41.3505 Y36.1282 
G01 X-42.2731 Y35.2056 
G01 X-42.3740 Y35.1473 
G01 X-42.4867 Y35.1171 
G01 X-48.4811 Y35.1171 
G01 X-48.4372 Y35.0989 
G01 X-48.2877 Y34.9990 
G01 X-48.1606 Y34.8719 
G01 X-48.0607 Y34.7224 
G01 X-47.9919 Y34.5563 
G01 X-47.9568 Y34.3799 
G01 X-47.9568 Y34.2001 
G01 X-47.9919 Y34.0237 
G01 X-48.0607 Y33.8576 
G01 X-48.1606 Y33.7081 
G01 X-48.2877 Y33.5810 
G01 X-48.4372 Y33.4811 
G01 X-48.6033 Y33.4123 
G01 X-48.7797 Y33.3772 
G01 X-50.2803 Y33.3772 
G01 X-50.4567 Y33.4123 
G01 X-50.6228 Y33.4811 
G01 X-50.7723 Y33.5810 
G01 X-50.8994 Y33.7081 
G01 X-50.9993 Y33.8576 
G01 X-51.0681 Y34.0237 
G01 X-51.1032 Y34.2001 
G01 X-51.1032 Y34.3799 
G01 X-51.0681 Y34.5563 
G01 X-50.9993 Y34.7224 
G01 X-50.8994 Y34.8719 
G01 X-50.7723 Y34.9990 
G01 X-50.6228 Y35.0989 
G01 X-50.5789 Y35.1171 
G01 X-56.1011 Y35.1171 
G01 X-56.0572 Y35.0989 
G01 X-55.9077 Y34.9990 
G01 X-55.7806 Y34.8719 
G01 X-55.6807 Y34.7224 
G01 X-55.6119 Y34.5563 
G01 X-55.5768 Y34.3799 
G01 X-55.5768 Y34.2001 
G01 X-55.6119 Y34.0237 
G01 X-55.6807 Y33.8576 
G01 X-55.7806 Y33.7081 
G01 X-55.9077 Y33.5810 
G01 X-56.0572 Y33.4811 
G01 X-56.2233 Y33.4123 
G01 X-56.3997 Y33.3772 
G01 X-57.9003 Y33.3772 
G01 X-58.0767 Y33.4123 
G01 X-58.2428 Y33.4811 
G01 X-58.3923 Y33.5810 
G01 X-58.5194 Y33.7081 
G01 X-58.6193 Y33.8576 
G01 X-58.6881 Y34.0237 
G01 X-58.7232 Y34.2001 
G01 X-58.7232 Y34.3799 
G01 X-58.6881 Y34.5563 
G01 X-58.6193 Y34.7224 
G01 X-58.5194 Y34.8719 
G01 X-58.3923 Y34.9990 
G01 X-58.2428 Y35.0989 
G01 X-58.1989 Y35.1171 
G01 X-65.4664 Y35.1171 
G01 X-65.3985 Y35.0717 
G01 X-65.2583 Y34.9315 
G01 X-65.1481 Y34.7667 
G01 X-65.0723 Y34.5836 
G01 X-65.0336 Y34.3891 
G01 X-65.0336 Y34.1909 
G01 X-65.0723 Y33.9964 
G01 X-65.1481 Y33.8133 
G01 X-65.2583 Y33.6485 
G01 X-65.3985 Y33.5083 
G01 X-65.4664 Y33.4629 
G01 X-60.9017 Y33.4629 
G01 X-60.7890 Y33.4327 
G01 X-60.6881 Y33.3744 
G01 X-60.6056 Y33.2919 
G01 X-58.5952 Y31.2816 
G01 X-58.6193 Y31.3176 
G01 X-58.6881 Y31.4837 
G01 X-58.7232 Y31.6601 
G01 X-58.7232 Y31.8399 
G01 X-58.6881 Y32.0163 
G01 X-58.6193 Y32.1824 
G01 X-58.5194 Y32.3319 
G01 X-58.3923 Y32.4590 
G01 X-58.2428 Y32.5589 
G01 X-58.0767 Y32.6277 
G01 X-57.9003 Y32.6628 
G01 X-56.3997 Y32.6628 
G01 X-56.2233 Y32.6277 
G01 X-56.0572 Y32.5589 
G01 X-55.9077 Y32.4590 
G01 X-55.7806 Y32.3319 
G01 X-55.6807 Y32.1824 
G01 X-55.6119 Y32.0163 
G01 X-55.5768 Y31.8399 
G01 X-55.5768 Y31.6601 
G01 X-55.6119 Y31.4837 
G01 X-55.6807 Y31.3176 
G01 X-55.7806 Y31.1681 
G01 X-55.9077 Y31.0410 
G01 X-56.0572 Y30.9411 
G01 X-56.2233 Y30.8723 
G01 X-56.3997 Y30.8372 
G01 X-57.9003 Y30.8372 
G01 X-58.0767 Y30.8723 
G01 X-58.2428 Y30.9411 
G01 X-58.2788 Y30.9652 
G01 X-57.4364 Y30.1228 
G01 X-56.3997 Y30.1228 
G01 X-56.2233 Y30.0877 
G01 X-56.0572 Y30.0189 
G01 X-55.9077 Y29.9190 
G01 X-55.7806 Y29.7919 
G01 X-55.6807 Y29.6424 
G01 X-55.6119 Y29.4763 
G01 X-55.5768 Y29.2999 
G01 X-55.5768 Y29.1201 
G01 X-55.6119 Y28.9437 
G01 X-55.6807 Y28.7776 
G01 X-55.7806 Y28.6281 
G01 X-55.9077 Y28.5010 
G01 X-56.0572 Y28.4011 
G01 X-56.2233 Y28.3323 
G01 X-56.3997 Y28.2972 
G01 X-57.9003 Y28.2972 
G01 X-58.0767 Y28.3323 
G01 X-58.2428 Y28.4011 
G01 X-58.3923 Y28.5010 
G01 X-58.5194 Y28.6281 
G01 X-58.6193 Y28.7776 
G01 X-58.6881 Y28.9437 
G01 X-58.7232 Y29.1201 
G01 X-58.7232 Y29.2999 
G01 X-58.6881 Y29.4763 
G01 X-58.6193 Y29.6424 
G01 X-58.5194 Y29.7919 
G01 X-58.4388 Y29.8725 
G01 X-61.1435 Y32.5771 
G01 X-65.4664 Y32.5771 
G01 X-65.3985 Y32.5317 
G01 X-65.2583 Y32.3915 
G01 X-65.1481 Y32.2267 
G01 X-65.0723 Y32.0436 
G01 X-65.0336 Y31.8491 
G01 X-65.0336 Y31.6509 
G01 X-65.0723 Y31.4564 
G01 X-65.1481 Y31.2733 
G01 X-65.2583 Y31.1085 
G01 X-65.3985 Y30.9683 
G01 X-65.5633 Y30.8581 
G01 X-65.7464 Y30.7823 
G01 X-65.9409 Y30.7436 
G01 X-66.1391 Y30.7436 
G01 X-66.3336 Y30.7823 
G01 X-66.5167 Y30.8581 
G01 X-66.6815 Y30.9683 
G01 X-66.8217 Y31.1085 
G01 X-66.9319 Y31.2733 
G01 X-67.0077 Y31.4564 
G01 X-67.0464 Y31.6509 
G01 X-67.0464 Y31.8491 
G01 X-67.0077 Y32.0436 
G01 X-66.9319 Y32.2267 
G01 X-66.8217 Y32.3915 
G01 X-66.6815 Y32.5317 
G01 X-66.6136 Y32.5771 
G01 X-68.0064 Y32.5771 
G01 X-67.9385 Y32.5317 
G01 X-67.7983 Y32.3915 
G01 X-67.6881 Y32.2267 
G01 X-67.6123 Y32.0436 
G01 X-67.5736 Y31.8491 
G01 X-67.5736 Y31.6509 
G01 X-67.6123 Y31.4564 
G01 X-67.6881 Y31.2733 
G01 X-67.7983 Y31.1085 
G01 X-67.9385 Y30.9683 
G01 X-68.1033 Y30.8581 
G01 X-68.2864 Y30.7823 
G01 X-68.4809 Y30.7436 
G01 X-68.6791 Y30.7436 
G01 X-68.8736 Y30.7823 
G01 X-69.0567 Y30.8581 
G01 X-69.2215 Y30.9683 
G01 X-69.3617 Y31.1085 
G01 X-69.4719 Y31.2733 
G01 X-69.5477 Y31.4564 
G01 X-69.5864 Y31.6509 
G01 X-69.5864 Y31.8491 
G01 X-69.5477 Y32.0436 
G01 X-69.4719 Y32.2267 
G01 X-69.3617 Y32.3915 
G01 X-69.2215 Y32.5317 
G01 X-69.1536 Y32.5771 
G01 X-82.6083 Y32.5771 
G01 X-82.7210 Y32.6073 
G01 X-82.8219 Y32.6656 
G01 X-87.8135 Y37.6571 
G01 X-94.4426 Y37.6571 
G01 X-94.4426 Y37.5916 
G01 X-95.1616 Y36.8726 
G01 X-95.9363 Y36.8726 
G01 X-90.6215 Y31.5579 
G01 X-84.3967 Y31.5579 
G01 X-84.2840 Y31.5277 
G01 X-84.1831 Y31.4694 
G01 X-78.5565 Y25.8429 
G01 X-69.1536 Y25.8429 
G01 X-69.2215 Y25.8883 
G01 X-69.3617 Y26.0285 
G01 X-69.4719 Y26.1933 
G01 X-69.5477 Y26.3764 
G01 X-69.5864 Y26.5709 
G01 X-69.5864 Y26.7691 
G01 X-69.5477 Y26.9636 
G01 X-69.4719 Y27.1467 
G01 X-69.3617 Y27.3115 
G01 X-69.2215 Y27.4517 
G01 X-69.1536 Y27.4971 
G01 X-76.8933 Y27.4971 
G01 X-77.0060 Y27.5273 
G01 X-77.1069 Y27.5856 
G01 X-77.1894 Y27.6681 
G01 X-79.9092 Y30.3879 
G01 X-79.9306 Y30.3836 
G01 X-80.0894 Y30.3836 
G01 X-80.2452 Y30.4146 
G01 X-80.3920 Y30.4754 
G01 X-80.5240 Y30.5636 
G01 X-80.6364 Y30.6760 
G01 X-80.7246 Y30.8080 
G01 X-80.7854 Y30.9548 
G01 X-80.8164 Y31.1106 
G01 X-80.8164 Y31.2694 
G01 X-80.7854 Y31.4252 
G01 X-80.7246 Y31.5720 
G01 X-80.6364 Y31.7040 
G01 X-80.5240 Y31.8164 
G01 X-80.3920 Y31.9046 
G01 X-80.2452 Y31.9654 
G01 X-80.0894 Y31.9964 
G01 X-79.9306 Y31.9964 
G01 X-79.7748 Y31.9654 
G01 X-79.6280 Y31.9046 
G01 X-79.4960 Y31.8164 
G01 X-79.3836 Y31.7040 
G01 X-79.2954 Y31.5720 
G01 X-79.2346 Y31.4252 
G01 X-79.2036 Y31.2694 
G01 X-79.2036 Y31.1106 
G01 X-79.2327 Y30.9641 
G01 X-76.6515 Y28.3829 
G01 X-69.1536 Y28.3829 
G01 X-69.2215 Y28.4283 
G01 X-69.3617 Y28.5685 
G01 X-69.4719 Y28.7333 
G01 X-69.5477 Y28.9164 
G01 X-69.5864 Y29.1109 
G01 X-69.5864 Y29.3091 
G01 X-69.5477 Y29.5036 
G01 X-69.4719 Y29.6867 
G01 X-69.3617 Y29.8515 
G01 X-69.2215 Y29.9917 
G01 X-69.0567 Y30.1019 
G01 X-68.8736 Y30.1777 
G01 X-68.6791 Y30.2164 
G01 X-68.4809 Y30.2164 
G01 X-68.2864 Y30.1777 
G01 X-68.1033 Y30.1019 
G01 X-67.9385 Y29.9917 
G01 X-67.7983 Y29.8515 
G01 X-67.6881 Y29.6867 
G01 X-67.6123 Y29.5036 
G01 X-67.5736 Y29.3091 
G01 X-67.5736 Y29.1109 
G01 X-67.6123 Y28.9164 
G01 X-67.6881 Y28.7333 
G01 X-67.7983 Y28.5685 
G01 X-67.9385 Y28.4283 
G01 X-68.0064 Y28.3829 
G01 X-67.2517 Y28.3829 
G01 X-67.1390 Y28.3527 
G01 X-67.0381 Y28.2944 
G01 X-66.3674 Y27.6237 
G01 X-66.3336 Y27.6377 
G01 X-66.1391 Y27.6764 
G01 X-65.9409 Y27.6764 
G01 X-65.7464 Y27.6377 
G01 X-65.5633 Y27.5619 
G01 X-65.3985 Y27.4517 
G01 X-65.2583 Y27.3115 
G01 X-65.1481 Y27.1467 
G01 X-65.0723 Y26.9636 
G01 X-65.0336 Y26.7691 
G01 X-65.0336 Y26.5709 
G01 X-65.0723 Y26.3764 
G01 X-65.1481 Y26.1933 
G01 X-65.2583 Y26.0285 
G01 X-65.3985 Y25.8883 
G01 X-65.4664 Y25.8429 
G01 X-58.6035 Y25.8429 
G01 X-58.4388 Y26.0075 
G01 X-58.5194 Y26.0881 
G01 X-58.6193 Y26.2376 
G01 X-58.6881 Y26.4037 
G01 X-58.7232 Y26.5801 
G01 X-58.7232 Y26.7599 
G01 X-58.6881 Y26.9363 
G01 X-58.6193 Y27.1024 
G01 X-58.5194 Y27.2519 
G01 X-58.3923 Y27.3790 
G01 X-58.2428 Y27.4789 
G01 X-58.0767 Y27.5477 
G01 X-57.9003 Y27.5828 
G01 X-56.3997 Y27.5828 
G01 X-56.2233 Y27.5477 
G01 X-56.0572 Y27.4789 
G01 X-55.9077 Y27.3790 
G01 X-55.7806 Y27.2519 
G01 X-55.6807 Y27.1024 
G01 X-55.6119 Y26.9363 
G01 X-55.5768 Y26.7599 
G01 X-55.5768 Y26.5801 
G01 X-55.6119 Y26.4037 
G01 X-55.6807 Y26.2376 
G01 X-55.7806 Y26.0881 
G01 X-55.9077 Y25.9610 
G01 X-56.0572 Y25.8611 
G01 X-56.2233 Y25.7923 
G01 X-56.3997 Y25.7572 
G01 X-57.4364 Y25.7572 
G01 X-58.0656 Y25.1281 
G01 X-58.1481 Y25.0456 
G01 X-58.2490 Y24.9873 
G01 X-58.3617 Y24.9571 
G01 X-78.7983 Y24.9571 
G01 X-78.9110 Y24.9873 
G01 X-79.0119 Y25.0456 
G01 X-84.6385 Y30.6721 
G01 X-90.8633 Y30.6721 
G01 X-90.9760 Y30.7023 
G01 X-91.0769 Y30.7606 
G01 X-97.4269 Y37.1106 
G01 X-97.5094 Y37.1931 
G01 X-97.5677 Y37.2940 
G01 X-97.5979 Y37.4067 
G01 X-97.5979 Y47.0483 
G01 X-97.5677 Y47.1610 
G01 X-97.5094 Y47.2619 
G01 X-97.4269 Y47.3444 
G01 X-97.3260 Y47.4027 
G01 X-97.2133 Y47.4329 
G01 X-87.5874 Y47.4329 
G01 X-87.5874 Y47.8684 
G01 X-86.8684 Y48.5874 
G01 X-85.8516 Y48.5874 
G01 X-85.1326 Y47.8684 
G01 X-85.1326 Y46.8516 
G01 X-85.8516 Y46.1326 
G01 X-86.8684 Y46.1326 
G01 X-87.2829 Y46.5471 
G01 X-96.7121 Y46.5471 
G01 X-96.7121 Y38.7937 
G01 X-96.1784 Y39.3274 
G01 X-95.1616 Y39.3274 
G01 X-94.4426 Y38.6084 
G01 X-94.4426 Y38.5429 
G01 X-87.5717 Y38.5429 
G01 X-87.4590 Y38.5127 
G01 X-87.3581 Y38.4544 
G01 X-87.2756 Y38.3719 
G01 X-82.3665 Y33.4629 
G01 X-69.1536 Y33.4629 
G01 X-69.2215 Y33.5083 
G01 X-69.3617 Y33.6485 
G01 X-69.4719 Y33.8133 
G01 X-69.4859 Y33.8471 
G01 X-69.9083 Y33.8471 
G01 X-70.0210 Y33.8773 
G01 X-70.1219 Y33.9356 
G01 X-70.2044 Y34.0181 
G01 X-70.2627 Y34.1190 
G01 X-70.2929 Y34.2317 
G01 X-70.2929 Y37.5233 
G01 X-70.2627 Y37.6360 
G01 X-70.2044 Y37.7369 
G01 X-70.1219 Y37.8194 
G01 X-64.4894 Y43.4519 
G01 X-64.4069 Y43.5344 
G01 X-64.3060 Y43.5927 
G01 X-64.1933 Y43.6229 
G01 X-58.1989 Y43.6229 
G01 X-58.2428 Y43.6411 
G01 X-58.3923 Y43.7410 
G01 X-58.5194 Y43.8681 
G01 X-58.6193 Y44.0176 
G01 X-58.6881 Y44.1837 
G01 X-58.7232 Y44.3601 
G01 X-58.7232 Y44.5399 
G01 X-58.6881 Y44.7163 
G01 X-58.6193 Y44.8824 
G01 X-58.5194 Y45.0319 
G01 X-58.3923 Y45.1590 
G01 X-58.2428 Y45.2589 
G01 X-58.0767 Y45.3277 
G01 X-57.9003 Y45.3628 
G01 X-56.3997 Y45.3628 
G01 X-56.2233 Y45.3277 
G01 X-56.0572 Y45.2589 
G01 X-55.9077 Y45.1590 
G01 X-55.7806 Y45.0319 
G01 X-55.6807 Y44.8824 
G01 X-55.6119 Y44.7163 
G01 X-55.5768 Y44.5399 
G01 X-55.5768 Y44.3601 
G01 X-55.6119 Y44.1837 
G01 X-55.6807 Y44.0176 
G01 X-55.7806 Y43.8681 
G01 X-55.9077 Y43.7410 
G01 X-56.0572 Y43.6411 
G01 X-56.1011 Y43.6229 
G01 X-53.5235 Y43.6229 
G01 X-50.8188 Y46.3275 
G01 X-50.8994 Y46.4081 
G01 X-50.9993 Y46.5576 
G01 X-51.0681 Y46.7237 
G01 X-51.1032 Y46.9001 
G01 X-51.1032 Y47.0799 
G01 X-51.0681 Y47.2563 
G01 X-50.9993 Y47.4224 
G01 X-50.8994 Y47.5719 
G01 X-50.7723 Y47.6990 
G01 X-50.6228 Y47.7989 
G01 X-50.5789 Y47.8171 
G01 X-50.8583 Y47.8171 
G01 X-50.9710 Y47.8473 
G01 X-51.0719 Y47.9056 
G01 X-55.5169 Y52.3506 
G01 X-55.5994 Y52.4331 
G01 X-55.6577 Y52.5340 
G01 X-55.6879 Y52.6467 
G01 X-55.6879 Y54.1668 
G01 X-55.7806 Y54.0281 
G01 X-55.9077 Y53.9010 
G01 X-56.0572 Y53.8011 
G01 X-56.2233 Y53.7323 
G01 X-56.3997 Y53.6972 
G00 Z3.0000 
G00 X-48.7797 Y56.2372 
G01 Z-0.1000 F150.00 
G01 X-50.2803 Y56.2372 F300.00 
G01 X-50.4567 Y56.2723 
G01 X-50.6228 Y56.3411 
G01 X-50.7723 Y56.4410 
G01 X-50.8994 Y56.5681 
G01 X-50.9993 Y56.7176 
G01 X-51.0681 Y56.8837 
G01 X-51.1032 Y57.0601 
G01 X-51.1032 Y57.2399 
G01 X-51.0681 Y57.4163 
G01 X-50.9993 Y57.5824 
G01 X-50.8994 Y57.7319 
G01 X-50.7723 Y57.8590 
G01 X-50.6228 Y57.9589 
G01 X-50.4567 Y58.0277 
G01 X-50.2803 Y58.0628 
G01 X-48.7797 Y58.0628 
G01 X-48.6033 Y58.0277 
G01 X-48.4372 Y57.9589 
G01 X-48.2877 Y57.8590 
G01 X-48.1606 Y57.7319 
G01 X-48.0607 Y57.5824 
G01 X-47.9919 Y57.4163 
G01 X-47.9568 Y57.2399 
G01 X-47.9568 Y57.0601 
G01 X-47.9919 Y56.8837 
G01 X-48.0607 Y56.7176 
G01 X-48.1606 Y56.5681 
G01 X-48.2877 Y56.4410 
G01 X-48.4372 Y56.3411 
G01 X-48.6033 Y56.2723 
G01 X-48.7797 Y56.2372 
G00 Z3.0000 
G00 X-48.7797 Y53.6972 
G01 Z-0.1000 F150.00 
G01 X-50.2803 Y53.6972 F300.00 
G01 X-50.4567 Y53.7323 
G01 X-50.6228 Y53.8011 
G01 X-50.7723 Y53.9010 
G01 X-50.8994 Y54.0281 
G01 X-50.9993 Y54.1776 
G01 X-51.0681 Y54.3437 
G01 X-51.1032 Y54.5201 
G01 X-51.1032 Y54.6999 
G01 X-51.0681 Y54.8763 
G01 X-50.9993 Y55.0424 
G01 X-50.8994 Y55.1919 
G01 X-50.7723 Y55.3190 
G01 X-50.6228 Y55.4189 
G01 X-50.4567 Y55.4877 
G01 X-50.2803 Y55.5228 
G01 X-48.7797 Y55.5228 
G01 X-48.6033 Y55.4877 
G01 X-48.4372 Y55.4189 
G01 X-48.2877 Y55.3190 
G01 X-48.1606 Y55.1919 
G01 X-48.0607 Y55.0424 
G01 X-47.9919 Y54.8763 
G01 X-47.9568 Y54.6999 
G01 X-47.9568 Y54.5201 
G01 X-47.9919 Y54.3437 
G01 X-48.0607 Y54.1776 
G01 X-48.1606 Y54.0281 
G01 X-48.2877 Y53.9010 
G01 X-48.4372 Y53.8011 
G01 X-48.6033 Y53.7323 
G01 X-48.7797 Y53.6972 
G00 Z3.0000 
G00 X-48.7797 Y30.8372 
G01 Z-0.1000 F150.00 
G01 X-50.2803 Y30.8372 F300.00 
G01 X-50.4567 Y30.8723 
G01 X-50.6228 Y30.9411 
G01 X-50.7723 Y31.0410 
G01 X-50.8994 Y31.1681 
G01 X-50.9993 Y31.3176 
G01 X-51.0681 Y31.4837 
G01 X-51.1032 Y31.6601 
G01 X-51.1032 Y31.8399 
G01 X-51.0681 Y32.0163 
G01 X-50.9993 Y32.1824 
G01 X-50.8994 Y32.3319 
G01 X-50.7723 Y32.4590 
G01 X-50.6228 Y32.5589 
G01 X-50.4567 Y32.6277 
G01 X-50.2803 Y32.6628 
G01 X-48.7797 Y32.6628 
G01 X-48.6033 Y32.6277 
G01 X-48.4372 Y32.5589 
G01 X-48.2877 Y32.4590 
G01 X-48.1606 Y32.3319 
G01 X-48.0607 Y32.1824 
G01 X-47.9919 Y32.0163 
G01 X-47.9568 Y31.8399 
G01 X-47.9568 Y31.6601 
G01 X-47.9919 Y31.4837 
G01 X-48.0607 Y31.3176 
G01 X-48.1606 Y31.1681 
G01 X-48.2877 Y31.0410 
G01 X-48.4372 Y30.9411 
G01 X-48.6033 Y30.8723 
G01 X-48.7797 Y30.8372 
G00 Z3.0000 
G00 X-48.7797 Y28.2972 
G01 Z-0.1000 F150.00 
G01 X-50.2803 Y28.2972 F300.00 
G01 X-50.4567 Y28.3323 
G01 X-50.6228 Y28.4011 
G01 X-50.7723 Y28.5010 
G01 X-50.8994 Y28.6281 
G01 X-50.9993 Y28.7776 
G01 X-51.0681 Y28.9437 
G01 X-51.1032 Y29.1201 
G01 X-51.1032 Y29.2999 
G01 X-51.0681 Y29.4763 
G01 X-50.9993 Y29.6424 
G01 X-50.8994 Y29.7919 
G01 X-50.7723 Y29.9190 
G01 X-50.6228 Y30.0189 
G01 X-50.4567 Y30.0877 
G01 X-50.2803 Y30.1228 
G01 X-48.7797 Y30.1228 
G01 X-48.6033 Y30.0877 
G01 X-48.4372 Y30.0189 
G01 X-48.2877 Y29.9190 
G01 X-48.1606 Y29.7919 
G01 X-48.0607 Y29.6424 
G01 X-47.9919 Y29.4763 
G01 X-47.9568 Y29.2999 
G01 X-47.9568 Y29.1201 
G01 X-47.9919 Y28.9437 
G01 X-48.0607 Y28.7776 
G01 X-48.1606 Y28.6281 
G01 X-48.2877 Y28.5010 
G01 X-48.4372 Y28.4011 
G01 X-48.6033 Y28.3323 
G01 X-48.7797 Y28.2972 
G00 Z3.0000 
G00 X-48.7797 Y25.7572 
G01 Z-0.1000 F150.00 
G01 X-50.2803 Y25.7572 F300.00 
G01 X-50.4567 Y25.7923 
G01 X-50.6228 Y25.8611 
G01 X-50.7723 Y25.9610 
G01 X-50.8994 Y26.0881 
G01 X-50.9993 Y26.2376 
G01 X-51.0681 Y26.4037 
G01 X-51.1032 Y26.5801 
G01 X-51.1032 Y26.7599 
G01 X-51.0681 Y26.9363 
G01 X-50.9993 Y27.1024 
G01 X-50.8994 Y27.2519 
G01 X-50.7723 Y27.3790 
G01 X-50.6228 Y27.4789 
G01 X-50.4567 Y27.5477 
G01 X-50.2803 Y27.5828 
G01 X-48.7797 Y27.5828 
G01 X-48.6033 Y27.5477 
G01 X-48.4372 Y27.4789 
G01 X-48.2877 Y27.3790 
G01 X-48.1606 Y27.2519 
G01 X-48.0607 Y27.1024 
G01 X-47.9919 Y26.9363 
G01 X-47.9568 Y26.7599 
G01 X-47.9568 Y26.5801 
G01 X-47.9919 Y26.4037 
G01 X-48.0607 Y26.2376 
G01 X-48.1606 Y26.0881 
G01 X-48.2877 Y25.9610 
G01 X-48.4372 Y25.8611 
G01 X-48.6033 Y25.7923 
G01 X-48.7797 Y25.7572 
G00 Z3.0000 
G00 X-48.7797 Y23.2172 
G01 Z-0.1000 F150.00 
G01 X-50.2803 Y23.2172 F300.00 
G01 X-50.4567 Y23.2523 
G01 X-50.6228 Y23.3211 
G01 X-50.7723 Y23.4210 
G01 X-50.8994 Y23.5481 
G01 X-50.9993 Y23.6976 
G01 X-51.0681 Y23.8637 
G01 X-51.1032 Y24.0401 
G01 X-51.1032 Y24.2199 
G01 X-51.0681 Y24.3963 
G01 X-50.9993 Y24.5624 
G01 X-50.8994 Y24.7119 
G01 X-50.7723 Y24.8390 
G01 X-50.6228 Y24.9389 
G01 X-50.4567 Y25.0077 
G01 X-50.2803 Y25.0428 
G01 X-48.7797 Y25.0428 
G01 X-48.6033 Y25.0077 
G01 X-48.4372 Y24.9389 
G01 X-48.2877 Y24.8390 
G01 X-48.1606 Y24.7119 
G01 X-48.0607 Y24.5624 
G01 X-47.9919 Y24.3963 
G01 X-47.9568 Y24.2199 
G01 X-47.9568 Y24.0401 
G01 X-47.9919 Y23.8637 
G01 X-48.0607 Y23.6976 
G01 X-48.1606 Y23.5481 
G01 X-48.2877 Y23.4210 
G01 X-48.4372 Y23.3211 
G01 X-48.6033 Y23.2523 
G01 X-48.7797 Y23.2172 
G00 Z3.0000 
G00 X-87.5874 Y28.3316 
G01 Z-0.1000 F150.00 
G01 X-87.5874 Y29.3484 F300.00 
G01 X-86.8684 Y30.0674 
G01 X-85.8516 Y30.0674 
G01 X-85.1326 Y29.3484 
G01 X-85.1326 Y28.3316 
G01 X-85.8516 Y27.6126 
G01 X-86.8684 Y27.6126 
G01 X-87.5874 Y28.3316 
G00 Z3.0000 
G00 X-86.0674 Y37.5916 
G01 Z-0.1000 F150.00 
G01 X-86.0674 Y38.6084 F300.00 
G01 X-85.3484 Y39.3274 
G01 X-84.3316 Y39.3274 
G01 X-83.6126 Y38.6084 
G01 X-83.6126 Y37.5916 
G01 X-84.3316 Y36.8726 
G01 X-85.3484 Y36.8726 
G01 X-86.0674 Y37.5916 
G00 Z3.0000 
G00 X-91.6227 Y57.3231 
G01 Z-0.1000 F150.00 
G01 X-93.5941 Y57.3231 F300.00 
G01 X-93.7725 Y57.3513 
G01 X-93.9443 Y57.4071 
G01 X-94.1053 Y57.4892 
G01 X-94.2515 Y57.5953 
G01 X-94.3792 Y57.7231 
G01 X-94.4854 Y57.8692 
G01 X-94.5674 Y58.0302 
G01 X-94.6232 Y58.2020 
G01 X-94.6515 Y58.3805 
G01 X-94.6515 Y58.5611 
G01 X-94.6232 Y58.7396 
G01 X-94.5674 Y58.9114 
G01 X-94.4854 Y59.0724 
G01 X-94.3792 Y59.2185 
G01 X-94.2515 Y59.3463 
G01 X-94.1053 Y59.4524 
G01 X-93.9443 Y59.5345 
G01 X-93.7725 Y59.5903 
G01 X-93.5941 Y59.6185 
G01 X-91.6227 Y59.6185 
G01 X-91.4443 Y59.5903 
G01 X-91.2725 Y59.5345 
G01 X-91.2007 Y59.4979 
G01 X-81.5193 Y59.4979 
G01 X-81.4475 Y59.5345 
G01 X-81.2757 Y59.5903 
G01 X-81.0973 Y59.6185 
G01 X-79.1259 Y59.6185 
G01 X-78.9475 Y59.5903 
G01 X-78.7757 Y59.5345 
G01 X-78.6147 Y59.4524 
G01 X-78.4685 Y59.3463 
G01 X-78.3408 Y59.2185 
G01 X-78.2346 Y59.0724 
G01 X-78.1526 Y58.9114 
G01 X-78.0968 Y58.7396 
G01 X-78.0685 Y58.5611 
G01 X-78.0685 Y58.3805 
G01 X-78.0968 Y58.2020 
G01 X-78.1526 Y58.0302 
G01 X-78.2346 Y57.8692 
G01 X-78.3408 Y57.7231 
G01 X-78.4685 Y57.5953 
G01 X-78.5209 Y57.5573 
G01 X-72.2065 Y51.2429 
G01 X-58.3617 Y51.2429 
G01 X-58.2490 Y51.2127 
G01 X-58.1481 Y51.1544 
G01 X-58.0656 Y51.0719 
G01 X-57.4364 Y50.4428 
G01 X-56.3997 Y50.4428 
G01 X-56.2233 Y50.4077 
G01 X-56.0572 Y50.3389 
G01 X-55.9077 Y50.2390 
G01 X-55.7806 Y50.1119 
G01 X-55.6807 Y49.9624 
G01 X-55.6119 Y49.7963 
G01 X-55.5768 Y49.6199 
G01 X-55.5768 Y49.4401 
G01 X-55.6119 Y49.2637 
G01 X-55.6807 Y49.0976 
G01 X-55.7806 Y48.9481 
G01 X-55.9077 Y48.8210 
G01 X-56.0572 Y48.7211 
G01 X-56.2233 Y48.6523 
G01 X-56.3997 Y48.6172 
G01 X-57.9003 Y48.6172 
G01 X-58.0767 Y48.6523 
G01 X-58.2428 Y48.7211 
G01 X-58.3923 Y48.8210 
G01 X-58.5194 Y48.9481 
G01 X-58.6193 Y49.0976 
G01 X-58.6881 Y49.2637 
G01 X-58.7232 Y49.4401 
G01 X-58.7232 Y49.6199 
G01 X-58.6881 Y49.7963 
G01 X-58.6193 Y49.9624 
G01 X-58.5194 Y50.1119 
G01 X-58.4388 Y50.1925 
G01 X-58.6035 Y50.3571 
G01 X-72.4483 Y50.3571 
G01 X-72.5610 Y50.3873 
G01 X-72.6619 Y50.4456 
G01 X-79.5394 Y57.3231 
G01 X-81.0973 Y57.3231 
G01 X-81.2757 Y57.3513 
G01 X-81.4475 Y57.4071 
G01 X-81.6085 Y57.4892 
G01 X-81.7547 Y57.5953 
G01 X-81.8824 Y57.7231 
G01 X-81.9886 Y57.8692 
G01 X-82.0706 Y58.0302 
G01 X-82.1264 Y58.2020 
G01 X-82.1547 Y58.3805 
G01 X-82.1547 Y58.5611 
G01 X-82.1466 Y58.6121 
G01 X-90.5734 Y58.6121 
G01 X-90.5653 Y58.5611 
G01 X-90.5653 Y58.3805 
G01 X-90.5936 Y58.2020 
G01 X-90.6494 Y58.0302 
G01 X-90.7314 Y57.8692 
G01 X-90.8376 Y57.7231 
G01 X-90.9653 Y57.5953 
G01 X-91.1115 Y57.4892 
G01 X-91.2725 Y57.4071 
G01 X-91.4443 Y57.3513 
G01 X-91.6227 Y57.3231 
G00 Z3.0000 
G00 X-91.6227 Y62.3015 
G01 Z-0.1000 F150.00 
G01 X-93.5941 Y62.3015 F300.00 
G01 X-93.7725 Y62.3297 
G01 X-93.9443 Y62.3855 
G01 X-94.1053 Y62.4676 
G01 X-94.2515 Y62.5737 
G01 X-94.3792 Y62.7015 
G01 X-94.4854 Y62.8476 
G01 X-94.5674 Y63.0086 
G01 X-94.6232 Y63.1804 
G01 X-94.6515 Y63.3589 
G01 X-94.6515 Y63.5395 
G01 X-94.6232 Y63.7180 
G01 X-94.5674 Y63.8898 
G01 X-94.4854 Y64.0508 
G01 X-94.3792 Y64.1969 
G01 X-94.2515 Y64.3247 
G01 X-94.1053 Y64.4308 
G01 X-93.9443 Y64.5129 
G01 X-93.7725 Y64.5687 
G01 X-93.5941 Y64.5969 
G01 X-91.6227 Y64.5969 
G01 X-91.4443 Y64.5687 
G01 X-91.2725 Y64.5129 
G01 X-91.1115 Y64.4308 
G01 X-90.9653 Y64.3247 
G01 X-90.8376 Y64.1969 
G01 X-90.7314 Y64.0508 
G01 X-90.6494 Y63.8898 
G01 X-90.5936 Y63.7180 
G01 X-90.5653 Y63.5395 
G01 X-90.5653 Y63.3589 
G01 X-90.5936 Y63.1804 
G01 X-90.6494 Y63.0086 
G01 X-90.7314 Y62.8476 
G01 X-90.8376 Y62.7015 
G01 X-90.9653 Y62.5737 
G01 X-91.1115 Y62.4676 
G01 X-91.2725 Y62.3855 
G01 X-91.4443 Y62.3297 
G01 X-91.6227 Y62.3015 
G00 Z3.0000 
G00 X-79.1259 Y62.3015 
G01 Z-0.1000 F150.00 
G01 X-81.0973 Y62.3015 F300.00 
G01 X-81.2757 Y62.3297 
G01 X-81.4475 Y62.3855 
G01 X-81.6085 Y62.4676 
G01 X-81.7547 Y62.5737 
G01 X-81.8824 Y62.7015 
G01 X-81.9886 Y62.8476 
G01 X-82.0706 Y63.0086 
G01 X-82.1264 Y63.1804 
G01 X-82.1547 Y63.3589 
G01 X-82.1547 Y63.5395 
G01 X-82.1264 Y63.7180 
G01 X-82.0706 Y63.8898 
G01 X-81.9886 Y64.0508 
G01 X-81.8824 Y64.1969 
G01 X-81.7547 Y64.3247 
G01 X-81.6085 Y64.4308 
G01 X-81.4475 Y64.5129 
G01 X-81.2757 Y64.5687 
G01 X-81.0973 Y64.5969 
G01 X-79.5394 Y64.5969 
G01 X-74.0144 Y70.1219 
G01 X-73.9319 Y70.2044 
G01 X-73.8310 Y70.2627 
G01 X-73.7183 Y70.2929 
G01 X-70.8956 Y70.2929 
G01 X-70.2860 Y70.9025 
G01 X-69.4140 Y70.9025 
G01 X-68.7975 Y70.2860 
G01 X-68.7975 Y69.4239 
G01 X-62.8650 Y63.4914 
G01 X-61.2319 Y65.1244 
G01 X-61.1310 Y65.1827 
G01 X-61.0183 Y65.2129 
G01 X-53.2817 Y65.2129 
G01 X-53.1690 Y65.1827 
G01 X-53.0681 Y65.1244 
G01 X-52.9856 Y65.0419 
G01 X-51.0864 Y63.1428 
G01 X-50.4219 Y63.1428 
G01 X-49.9520 Y62.6729 
G01 X-27.4885 Y62.6729 
G01 X-16.8854 Y73.2760 
G01 X-16.9371 Y73.3471 
G01 X-17.0459 Y73.5606 
G01 X-17.1199 Y73.7885 
G01 X-17.1574 Y74.0252 
G01 X-17.1574 Y74.2648 
G01 X-17.1199 Y74.5015 
G01 X-17.0459 Y74.7294 
G01 X-16.9371 Y74.9429 
G01 X-16.7962 Y75.1368 
G01 X-16.6268 Y75.3062 
G01 X-16.4329 Y75.4471 
G01 X-16.2194 Y75.5559 
G01 X-15.9915 Y75.6299 
G01 X-15.7548 Y75.6674 
G01 X-15.5152 Y75.6674 
G01 X-15.2785 Y75.6299 
G01 X-15.0506 Y75.5559 
G01 X-14.8371 Y75.4471 
G01 X-14.6432 Y75.3062 
G01 X-14.4738 Y75.1368 
G01 X-14.3329 Y74.9429 
G01 X-14.2241 Y74.7294 
G01 X-14.1501 Y74.5015 
G01 X-14.1126 Y74.2648 
G01 X-14.1126 Y74.0252 
G01 X-14.1501 Y73.7885 
G01 X-14.2241 Y73.5606 
G01 X-14.3329 Y73.3471 
G01 X-14.4738 Y73.1532 
G01 X-14.6432 Y72.9838 
G01 X-14.8371 Y72.8429 
G01 X-15.0506 Y72.7341 
G01 X-15.2785 Y72.6601 
G01 X-15.5152 Y72.6226 
G01 X-15.7548 Y72.6226 
G01 X-15.9915 Y72.6601 
