(.../pcb-gcode-3.6.0.4/pcb-gcode.ulp)
(Copyright 2005 - 2012 by John Johnson)
(See readme.txt for licensing terms.)
(This file generated from the board:)
(.../projects/freezeTime/freezeTime.brd)
(Current profile is .../pcb-gcode-3.6.0.4/profiles/emc.pp  )
(This file generated 9.10.2014 22:12:01)
(Settings from pcb-machine.h)
(  Tool Size)
(0.3000 )
(Z Axis Settings)
(  High     Up        Down     Drill)
(12.0000 	3.0000 	-0.0700 	-1.8000 )
(spindle on time = 3.0000)
(milling depth = 0.8000)
(text depth = -0.1100)
(tool change at 0.0000 0.0000 30.0000 )
(feed rate xy = F250.00 )
(feed rate z  = F80.00 )
(Settings from pcb-defaults.h)
(isolate min = 0.0300)
(isolate max = 0.3000)
(isolate step = 0.1500)
(Generated top outlines, top drill, bottom outlines, bottom drill, )
(Unit of measure: mm)
( Tool|       Size       |  Min Sub |  Max Sub |   Count )
( T01 | 0.600mm 0.0236in | 0.0000in | 0.0000in |       0 )
( T02 | 0.813mm 0.0320in | 0.0000in | 0.0000in |       0 )
( T03 | 0.914mm 0.0360in | 0.0000in | 0.0000in |       0 )
( T04 | 1.000mm 0.0394in | 0.0000in | 0.0000in |       0 )
( T05 | 1.194mm 0.0470in | 0.0000in | 0.0000in |       0 )
( T06 | 1.200mm 0.0472in | 0.0000in | 0.0000in |       0 )
( T07 | 1.300mm 0.0512in | 0.0000in | 0.0000in |       0 )
( T08 | 1.600mm 0.0630in | 0.0000in | 0.0000in |       0 )
(Metric Mode)
G21
(Absolute Coordinates)
G90
M05
G00 Z30.0000 
G00 X0.0000 Y0.0000 
M06 T01 (0.6000 )
G01 Z0.0000 F80.00 
M06 T01 (0.6000 )
G00 Z3.0000 
M03
G04 P3.000000
G82 X32.3850 Y16.5100 Z-1.8000 F80.00 R3.0000 P1.000000
G82 X34.6075 Y13.9700 
G82 X34.9250 Y60.3250 
G82 X35.2425 Y21.5900 
G82 X35.2425 Y26.6700 
G82 X47.6250 Y14.2875 
G82 X47.9425 Y29.5275 
G82 X49.2125 Y10.4775 
G82 X49.5300 Y18.4150 
G82 X50.1650 Y12.7000 
G82 X51.7525 Y52.7050 
G82 X52.3875 Y30.4800 
G82 X53.6575 Y34.2900 
G82 X55.8800 Y44.4500 
G82 X59.3725 Y32.0675 
G82 X67.3100 Y4.3700 
G82 X67.3100 Y10.8700 
G82 X67.3100 Y27.3050 
G82 X70.4850 Y33.3375 
G82 X71.7550 Y36.8300 
G82 X80.3275 Y44.4500 
G82 X19.0500 Y44.7675 
G82 X21.5900 Y44.7675 
G82 X24.1300 Y43.4975 
M05
G00 Z30.0000 
M06 T02 (0.8128 )
G01 Z0.0000 F80.00 
M06 T02 (0.8128 )
G00 Z3.0000 
M03
G04 P3.000000
G82 X38.1000 Y33.0200 Z-1.8000 F80.00 R3.0000 P1.000000
G82 X38.1000 Y35.5600 
G82 X38.1000 Y38.1000 
G82 X38.1000 Y40.6400 
G82 X38.1000 Y7.6200 
G82 X38.1000 Y10.1600 
G82 X38.1000 Y12.7000 
G82 X38.1000 Y15.2400 
G82 X38.1000 Y17.7800 
G82 X38.1000 Y20.3200 
G82 X38.1000 Y22.8600 
G82 X38.1000 Y25.4000 
G82 X38.1000 Y27.9400 
G82 X38.1000 Y30.4800 
G82 X45.7200 Y33.0200 
G82 X45.7200 Y35.5600 
G82 X45.7200 Y38.1000 
G82 X45.7200 Y40.6400 
G82 X45.7200 Y7.6200 
G82 X45.7200 Y10.1600 
G82 X45.7200 Y12.7000 
G82 X45.7200 Y15.2400 
G82 X45.7200 Y17.7800 
G82 X45.7200 Y20.3200 
G82 X45.7200 Y22.8600 
G82 X45.7200 Y25.4000 
G82 X45.7200 Y27.9400 
G82 X45.7200 Y30.4800 
G82 X60.3250 Y40.1320 
G82 X60.3250 Y44.9580 
G82 X61.3410 Y30.4800 
G82 X63.5000 Y30.4800 
G82 X65.6590 Y30.4800 
M05
G00 Z30.0000 
M06 T03 (0.9144 )
G01 Z0.0000 F80.00 
M06 T03 (0.9144 )
G00 Z3.0000 
M03
G04 P3.000000
G82 X54.6100 Y30.4800 Z-1.8000 F80.00 R3.0000 P1.000000
G82 X57.1500 Y30.4800 
M05
G00 Z30.0000 
M06 T04 (1.0000 )
G01 Z0.0000 F80.00 
M06 T04 (1.0000 )
G00 Z3.0000 
M03
G04 P3.000000
G82 X31.7500 Y48.2600 Z-1.8000 F80.00 R3.0000 P1.000000
G82 X13.9700 Y48.2600 
G82 X15.6350 Y62.7150 
G82 X16.5100 Y48.2600 
G82 X19.0500 Y48.2600 
G82 X21.5900 Y48.2600 
G82 X21.9700 Y62.7150 
G82 X24.1300 Y48.2600 
G82 X26.6700 Y48.2600 
G82 X29.2100 Y48.2600 
M05
G00 Z30.0000 
M06 T05 (1.1938 )
G01 Z0.0000 F80.00 
M06 T05 (1.1938 )
G00 Z3.0000 
M03
G04 P3.000000
G82 X76.3016 Y49.5808 Z-1.8000 F80.00 R3.0000 P1.000000
G82 X76.3016 Y54.5592 
G82 X88.7984 Y49.5808 
G82 X88.7984 Y54.5592 
M05
G00 Z30.0000 
M06 T06 (1.2000 )
G01 Z0.0000 F80.00 
M06 T06 (1.2000 )
G00 Z3.0000 
M03
G04 P3.000000
G82 X54.6100 Y10.1600 Z-1.8000 F80.00 R3.0000 P1.000000
G82 X54.6100 Y12.7000 
G82 X54.6100 Y15.2400 
G82 X54.6100 Y17.7800 
G82 X54.6100 Y20.3200 
G82 X57.1500 Y10.1600 
G82 X57.1500 Y12.7000 
G82 X57.1500 Y15.2400 
G82 X57.1500 Y17.7800 
G82 X57.1500 Y20.3200 
M05
G00 Z30.0000 
M06 T07 (1.3000 )
G01 Z0.0000 F80.00 
M06 T07 (1.3000 )
G00 Z3.0000 
M03
G04 P3.000000
G82 X81.0300 Y26.6700 Z-1.8000 F80.00 R3.0000 P1.000000
G82 X82.5500 Y35.9300 
G82 X82.5500 Y17.4100 
G82 X91.8600 Y26.6700 
M05
G00 Z30.0000 
M06 T08 (1.6000 )
G01 Z0.0000 F80.00 
M06 T08 (1.6000 )
G00 Z3.0000 
M03
G04 P3.000000
G82 X82.5500 Y22.1700 Z-1.8000 F80.00 R3.0000 P1.000000
G82 X82.5500 Y31.1700 
T01 
G00 Z12.0000 
M05
M02
