(.../pcb-gcode-3.6.0.4/pcb-gcode.ulp)
(Copyright 2005 - 2012 by John Johnson)
(See readme.txt for licensing terms.)
(This file generated from the board:)
(.../projects/freezeTime/freezeTime.brd)
(Current profile is .../pcb-gcode-3.6.0.4/profiles/emc.pp  )
(This file generated 9.10.2014 22:11:49)
(Settings from pcb-machine.h)
(  Tool Size)
(0.3000 )
(Z Axis Settings)
(  High     Up        Down     Drill)
(12.0000 	3.0000 	-0.0700 	-1.8000 )
(spindle on time = 3.0000)
(milling depth = 0.8000)
(text depth = -0.1100)
(tool change at 0.0000 0.0000 30.0000 )
(feed rate xy = F250.00 )
(feed rate z  = F80.00 )
(Settings from pcb-defaults.h)
(isolate min = 0.0300)
(isolate max = 0.3000)
(isolate step = 0.1500)
(Generated top outlines, top drill, bottom outlines, bottom drill, )
(Unit of measure: mm)
(Metric Mode)
G21
(Absolute Coordinates)
G90
G00 X0.0000 Y0.0000 
M03
G04 P3.000000
G00 Z3.0000 
G00 X-19.8650 Y44.4299 
G01 Z-0.0700 F80.00 
G01 X-19.8650 Y45.1051 F250.00 
G01 X-19.4332 Y45.5369 
G01 X-19.4332 Y45.6543 
G01 X-45.3368 Y45.6543 
G01 X-45.3368 Y41.4804 
G01 X-44.9768 Y41.4804 
G01 X-44.8145 Y41.4481 
G01 X-44.6615 Y41.3848 
G01 X-44.5239 Y41.2928 
G01 X-44.4068 Y41.1757 
G01 X-44.3148 Y41.0381 
G01 X-44.2515 Y40.8851 
G01 X-44.2192 Y40.7228 
G01 X-44.2192 Y40.5572 
G01 X-44.2515 Y40.3949 
G01 X-44.3148 Y40.2419 
G01 X-44.4068 Y40.1043 
G01 X-44.5239 Y39.9872 
G01 X-44.6615 Y39.8952 
G01 X-44.8145 Y39.8319 
G01 X-44.9768 Y39.7996 
G01 X-46.4632 Y39.7996 
G01 X-46.6255 Y39.8319 
G01 X-46.7785 Y39.8952 
G01 X-46.9161 Y39.9872 
G01 X-47.0332 Y40.1043 
G01 X-47.1252 Y40.2419 
G01 X-47.1885 Y40.3949 
G01 X-47.2208 Y40.5572 
G01 X-47.2208 Y40.7228 
G01 X-47.1885 Y40.8851 
G01 X-47.1252 Y41.0381 
G01 X-47.0332 Y41.1757 
G01 X-46.9161 Y41.2928 
G01 X-46.7785 Y41.3848 
G01 X-46.6255 Y41.4481 
G01 X-46.4632 Y41.4804 
G01 X-46.1032 Y41.4804 
G01 X-46.1032 Y46.0879 
G01 X-46.0771 Y46.1854 
G01 X-46.0266 Y46.2728 
G01 X-45.9553 Y46.3441 
G01 X-45.8679 Y46.3946 
G01 X-45.7705 Y46.4207 
G01 X-18.9995 Y46.4207 
G01 X-18.9021 Y46.3946 
G01 X-18.8147 Y46.3441 
G01 X-18.7434 Y46.2728 
G01 X-18.6929 Y46.1854 
G01 X-18.6668 Y46.0879 
G01 X-18.6668 Y45.5369 
G01 X-18.2350 Y45.1051 
G01 X-18.2350 Y44.4299 
G01 X-18.7124 Y43.9525 
G01 X-19.3876 Y43.9525 
G01 X-19.8650 Y44.4299 
G00 Z3.0000 
G00 X-50.9800 Y12.3624 
G01 Z-0.0700 F80.00 
G01 X-50.9800 Y13.0376 F250.00 
G01 X-50.5482 Y13.4694 
G01 X-50.5482 Y14.6555 
G01 X-50.5221 Y14.7529 
G01 X-50.4716 Y14.8403 
G01 X-50.4003 Y14.9116 
G01 X-47.2253 Y18.0866 
G01 X-47.1435 Y18.1339 
G01 X-47.1252 Y18.1781 
G01 X-47.0332 Y18.3157 
G01 X-46.9161 Y18.4328 
G01 X-46.7785 Y18.5248 
G01 X-46.6255 Y18.5881 
G01 X-46.4632 Y18.6204 
G01 X-44.9768 Y18.6204 
G01 X-44.8145 Y18.5881 
G01 X-44.6615 Y18.5248 
G01 X-44.5239 Y18.4328 
G01 X-44.4068 Y18.3157 
G01 X-44.3148 Y18.1781 
G01 X-44.2515 Y18.0251 
G01 X-44.2192 Y17.8628 
G01 X-44.2192 Y17.6972 
G01 X-44.2515 Y17.5349 
G01 X-44.3148 Y17.3819 
G01 X-44.4068 Y17.2443 
G01 X-44.5239 Y17.1272 
G01 X-44.6615 Y17.0352 
G01 X-44.8145 Y16.9719 
G01 X-44.9768 Y16.9396 
G01 X-46.4632 Y16.9396 
G01 X-46.6255 Y16.9719 
G01 X-46.7785 Y17.0352 
G01 X-46.9161 Y17.1272 
G01 X-47.0085 Y17.2196 
G01 X-49.7818 Y14.4463 
G01 X-49.7818 Y13.4694 
G01 X-49.3500 Y13.0376 
G01 X-49.3500 Y12.3624 
G01 X-49.8274 Y11.8850 
G01 X-50.5026 Y11.8850 
G01 X-50.9800 Y12.3624 
G00 Z3.0000 
G00 X-43.4829 Y62.7638 
G01 Z-0.0700 F80.00 
G01 X-43.4765 Y62.7750 F250.00 
G01 X-43.4510 Y62.8005 
G01 X-43.4274 Y62.8276 
G01 X-43.4166 Y62.8348 
G01 X-43.4075 Y62.8440 
G01 X-43.3763 Y62.8620 
G01 X-43.3464 Y62.8821 
G01 X-43.3342 Y62.8863 
G01 X-43.3230 Y62.8927 
G01 X-43.2882 Y62.9021 
G01 X-43.2542 Y62.9138 
G01 X-43.2413 Y62.9147 
G01 X-43.2288 Y62.9180 
G01 X-43.1928 Y62.9180 
G01 X-43.1568 Y62.9205 
G01 X-43.1441 Y62.9180 
G01 X-23.4059 Y62.9180 
G01 X-23.3843 Y63.0545 
G01 X-23.3138 Y63.2716 
G01 X-23.2102 Y63.4750 
G01 X-23.0760 Y63.6596 
G01 X-22.9146 Y63.8210 
G01 X-22.7300 Y63.9552 
G01 X-22.5266 Y64.0588 
G01 X-22.3095 Y64.1293 
G01 X-22.0841 Y64.1650 
G01 X-21.8559 Y64.1650 
G01 X-21.6305 Y64.1293 
G01 X-21.4134 Y64.0588 
G01 X-21.2100 Y63.9552 
G01 X-21.0254 Y63.8210 
G01 X-20.8640 Y63.6596 
G01 X-20.7298 Y63.4750 
G01 X-20.6262 Y63.2716 
G01 X-20.5557 Y63.0545 
G01 X-20.5200 Y62.8291 
G01 X-20.5200 Y62.6009 
G01 X-20.5557 Y62.3755 
G01 X-20.6262 Y62.1584 
G01 X-20.7298 Y61.9550 
G01 X-20.8640 Y61.7704 
G01 X-21.0254 Y61.6090 
G01 X-21.2100 Y61.4748 
G01 X-21.4134 Y61.3712 
G01 X-21.6305 Y61.3007 
G01 X-21.8559 Y61.2650 
G01 X-22.0841 Y61.2650 
G01 X-22.3095 Y61.3007 
G01 X-22.5266 Y61.3712 
G01 X-22.7300 Y61.4748 
G01 X-22.9146 Y61.6090 
G01 X-23.0760 Y61.7704 
G01 X-23.2102 Y61.9550 
G01 X-23.3138 Y62.1584 
G01 X-23.3198 Y62.1770 
G01 X-43.0114 Y62.1770 
G01 X-50.9534 Y53.0584 
G01 X-50.9375 Y53.0426 
G01 X-50.9375 Y52.3674 
G01 X-51.4149 Y51.8900 
G01 X-52.0901 Y51.8900 
G01 X-52.5675 Y52.3674 
G01 X-52.5675 Y53.0426 
G01 X-52.0901 Y53.5200 
G01 X-51.5340 Y53.5200 
G01 X-43.4829 Y62.7638 
G00 Z3.0000 
G00 X-35.7400 Y59.9874 
G01 Z-0.0700 F80.00 
G01 X-35.7400 Y60.6626 F250.00 
G01 X-35.2626 Y61.1400 
G01 X-34.5874 Y61.1400 
G01 X-34.1556 Y60.7082 
G01 X-18.2562 Y60.7082 
G01 X-16.9205 Y62.0440 
G01 X-16.9788 Y62.1584 
G01 X-17.0493 Y62.3755 
G01 X-17.0850 Y62.6009 
G01 X-17.0850 Y62.8291 
G01 X-17.0493 Y63.0545 
G01 X-16.9788 Y63.2716 
G01 X-16.8752 Y63.4750 
G01 X-16.7410 Y63.6596 
G01 X-16.5796 Y63.8210 
G01 X-16.3950 Y63.9552 
G01 X-16.1916 Y64.0588 
G01 X-15.9745 Y64.1293 
G01 X-15.7491 Y64.1650 
G01 X-15.5209 Y64.1650 
G01 X-15.2955 Y64.1293 
G01 X-15.0784 Y64.0588 
G01 X-14.8750 Y63.9552 
G01 X-14.6904 Y63.8210 
G01 X-14.5290 Y63.6596 
G01 X-14.3948 Y63.4750 
G01 X-14.2912 Y63.2716 
G01 X-14.2207 Y63.0545 
G01 X-14.1850 Y62.8291 
G01 X-14.1850 Y62.6009 
G01 X-14.2207 Y62.3755 
G01 X-14.2912 Y62.1584 
G01 X-14.3948 Y61.9550 
G01 X-14.5290 Y61.7704 
G01 X-14.6904 Y61.6090 
G01 X-14.8750 Y61.4748 
G01 X-15.0784 Y61.3712 
G01 X-15.2955 Y61.3007 
G01 X-15.5209 Y61.2650 
G01 X-15.7491 Y61.2650 
G01 X-15.9745 Y61.3007 
G01 X-16.1916 Y61.3712 
G01 X-16.3950 Y61.4748 
G01 X-16.4012 Y61.4794 
G01 X-17.7909 Y60.0897 
G01 X-17.8622 Y60.0184 
G01 X-17.9496 Y59.9679 
G01 X-18.0470 Y59.9418 
G01 X-34.1556 Y59.9418 
G01 X-34.5874 Y59.5100 
G01 X-35.2626 Y59.5100 
G01 X-35.7400 Y59.9874 
G00 Z3.0000 
G00 X-49.8676 Y19.2300 
G01 Z-0.0700 F80.00 
G01 X-49.1924 Y19.2300 F250.00 
G01 X-48.7150 Y18.7526 
G01 X-48.7150 Y18.0774 
G01 X-49.1924 Y17.6000 
G01 X-49.8676 Y17.6000 
G01 X-50.2994 Y18.0318 
G01 X-52.7555 Y18.0318 
G01 X-52.8529 Y18.0579 
G01 X-52.9403 Y18.1084 
G01 X-54.1176 Y19.2856 
G01 X-54.1704 Y19.2587 
G01 X-54.2395 Y19.2363 
G01 X-54.2395 Y18.8637 
G01 X-54.1704 Y18.8413 
G01 X-54.0098 Y18.7595 
G01 X-53.8640 Y18.6535 
G01 X-53.7365 Y18.5260 
G01 X-53.6305 Y18.3802 
G01 X-53.5487 Y18.2196 
G01 X-53.4930 Y18.0482 
G01 X-53.4648 Y17.8701 
G01 X-53.4648 Y17.6899 
G01 X-53.4930 Y17.5118 
G01 X-53.5487 Y17.3404 
G01 X-53.6305 Y17.1798 
G01 X-53.7365 Y17.0340 
G01 X-53.8640 Y16.9065 
G01 X-54.0098 Y16.8005 
G01 X-54.1704 Y16.7187 
G01 X-54.2395 Y16.6962 
G01 X-54.2395 Y16.3238 
G01 X-54.1704 Y16.3013 
G01 X-54.0098 Y16.2195 
G01 X-53.8640 Y16.1135 
G01 X-53.7365 Y15.9860 
G01 X-53.6305 Y15.8402 
G01 X-53.5487 Y15.6796 
G01 X-53.4930 Y15.5082 
G01 X-53.4648 Y15.3301 
G01 X-53.4648 Y15.1499 
G01 X-53.4930 Y14.9718 
G01 X-53.5487 Y14.8004 
G01 X-53.6305 Y14.6398 
G01 X-53.7365 Y14.4939 
G01 X-53.8640 Y14.3665 
G01 X-54.0098 Y14.2605 
G01 X-54.1704 Y14.1787 
G01 X-54.2395 Y14.1562 
G01 X-54.2395 Y13.7837 
G01 X-54.1704 Y13.7613 
G01 X-54.0098 Y13.6795 
G01 X-53.8640 Y13.5735 
G01 X-53.7365 Y13.4460 
G01 X-53.6305 Y13.3002 
G01 X-53.5487 Y13.1396 
G01 X-53.4930 Y12.9682 
G01 X-53.4648 Y12.7901 
G01 X-53.4648 Y12.6099 
G01 X-53.4930 Y12.4318 
G01 X-53.5487 Y12.2604 
G01 X-53.6305 Y12.0998 
G01 X-53.7365 Y11.9540 
G01 X-53.8640 Y11.8265 
G01 X-54.0098 Y11.7205 
G01 X-54.1704 Y11.6387 
G01 X-54.3418 Y11.5830 
G01 X-54.5199 Y11.5548 
G01 X-54.7001 Y11.5548 
G01 X-54.8782 Y11.5830 
G01 X-55.0496 Y11.6387 
G01 X-55.2102 Y11.7205 
G01 X-55.3560 Y11.8265 
G01 X-55.4835 Y11.9540 
G01 X-55.5895 Y12.0998 
G01 X-55.6713 Y12.2604 
G01 X-55.7270 Y12.4318 
G01 X-55.7552 Y12.6099 
G01 X-55.7552 Y12.7901 
G01 X-55.7270 Y12.9682 
G01 X-55.6713 Y13.1396 
G01 X-55.5895 Y13.3002 
G01 X-55.4835 Y13.4460 
G01 X-55.3560 Y13.5735 
G01 X-55.2102 Y13.6795 
G01 X-55.0496 Y13.7613 
G01 X-54.9805 Y13.7837 
G01 X-54.9805 Y14.1562 
G01 X-55.0496 Y14.1787 
G01 X-55.2102 Y14.2605 
G01 X-55.3560 Y14.3665 
G01 X-55.4835 Y14.4939 
G01 X-55.5895 Y14.6398 
G01 X-55.6713 Y14.8004 
G01 X-55.7270 Y14.9718 
G01 X-55.7552 Y15.1499 
G01 X-55.7552 Y15.3301 
G01 X-55.7270 Y15.5082 
G01 X-55.6713 Y15.6796 
G01 X-55.5895 Y15.8402 
G01 X-55.4835 Y15.9860 
G01 X-55.3560 Y16.1135 
G01 X-55.2102 Y16.2195 
G01 X-55.0496 Y16.3013 
G01 X-54.9805 Y16.3238 
G01 X-54.9805 Y16.6962 
G01 X-55.0496 Y16.7187 
G01 X-55.2102 Y16.8005 
G01 X-55.3560 Y16.9065 
G01 X-55.4835 Y17.0340 
G01 X-55.5895 Y17.1798 
G01 X-55.6713 Y17.3404 
G01 X-55.7270 Y17.5118 
G01 X-55.7552 Y17.6899 
G01 X-55.7552 Y17.8701 
G01 X-55.7270 Y18.0482 
G01 X-55.6713 Y18.2196 
G01 X-55.5895 Y18.3802 
G01 X-55.4835 Y18.5260 
G01 X-55.3560 Y18.6535 
G01 X-55.2102 Y18.7595 
G01 X-55.0496 Y18.8413 
G01 X-54.9805 Y18.8637 
G01 X-54.9805 Y19.2363 
G01 X-55.0496 Y19.2587 
G01 X-55.2102 Y19.3405 
G01 X-55.3560 Y19.4465 
G01 X-55.4835 Y19.5739 
G01 X-55.5895 Y19.7198 
G01 X-55.6713 Y19.8804 
G01 X-55.7270 Y20.0518 
G01 X-55.7552 Y20.2299 
G01 X-55.7552 Y20.4101 
G01 X-55.7270 Y20.5882 
G01 X-55.6713 Y20.7596 
G01 X-55.5895 Y20.9202 
G01 X-55.4835 Y21.0660 
G01 X-55.3560 Y21.1935 
G01 X-55.2102 Y21.2995 
G01 X-55.0496 Y21.3813 
G01 X-54.8782 Y21.4370 
G01 X-54.7001 Y21.4652 
G01 X-54.5199 Y21.4652 
G01 X-54.3418 Y21.4370 
G01 X-54.1704 Y21.3813 
G01 X-54.0098 Y21.2995 
G01 X-53.8640 Y21.1935 
G01 X-53.7365 Y21.0660 
G01 X-53.6305 Y20.9202 
G01 X-53.5487 Y20.7596 
G01 X-53.4930 Y20.5882 
G01 X-53.4648 Y20.4101 
G01 X-53.4648 Y20.2299 
G01 X-53.4930 Y20.0518 
G01 X-53.5487 Y19.8804 
G01 X-53.5756 Y19.8276 
G01 X-52.5463 Y18.7982 
G01 X-50.2994 Y18.7982 
G01 X-49.8676 Y19.2300 
G00 Z3.0000 
G00 X-62.3592 Y30.0582 
G01 Z-0.0700 F80.00 
G01 X-62.3592 Y30.9017 F250.00 
G01 X-61.7628 Y31.4982 
G01 X-60.9192 Y31.4982 
G01 X-60.3228 Y30.9017 
G01 X-60.3228 Y30.0582 
G01 X-60.9192 Y29.4618 
G01 X-61.2245 Y29.4618 
G01 X-61.2245 Y10.1112 
G01 X-61.2498 Y10.0170 
G01 X-61.2985 Y9.9325 
G01 X-61.3675 Y9.8635 
G01 X-66.6167 Y4.6143 
G01 X-66.6042 Y4.5841 
G01 X-66.5760 Y4.4423 
G01 X-66.5760 Y4.2977 
G01 X-66.6042 Y4.1559 
G01 X-66.6595 Y4.0223 
G01 X-66.7399 Y3.9021 
G01 X-66.8421 Y3.7999 
G01 X-66.9623 Y3.7195 
G01 X-67.0959 Y3.6642 
G01 X-67.2377 Y3.6360 
G01 X-67.3823 Y3.6360 
G01 X-67.5241 Y3.6642 
G01 X-67.6577 Y3.7195 
G01 X-67.7779 Y3.7999 
G01 X-67.8801 Y3.9021 
G01 X-67.9605 Y4.0223 
G01 X-68.0158 Y4.1559 
G01 X-68.0440 Y4.2977 
G01 X-68.0440 Y4.4423 
G01 X-68.0158 Y4.5841 
G01 X-67.9605 Y4.7177 
G01 X-67.8801 Y4.8379 
G01 X-67.7779 Y4.9401 
G01 X-67.6577 Y5.0205 
G01 X-67.5241 Y5.0758 
G01 X-67.3823 Y5.1040 
G01 X-67.2377 Y5.1040 
G01 X-67.1854 Y5.0936 
G01 X-61.9655 Y10.3135 
G01 X-61.9655 Y29.6645 
G01 X-62.3592 Y30.0582 
G00 Z3.0000 
G00 X-68.0440 Y10.7977 
G01 Z-0.0700 F80.00 
G01 X-68.0440 Y10.9423 F250.00 
G01 X-68.0158 Y11.0841 
G01 X-67.9605 Y11.2177 
G01 X-67.8801 Y11.3379 
G01 X-67.7779 Y11.4401 
G01 X-67.6805 Y11.5052 
G01 X-67.6805 Y26.5229 
G01 X-68.1250 Y26.9674 
G01 X-68.1250 Y27.6426 
G01 X-67.6476 Y28.1200 
G01 X-66.9724 Y28.1200 
G01 X-66.4950 Y27.6426 
G01 X-66.4950 Y26.9674 
G01 X-66.9395 Y26.5229 
G01 X-66.9395 Y11.5052 
G01 X-66.8421 Y11.4401 
G01 X-66.7399 Y11.3379 
G01 X-66.6595 Y11.2177 
G01 X-66.6042 Y11.0841 
G01 X-66.5760 Y10.9423 
G01 X-66.5760 Y10.7977 
G01 X-66.6042 Y10.6559 
G01 X-66.6595 Y10.5223 
G01 X-66.7399 Y10.4021 
G01 X-66.8421 Y10.2999 
G01 X-66.9623 Y10.2195 
G01 X-67.0959 Y10.1642 
G01 X-67.2377 Y10.1360 
G01 X-67.3823 Y10.1360 
G01 X-67.5241 Y10.1642 
G01 X-67.6577 Y10.2195 
G01 X-67.7779 Y10.2999 
G01 X-67.8801 Y10.4021 
G01 X-67.9605 Y10.5223 
G01 X-68.0158 Y10.6559 
G01 X-68.0440 Y10.7977 
G00 Z3.0000 
G00 X-13.0360 Y49.1060 
G01 Z-0.0700 F80.00 
G01 X-13.0360 Y47.4140 F250.00 
G01 X-13.0719 Y47.2336 
G01 X-13.1423 Y47.0636 
G01 X-13.2445 Y46.9106 
G01 X-13.3746 Y46.7805 
G01 X-13.5276 Y46.6783 
G01 X-13.6976 Y46.6079 
G01 X-13.8780 Y46.5720 
G01 X-14.0620 Y46.5720 
G01 X-14.2424 Y46.6079 
G01 X-14.4124 Y46.6783 
G01 X-14.5654 Y46.7805 
G01 X-14.6955 Y46.9106 
G01 X-14.7977 Y47.0636 
G01 X-14.8681 Y47.2336 
G01 X-14.9040 Y47.4140 
G01 X-14.9040 Y49.1060 
G01 X-14.8681 Y49.2864 
G01 X-14.7977 Y49.4564 
G01 X-14.6955 Y49.6094 
G01 X-14.5654 Y49.7395 
G01 X-14.4124 Y49.8417 
G01 X-14.2424 Y49.9121 
G01 X-14.0620 Y49.9480 
G01 X-13.8780 Y49.9480 
G01 X-13.6976 Y49.9121 
G01 X-13.5276 Y49.8417 
G01 X-13.3746 Y49.7395 
G01 X-13.2445 Y49.6094 
G01 X-13.1423 Y49.4564 
G01 X-13.0719 Y49.2864 
G01 X-13.0360 Y49.1060 
G00 Z3.0000 
G00 X-15.5760 Y49.1060 
G01 Z-0.0700 F80.00 
G01 X-15.5760 Y47.4140 F250.00 
G01 X-15.6119 Y47.2336 
G01 X-15.6823 Y47.0636 
G01 X-15.7845 Y46.9106 
G01 X-15.9146 Y46.7805 
G01 X-16.0676 Y46.6783 
G01 X-16.2376 Y46.6079 
G01 X-16.4180 Y46.5720 
G01 X-16.6020 Y46.5720 
G01 X-16.7824 Y46.6079 
G01 X-16.9524 Y46.6783 
G01 X-17.1054 Y46.7805 
G01 X-17.2355 Y46.9106 
G01 X-17.3377 Y47.0636 
G01 X-17.4081 Y47.2336 
G01 X-17.4440 Y47.4140 
G01 X-17.4440 Y49.1060 
G01 X-17.4081 Y49.2864 
G01 X-17.3377 Y49.4564 
G01 X-17.2355 Y49.6094 
G01 X-17.1054 Y49.7395 
G01 X-16.9524 Y49.8417 
G01 X-16.7824 Y49.9121 
G01 X-16.6020 Y49.9480 
G01 X-16.4180 Y49.9480 
G01 X-16.2376 Y49.9121 
G01 X-16.0676 Y49.8417 
G01 X-15.9146 Y49.7395 
G01 X-15.7845 Y49.6094 
G01 X-15.6823 Y49.4564 
G01 X-15.6119 Y49.2864 
G01 X-15.5760 Y49.1060 
G00 Z3.0000 
G00 X-18.1160 Y49.1060 
G01 Z-0.0700 F80.00 
G01 X-18.1160 Y47.4140 F250.00 
G01 X-18.1519 Y47.2336 
G01 X-18.2223 Y47.0636 
G01 X-18.3245 Y46.9106 
G01 X-18.4546 Y46.7805 
G01 X-18.6076 Y46.6783 
G01 X-18.7776 Y46.6079 
G01 X-18.9580 Y46.5720 
G01 X-19.1420 Y46.5720 
G01 X-19.3224 Y46.6079 
G01 X-19.4924 Y46.6783 
G01 X-19.6454 Y46.7805 
G01 X-19.7755 Y46.9106 
G01 X-19.8777 Y47.0636 
G01 X-19.9481 Y47.2336 
G01 X-19.9840 Y47.4140 
G01 X-19.9840 Y49.1060 
G01 X-19.9481 Y49.2864 
G01 X-19.8777 Y49.4564 
G01 X-19.7755 Y49.6094 
G01 X-19.6454 Y49.7395 
G01 X-19.4924 Y49.8417 
G01 X-19.3224 Y49.9121 
G01 X-19.1420 Y49.9480 
G01 X-18.9580 Y49.9480 
G01 X-18.7776 Y49.9121 
G01 X-18.6076 Y49.8417 
G01 X-18.4546 Y49.7395 
G01 X-18.3245 Y49.6094 
G01 X-18.2223 Y49.4564 
G01 X-18.1519 Y49.2864 
G01 X-18.1160 Y49.1060 
G00 Z3.0000 
G00 X-20.6560 Y49.1060 
G01 Z-0.0700 F80.00 
G01 X-20.6560 Y47.4140 F250.00 
G01 X-20.6919 Y47.2336 
G01 X-20.7623 Y47.0636 
G01 X-20.8645 Y46.9106 
G01 X-20.9946 Y46.7805 
G01 X-21.1476 Y46.6783 
G01 X-21.3176 Y46.6079 
G01 X-21.4980 Y46.5720 
G01 X-21.6820 Y46.5720 
G01 X-21.8624 Y46.6079 
G01 X-22.0324 Y46.6783 
G01 X-22.1854 Y46.7805 
G01 X-22.3155 Y46.9106 
G01 X-22.4177 Y47.0636 
G01 X-22.4881 Y47.2336 
G01 X-22.5240 Y47.4140 
G01 X-22.5240 Y49.1060 
G01 X-22.4881 Y49.2864 
G01 X-22.4177 Y49.4564 
G01 X-22.3155 Y49.6094 
G01 X-22.1854 Y49.7395 
G01 X-22.0324 Y49.8417 
G01 X-21.8624 Y49.9121 
G01 X-21.6820 Y49.9480 
G01 X-21.4980 Y49.9480 
G01 X-21.3176 Y49.9121 
G01 X-21.1476 Y49.8417 
G01 X-20.9946 Y49.7395 
G01 X-20.8645 Y49.6094 
G01 X-20.7623 Y49.4564 
G01 X-20.6919 Y49.2864 
G01 X-20.6560 Y49.1060 
G00 Z3.0000 
G00 X-23.1960 Y49.1060 
G01 Z-0.0700 F80.00 
G01 X-23.1960 Y47.4140 F250.00 
G01 X-23.2319 Y47.2336 
G01 X-23.3023 Y47.0636 
G01 X-23.4045 Y46.9106 
G01 X-23.5346 Y46.7805 
G01 X-23.6876 Y46.6783 
G01 X-23.8576 Y46.6079 
G01 X-24.0380 Y46.5720 
G01 X-24.2220 Y46.5720 
G01 X-24.4024 Y46.6079 
G01 X-24.5724 Y46.6783 
G01 X-24.7254 Y46.7805 
G01 X-24.8555 Y46.9106 
G01 X-24.9577 Y47.0636 
G01 X-25.0281 Y47.2336 
G01 X-25.0640 Y47.4140 
G01 X-25.0640 Y49.1060 
G01 X-25.0281 Y49.2864 
G01 X-24.9577 Y49.4564 
G01 X-24.8555 Y49.6094 
G01 X-24.7254 Y49.7395 
G01 X-24.5724 Y49.8417 
G01 X-24.4024 Y49.9121 
G01 X-24.2220 Y49.9480 
G01 X-24.0380 Y49.9480 
G01 X-23.8576 Y49.9121 
G01 X-23.6876 Y49.8417 
G01 X-23.5346 Y49.7395 
G01 X-23.4045 Y49.6094 
G01 X-23.3023 Y49.4564 
G01 X-23.2319 Y49.2864 
G01 X-23.1960 Y49.1060 
G00 Z3.0000 
G00 X-25.7360 Y49.1060 
G01 Z-0.0700 F80.00 
G01 X-25.7360 Y47.4140 F250.00 
G01 X-25.7719 Y47.2336 
G01 X-25.8423 Y47.0636 
G01 X-25.9445 Y46.9106 
G01 X-26.0746 Y46.7805 
G01 X-26.2276 Y46.6783 
G01 X-26.3976 Y46.6079 
G01 X-26.5780 Y46.5720 
G01 X-26.7620 Y46.5720 
G01 X-26.9424 Y46.6079 
G01 X-27.1124 Y46.6783 
G01 X-27.2654 Y46.7805 
G01 X-27.3955 Y46.9106 
G01 X-27.4977 Y47.0636 
G01 X-27.5681 Y47.2336 
G01 X-27.6040 Y47.4140 
G01 X-27.6040 Y49.1060 
G01 X-27.5681 Y49.2864 
G01 X-27.4977 Y49.4564 
G01 X-27.3955 Y49.6094 
G01 X-27.2654 Y49.7395 
G01 X-27.1124 Y49.8417 
G01 X-26.9424 Y49.9121 
G01 X-26.7620 Y49.9480 
G01 X-26.5780 Y49.9480 
G01 X-26.3976 Y49.9121 
G01 X-26.2276 Y49.8417 
G01 X-26.0746 Y49.7395 
G01 X-25.9445 Y49.6094 
G01 X-25.8423 Y49.4564 
G01 X-25.7719 Y49.2864 
G01 X-25.7360 Y49.1060 
G00 Z3.0000 
G00 X-28.2760 Y49.1060 
G01 Z-0.0700 F80.00 
G01 X-28.2760 Y47.4140 F250.00 
G01 X-28.3119 Y47.2336 
G01 X-28.3823 Y47.0636 
G01 X-28.4845 Y46.9106 
G01 X-28.6146 Y46.7805 
G01 X-28.7676 Y46.6783 
G01 X-28.9376 Y46.6079 
G01 X-29.1180 Y46.5720 
G01 X-29.3020 Y46.5720 
G01 X-29.4824 Y46.6079 
G01 X-29.6524 Y46.6783 
G01 X-29.8054 Y46.7805 
G01 X-29.9355 Y46.9106 
G01 X-30.0377 Y47.0636 
G01 X-30.1081 Y47.2336 
G01 X-30.1440 Y47.4140 
G01 X-30.1440 Y49.1060 
G01 X-30.1081 Y49.2864 
G01 X-30.0377 Y49.4564 
G01 X-29.9355 Y49.6094 
G01 X-29.8054 Y49.7395 
G01 X-29.6524 Y49.8417 
G01 X-29.4824 Y49.9121 
G01 X-29.3020 Y49.9480 
G01 X-29.1180 Y49.9480 
G01 X-28.9376 Y49.9121 
G01 X-28.7676 Y49.8417 
G01 X-28.6146 Y49.7395 
G01 X-28.4845 Y49.6094 
G01 X-28.3823 Y49.4564 
G01 X-28.3119 Y49.2864 
G01 X-28.2760 Y49.1060 
G00 Z3.0000 
G00 X-30.8160 Y49.1060 
G01 Z-0.0700 F80.00 
G01 X-30.8160 Y47.4140 F250.00 
G01 X-30.8519 Y47.2336 
G01 X-30.9223 Y47.0636 
G01 X-31.0245 Y46.9106 
G01 X-31.1546 Y46.7805 
G01 X-31.3076 Y46.6783 
G01 X-31.4776 Y46.6079 
G01 X-31.6580 Y46.5720 
G01 X-31.8420 Y46.5720 
G01 X-32.0224 Y46.6079 
G01 X-32.1924 Y46.6783 
G01 X-32.3454 Y46.7805 
G01 X-32.4755 Y46.9106 
G01 X-32.5777 Y47.0636 
G01 X-32.6481 Y47.2336 
G01 X-32.6840 Y47.4140 
G01 X-32.6840 Y49.1060 
G01 X-32.6481 Y49.2864 
G01 X-32.5777 Y49.4564 
G01 X-32.4755 Y49.6094 
G01 X-32.3454 Y49.7395 
G01 X-32.1924 Y49.8417 
G01 X-32.0224 Y49.9121 
G01 X-31.8420 Y49.9480 
G01 X-31.6580 Y49.9480 
G01 X-31.4776 Y49.9121 
G01 X-31.3076 Y49.8417 
G01 X-31.1546 Y49.7395 
G01 X-31.0245 Y49.6094 
G01 X-30.9223 Y49.4564 
G01 X-30.8519 Y49.2864 
G01 X-30.8160 Y49.1060 
G00 Z3.0000 
G00 X-58.2952 Y20.2299 
G01 Z-0.0700 F80.00 
G01 X-58.2952 Y20.4101 F250.00 
G01 X-58.2670 Y20.5882 
G01 X-58.2113 Y20.7596 
G01 X-58.1295 Y20.9202 
G01 X-58.0235 Y21.0660 
G01 X-57.8960 Y21.1935 
G01 X-57.7502 Y21.2995 
G01 X-57.5896 Y21.3813 
G01 X-57.4182 Y21.4370 
G01 X-57.2401 Y21.4652 
G01 X-57.0599 Y21.4652 
G01 X-56.8818 Y21.4370 
G01 X-56.7104 Y21.3813 
G01 X-56.6457 Y21.3483 
G01 X-55.7900 Y22.2040 
G01 X-55.7055 Y22.2527 
G01 X-55.6113 Y22.2780 
G01 X-50.7512 Y22.2780 
G01 X-50.6570 Y22.2527 
G01 X-50.5725 Y22.2040 
G01 X-50.5035 Y22.1350 
G01 X-47.7890 Y19.4205 
G01 X-33.7080 Y19.4205 
G01 X-33.7080 Y30.0647 
G01 X-33.7207 Y30.1120 
G01 X-33.7207 Y32.6368 
G01 X-36.6887 Y32.6368 
G01 X-36.6948 Y32.6219 
G01 X-36.7868 Y32.4843 
G01 X-36.9039 Y32.3672 
G01 X-37.0415 Y32.2752 
G01 X-37.1945 Y32.2119 
G01 X-37.3568 Y32.1796 
G01 X-38.8432 Y32.1796 
G01 X-39.0055 Y32.2119 
G01 X-39.1585 Y32.2752 
G01 X-39.2961 Y32.3672 
G01 X-39.4132 Y32.4843 
G01 X-39.5052 Y32.6219 
G01 X-39.5685 Y32.7749 
G01 X-39.6008 Y32.9372 
G01 X-39.6008 Y33.1028 
G01 X-39.5685 Y33.2651 
G01 X-39.5052 Y33.4181 
G01 X-39.4132 Y33.5557 
G01 X-39.2961 Y33.6728 
G01 X-39.1585 Y33.7647 
G01 X-39.0055 Y33.8281 
G01 X-38.8432 Y33.8604 
G01 X-37.3568 Y33.8604 
G01 X-37.1945 Y33.8281 
G01 X-37.0415 Y33.7647 
G01 X-36.9039 Y33.6728 
G01 X-36.7868 Y33.5557 
G01 X-36.6948 Y33.4181 
G01 X-36.6887 Y33.4032 
G01 X-33.2870 Y33.4032 
G01 X-33.1896 Y33.3771 
G01 X-33.1022 Y33.3266 
G01 X-33.0309 Y33.2553 
G01 X-32.9804 Y33.1679 
G01 X-32.9543 Y33.0705 
G01 X-32.9543 Y30.1120 
G01 X-32.9670 Y30.0647 
G01 X-32.9670 Y19.0012 
G01 X-32.9922 Y18.9070 
G01 X-33.0410 Y18.8225 
G01 X-33.1100 Y18.7535 
G01 X-33.1945 Y18.7048 
G01 X-33.2887 Y18.6795 
G01 X-47.9913 Y18.6795 
G01 X-48.0855 Y18.7048 
G01 X-48.1700 Y18.7535 
G01 X-50.9535 Y21.5370 
G01 X-55.4090 Y21.5370 
G01 X-56.1217 Y20.8243 
G01 X-56.0887 Y20.7596 
G01 X-56.0330 Y20.5882 
G01 X-56.0048 Y20.4101 
G01 X-56.0048 Y20.2299 
G01 X-56.0330 Y20.0518 
G01 X-56.0887 Y19.8804 
G01 X-56.1705 Y19.7198 
G01 X-56.2765 Y19.5739 
G01 X-56.4040 Y19.4465 
G01 X-56.5498 Y19.3405 
G01 X-56.7104 Y19.2587 
G01 X-56.8818 Y19.2030 
G01 X-57.0599 Y19.1748 
G01 X-57.2401 Y19.1748 
G01 X-57.4182 Y19.2030 
G01 X-57.5896 Y19.2587 
G01 X-57.7502 Y19.3405 
G01 X-57.8960 Y19.4465 
G01 X-58.0235 Y19.5739 
G01 X-58.1295 Y19.7198 
G01 X-58.2113 Y19.8804 
G01 X-58.2670 Y20.0518 
G01 X-58.2952 Y20.2299 
G00 Z3.0000 
G00 X-58.2113 Y18.2196 
G01 Z-0.0700 F80.00 
G01 X-58.1295 Y18.3802 F250.00 
G01 X-58.0235 Y18.5260 
G01 X-57.8960 Y18.6535 
G01 X-57.7502 Y18.7595 
G01 X-57.5896 Y18.8413 
G01 X-57.4182 Y18.8970 
G01 X-57.2401 Y18.9252 
G01 X-57.0599 Y18.9252 
G01 X-56.8818 Y18.8970 
G01 X-56.7104 Y18.8413 
G01 X-56.5498 Y18.7595 
G01 X-56.4040 Y18.6535 
G01 X-56.2765 Y18.5260 
G01 X-56.1705 Y18.3802 
G01 X-56.0887 Y18.2196 
G01 X-56.0330 Y18.0482 
G01 X-56.0048 Y17.8701 
G01 X-56.0048 Y17.6899 
G01 X-56.0330 Y17.5118 
G01 X-56.0887 Y17.3404 
G01 X-56.1705 Y17.1798 
G01 X-56.2765 Y17.0340 
G01 X-56.4040 Y16.9065 
G01 X-56.5498 Y16.8005 
G01 X-56.7104 Y16.7187 
G01 X-56.8818 Y16.6630 
G01 X-57.0599 Y16.6348 
G01 X-57.2401 Y16.6348 
G01 X-57.4182 Y16.6630 
G01 X-57.5896 Y16.7187 
G01 X-57.7502 Y16.8005 
G01 X-57.8960 Y16.9065 
G01 X-58.0235 Y17.0340 
G01 X-58.1295 Y17.1798 
G01 X-58.2113 Y17.3404 
G01 X-58.2337 Y17.4095 
G01 X-58.7863 Y17.4095 
G01 X-58.8805 Y17.4348 
G01 X-58.9650 Y17.4835 
G01 X-59.0340 Y17.5525 
G01 X-59.0827 Y17.6370 
G01 X-59.1080 Y17.7312 
G01 X-59.1080 Y21.0038 
G01 X-59.0827 Y21.0980 
G01 X-59.0340 Y21.1825 
G01 X-58.9650 Y21.2515 
G01 X-55.7900 Y24.4265 
G01 X-55.7055 Y24.4752 
G01 X-55.6113 Y24.5005 
G01 X-44.6035 Y24.5005 
G01 X-39.2845 Y29.8195 
G01 X-39.2961 Y29.8272 
G01 X-39.4132 Y29.9443 
G01 X-39.5052 Y30.0819 
G01 X-39.5685 Y30.2349 
G01 X-39.6008 Y30.3972 
G01 X-39.6008 Y30.5628 
G01 X-39.5685 Y30.7251 
G01 X-39.5052 Y30.8781 
G01 X-39.4132 Y31.0157 
G01 X-39.2961 Y31.1328 
G01 X-39.1585 Y31.2248 
G01 X-39.0055 Y31.2881 
G01 X-38.8432 Y31.3204 
G01 X-37.3568 Y31.3204 
G01 X-37.1945 Y31.2881 
G01 X-37.0415 Y31.2248 
G01 X-36.9039 Y31.1328 
G01 X-36.7868 Y31.0157 
G01 X-36.6948 Y30.8781 
G01 X-36.6315 Y30.7251 
G01 X-36.5992 Y30.5628 
G01 X-36.5992 Y30.3972 
G01 X-36.6315 Y30.2349 
G01 X-36.6948 Y30.0819 
G01 X-36.7868 Y29.9443 
G01 X-36.9039 Y29.8272 
G01 X-37.0415 Y29.7352 
G01 X-37.1945 Y29.6719 
G01 X-37.3568 Y29.6396 
G01 X-38.4164 Y29.6396 
G01 X-44.1535 Y23.9025 
G01 X-44.2225 Y23.8335 
G01 X-44.3070 Y23.7848 
G01 X-44.4012 Y23.7595 
G01 X-55.4090 Y23.7595 
G01 X-58.3670 Y20.8015 
G01 X-58.3670 Y18.1505 
G01 X-58.2337 Y18.1505 
G01 X-58.2113 Y18.2196 
G00 Z3.0000 
G00 X-58.2952 Y12.6099 
G01 Z-0.0700 F80.00 
G01 X-58.2952 Y12.7901 F250.00 
G01 X-58.2670 Y12.9682 
G01 X-58.2113 Y13.1396 
G01 X-58.1295 Y13.3002 
G01 X-58.0235 Y13.4460 
G01 X-57.8960 Y13.5735 
G01 X-57.7502 Y13.6795 
G01 X-57.5896 Y13.7613 
G01 X-57.4182 Y13.8170 
G01 X-57.2401 Y13.8452 
G01 X-57.0599 Y13.8452 
G01 X-56.8818 Y13.8170 
G01 X-56.7104 Y13.7613 
G01 X-56.5498 Y13.6795 
G01 X-56.4040 Y13.5735 
G01 X-56.2765 Y13.4460 
G01 X-56.1705 Y13.3002 
G01 X-56.0887 Y13.1396 
G01 X-56.0330 Y12.9682 
G01 X-56.0048 Y12.7901 
G01 X-56.0048 Y12.6099 
G01 X-56.0330 Y12.4318 
G01 X-56.0887 Y12.2604 
G01 X-56.1705 Y12.0998 
G01 X-56.2765 Y11.9540 
G01 X-56.4040 Y11.8265 
G01 X-56.5498 Y11.7205 
G01 X-56.7104 Y11.6387 
G01 X-56.8818 Y11.5830 
G01 X-57.0599 Y11.5548 
G01 X-57.2401 Y11.5548 
G01 X-57.4182 Y11.5830 
G01 X-57.5896 Y11.6387 
G01 X-57.7502 Y11.7205 
G01 X-57.8960 Y11.8265 
G01 X-58.0235 Y11.9540 
G01 X-58.1295 Y12.0998 
G01 X-58.2113 Y12.2604 
G01 X-58.2670 Y12.4318 
G01 X-58.2952 Y12.6099 
G00 Z3.0000 
G00 X-55.7552 Y10.0699 
G01 Z-0.0700 F80.00 
G01 X-55.7552 Y10.2501 F250.00 
G01 X-55.7270 Y10.4282 
G01 X-55.6713 Y10.5996 
G01 X-55.5895 Y10.7602 
G01 X-55.4835 Y10.9060 
G01 X-55.3560 Y11.0335 
G01 X-55.2102 Y11.1395 
G01 X-55.0496 Y11.2213 
G01 X-54.8782 Y11.2770 
G01 X-54.7001 Y11.3052 
G01 X-54.5199 Y11.3052 
G01 X-54.3418 Y11.2770 
G01 X-54.1704 Y11.2213 
G01 X-54.0098 Y11.1395 
G01 X-53.8640 Y11.0335 
G01 X-53.7365 Y10.9060 
G01 X-53.6943 Y10.8480 
G01 X-49.9946 Y10.8480 
G01 X-49.5501 Y11.2925 
G01 X-48.8749 Y11.2925 
G01 X-48.3975 Y10.8151 
G01 X-48.3975 Y10.1399 
G01 X-48.8749 Y9.6625 
G01 X-49.5501 Y9.6625 
G01 X-49.9946 Y10.1070 
G01 X-53.4648 Y10.1070 
G01 X-53.4648 Y10.0699 
G01 X-53.4930 Y9.8918 
G01 X-53.5487 Y9.7204 
G01 X-53.6305 Y9.5598 
G01 X-53.7365 Y9.4139 
G01 X-53.8640 Y9.2865 
G01 X-54.0098 Y9.1805 
G01 X-54.1704 Y9.0987 
G01 X-54.3418 Y9.0430 
G01 X-54.5199 Y9.0148 
G01 X-54.7001 Y9.0148 
G01 X-54.8782 Y9.0430 
G01 X-55.0496 Y9.0987 
G01 X-55.2102 Y9.1805 
G01 X-55.3560 Y9.2865 
G01 X-55.4835 Y9.4139 
G01 X-55.5895 Y9.5598 
G01 X-55.6713 Y9.7204 
G01 X-55.7270 Y9.8918 
G01 X-55.7552 Y10.0699 
G00 Z3.0000 
G00 X-75.3216 Y53.4839 
G01 Z-0.0700 F80.00 
G01 X-77.2816 Y53.4839 F250.00 
G01 X-77.4488 Y53.5103 
G01 X-77.6097 Y53.5626 
G01 X-77.7606 Y53.6395 
G01 X-77.8975 Y53.7390 
G01 X-78.0172 Y53.8587 
G01 X-78.1167 Y53.9956 
G01 X-78.1935 Y54.1464 
G01 X-78.2458 Y54.3074 
G01 X-78.2723 Y54.4746 
G01 X-78.2723 Y54.6438 
G01 X-78.2458 Y54.8110 
G01 X-78.1935 Y54.9720 
G01 X-78.1167 Y55.1228 
G01 X-78.0172 Y55.2597 
G01 X-77.8975 Y55.3794 
G01 X-77.7606 Y55.4789 
G01 X-77.6097 Y55.5558 
G01 X-77.4488 Y55.6081 
G01 X-77.2816 Y55.6345 
G01 X-75.3216 Y55.6345 
G01 X-75.1544 Y55.6081 
G01 X-74.9935 Y55.5558 
G01 X-74.8426 Y55.4789 
G01 X-74.7057 Y55.3794 
G01 X-74.5860 Y55.2597 
G01 X-74.4865 Y55.1228 
G01 X-74.4097 Y54.9720 
G01 X-74.3574 Y54.8110 
G01 X-74.3309 Y54.6438 
G01 X-74.3309 Y54.4746 
G01 X-74.3574 Y54.3074 
G01 X-74.4097 Y54.1464 
G01 X-74.4865 Y53.9956 
G01 X-74.5860 Y53.8587 
G01 X-74.7057 Y53.7390 
G01 X-74.8426 Y53.6395 
G01 X-74.9935 Y53.5626 
G01 X-75.1544 Y53.5103 
G01 X-75.3216 Y53.4839 
G00 Z3.0000 
G00 X-87.8184 Y53.4839 
G01 Z-0.0700 F80.00 
G01 X-89.7784 Y53.4839 F250.00 
G01 X-89.9456 Y53.5103 
G01 X-90.1065 Y53.5626 
G01 X-90.2574 Y53.6395 
G01 X-90.3943 Y53.7390 
G01 X-90.5140 Y53.8587 
G01 X-90.6135 Y53.9956 
G01 X-90.6903 Y54.1464 
G01 X-90.7426 Y54.3074 
G01 X-90.7691 Y54.4746 
G01 X-90.7691 Y54.6438 
G01 X-90.7426 Y54.8110 
G01 X-90.6903 Y54.9720 
G01 X-90.6135 Y55.1228 
G01 X-90.5140 Y55.2597 
G01 X-90.3943 Y55.3794 
G01 X-90.2574 Y55.4789 
G01 X-90.1065 Y55.5558 
G01 X-89.9456 Y55.6081 
G01 X-89.7784 Y55.6345 
G01 X-87.8184 Y55.6345 
G01 X-87.6512 Y55.6081 
G01 X-87.4903 Y55.5558 
G01 X-87.3394 Y55.4789 
G01 X-87.2025 Y55.3794 
G01 X-87.0828 Y55.2597 
G01 X-86.9833 Y55.1228 
G01 X-86.9065 Y54.9720 
G01 X-86.8542 Y54.8110 
G01 X-86.8277 Y54.6438 
G01 X-86.8277 Y54.4746 
G01 X-86.8542 Y54.3074 
G01 X-86.9065 Y54.1464 
G01 X-86.9833 Y53.9956 
G01 X-87.0828 Y53.8587 
G01 X-87.2025 Y53.7390 
G01 X-87.3394 Y53.6395 
G01 X-87.4903 Y53.5626 
G01 X-87.6512 Y53.5103 
G01 X-87.8184 Y53.4839 
G00 Z3.0000 
G00 X-75.3216 Y48.5055 
G01 Z-0.0700 F80.00 
G01 X-77.2816 Y48.5055 F250.00 
G01 X-77.4488 Y48.5319 
G01 X-77.6097 Y48.5842 
G01 X-77.7606 Y48.6611 
G01 X-77.8975 Y48.7606 
G01 X-78.0172 Y48.8803 
G01 X-78.1167 Y49.0172 
G01 X-78.1935 Y49.1680 
G01 X-78.2458 Y49.3290 
G01 X-78.2723 Y49.4962 
G01 X-78.2723 Y49.6654 
G01 X-78.2458 Y49.8326 
G01 X-78.1935 Y49.9936 
G01 X-78.1167 Y50.1444 
G01 X-78.0172 Y50.2813 
G01 X-77.8975 Y50.4010 
G01 X-77.7606 Y50.5005 
G01 X-77.6097 Y50.5774 
G01 X-77.4488 Y50.6297 
G01 X-77.2816 Y50.6561 
G01 X-75.3216 Y50.6561 
G01 X-75.1544 Y50.6297 
G01 X-74.9935 Y50.5774 
G01 X-74.8426 Y50.5005 
G01 X-74.7057 Y50.4010 
G01 X-74.5860 Y50.2813 
G01 X-74.4865 Y50.1444 
G01 X-74.4097 Y49.9936 
G01 X-74.3574 Y49.8326 
G01 X-74.3309 Y49.6654 
G01 X-74.3309 Y49.4962 
G01 X-74.3574 Y49.3290 
G01 X-74.4097 Y49.1680 
G01 X-74.4865 Y49.0172 
G01 X-74.5860 Y48.8803 
G01 X-74.7057 Y48.7606 
G01 X-74.8426 Y48.6611 
G01 X-74.9935 Y48.5842 
G01 X-75.1544 Y48.5319 
G01 X-75.3216 Y48.5055 
G00 Z3.0000 
G00 X-87.8184 Y48.5055 
G01 Z-0.0700 F80.00 
G01 X-89.7784 Y48.5055 F250.00 
G01 X-89.9456 Y48.5319 
G01 X-90.1065 Y48.5842 
G01 X-90.2574 Y48.6611 
G01 X-90.3943 Y48.7606 
G01 X-90.5140 Y48.8803 
G01 X-90.6135 Y49.0172 
G01 X-90.6903 Y49.1680 
G01 X-90.7426 Y49.3290 
G01 X-90.7691 Y49.4962 
G01 X-90.7691 Y49.6654 
G01 X-90.7426 Y49.8326 
G01 X-90.6903 Y49.9936 
G01 X-90.6135 Y50.1444 
G01 X-90.5140 Y50.2813 
G01 X-90.3943 Y50.4010 
G01 X-90.2574 Y50.5005 
G01 X-90.1065 Y50.5774 
G01 X-89.9456 Y50.6297 
G01 X-89.7784 Y50.6561 
G01 X-87.8184 Y50.6561 
G01 X-87.6512 Y50.6297 
G01 X-87.4903 Y50.5774 
G01 X-87.3394 Y50.5005 
G01 X-87.2025 Y50.4010 
G01 X-87.0828 Y50.2813 
G01 X-86.9833 Y50.1444 
G01 X-86.9065 Y49.9936 
G01 X-86.8542 Y49.8326 
G01 X-86.8277 Y49.6654 
G01 X-86.8277 Y49.4962 
G01 X-86.8542 Y49.3290 
G01 X-86.9065 Y49.1680 
G01 X-86.9833 Y49.0172 
G01 X-87.0828 Y48.8803 
G01 X-87.2025 Y48.7606 
G01 X-87.3394 Y48.6611 
G01 X-87.4903 Y48.5842 
G01 X-87.6512 Y48.5319 
G01 X-87.8184 Y48.5055 
G00 Z3.0000 
G00 X-82.1850 Y26.1916 
G01 Z-0.0700 F80.00 
G01 X-82.1850 Y27.1484 F250.00 
G01 X-81.5084 Y27.8250 
G01 X-80.5516 Y27.8250 
G01 X-79.8750 Y27.1484 
G01 X-79.8750 Y26.1916 
G01 X-80.5516 Y25.5150 
G01 X-81.5084 Y25.5150 
G01 X-82.1850 Y26.1916 
G00 Z3.0000 
G00 X-83.7050 Y16.9316 
G01 Z-0.0700 F80.00 
G01 X-83.7050 Y17.8884 F250.00 
G01 X-83.0284 Y18.5650 
G01 X-82.0716 Y18.5650 
G01 X-81.3950 Y17.8884 
G01 X-81.3950 Y16.9316 
G01 X-82.0716 Y16.2550 
G01 X-83.0284 Y16.2550 
G01 X-83.7050 Y16.9316 
G00 Z3.0000 
G00 X-93.0150 Y26.1916 
G01 Z-0.0700 F80.00 
G01 X-93.0150 Y27.1484 F250.00 
G01 X-92.3384 Y27.8250 
G01 X-91.3816 Y27.8250 
G01 X-90.7050 Y27.1484 
G01 X-90.7050 Y26.1916 
G01 X-91.3816 Y25.5150 
G01 X-92.3384 Y25.5150 
G01 X-93.0150 Y26.1916 
G00 Z3.0000 
G00 X-83.7050 Y35.4516 
G01 Z-0.0700 F80.00 
G01 X-83.7050 Y36.4084 F250.00 
G01 X-83.0284 Y37.0850 
G01 X-82.0716 Y37.0850 
G01 X-81.3950 Y36.4084 
G01 X-81.3950 Y35.4516 
G01 X-82.0716 Y34.7750 
G01 X-83.0284 Y34.7750 
G01 X-83.7050 Y35.4516 
G00 Z3.0000 
G00 X-37.3568 Y6.7796 
G01 Z-0.0700 F80.00 
G01 X-38.8432 Y6.7796 F250.00 
G01 X-39.0055 Y6.8119 
G01 X-39.1585 Y6.8752 
G01 X-39.2961 Y6.9672 
G01 X-39.4132 Y7.0843 
G01 X-39.5052 Y7.2219 
G01 X-39.5685 Y7.3749 
G01 X-39.6008 Y7.5372 
G01 X-39.6008 Y7.7028 
G01 X-39.5685 Y7.8651 
G01 X-39.5052 Y8.0181 
G01 X-39.4132 Y8.1557 
G01 X-39.2961 Y8.2728 
G01 X-39.1585 Y8.3648 
G01 X-39.0055 Y8.4281 
G01 X-38.8432 Y8.4604 
G01 X-37.3568 Y8.4604 
G01 X-37.1945 Y8.4281 
G01 X-37.0415 Y8.3648 
G01 X-36.9039 Y8.2728 
G01 X-36.7868 Y8.1557 
G01 X-36.6948 Y8.0181 
G01 X-36.6315 Y7.8651 
G01 X-36.5992 Y7.7028 
G01 X-36.5992 Y7.5372 
G01 X-36.6315 Y7.3749 
G01 X-36.6948 Y7.2219 
G01 X-36.7868 Y7.0843 
G01 X-36.9039 Y6.9672 
G01 X-37.0415 Y6.8752 
G01 X-37.1945 Y6.8119 
G01 X-37.3568 Y6.7796 
G00 Z3.0000 
G00 X-37.3568 Y9.3196 
G01 Z-0.0700 F80.00 
G01 X-38.8432 Y9.3196 F250.00 
G01 X-39.0055 Y9.3519 
G01 X-39.1585 Y9.4152 
G01 X-39.2961 Y9.5072 
G01 X-39.4132 Y9.6243 
G01 X-39.5052 Y9.7619 
G01 X-39.5685 Y9.9149 
G01 X-39.6008 Y10.0772 
G01 X-39.6008 Y10.2428 
G01 X-39.5685 Y10.4051 
G01 X-39.5052 Y10.5581 
G01 X-39.4132 Y10.6957 
G01 X-39.2961 Y10.8128 
G01 X-39.1585 Y10.9047 
G01 X-39.0055 Y10.9681 
G01 X-38.8432 Y11.0004 
G01 X-37.3568 Y11.0004 
G01 X-37.1945 Y10.9681 
G01 X-37.0415 Y10.9047 
G01 X-36.9039 Y10.8128 
G01 X-36.7868 Y10.6957 
G01 X-36.6948 Y10.5581 
G01 X-36.6315 Y10.4051 
G01 X-36.5992 Y10.2428 
G01 X-36.5992 Y10.0772 
G01 X-36.6315 Y9.9149 
G01 X-36.6948 Y9.7619 
G01 X-36.7868 Y9.6243 
G01 X-36.9039 Y9.5072 
G01 X-37.0415 Y9.4152 
G01 X-37.1945 Y9.3519 
G01 X-37.3568 Y9.3196 
G00 Z3.0000 
G00 X-37.3568 Y11.8596 
G01 Z-0.0700 F80.00 
G01 X-38.8432 Y11.8596 F250.00 
G01 X-39.0055 Y11.8919 
G01 X-39.1585 Y11.9552 
G01 X-39.2961 Y12.0472 
G01 X-39.4132 Y12.1643 
G01 X-39.5052 Y12.3019 
G01 X-39.5685 Y12.4549 
G01 X-39.6008 Y12.6172 
G01 X-39.6008 Y12.7828 
G01 X-39.5685 Y12.9451 
G01 X-39.5052 Y13.0981 
G01 X-39.4132 Y13.2357 
G01 X-39.2961 Y13.3528 
G01 X-39.1585 Y13.4448 
G01 X-39.0055 Y13.5081 
G01 X-38.8432 Y13.5404 
G01 X-37.3568 Y13.5404 
G01 X-37.1945 Y13.5081 
G01 X-37.0415 Y13.4448 
G01 X-36.9039 Y13.3528 
G01 X-36.7868 Y13.2357 
G01 X-36.6948 Y13.0981 
G01 X-36.6315 Y12.9451 
G01 X-36.5992 Y12.7828 
G01 X-36.5992 Y12.6172 
G01 X-36.6315 Y12.4549 
G01 X-36.6948 Y12.3019 
G01 X-36.7868 Y12.1643 
G01 X-36.9039 Y12.0472 
G01 X-37.0415 Y11.9552 
G01 X-37.1945 Y11.8919 
G01 X-37.3568 Y11.8596 
G00 Z3.0000 
G00 X-37.3568 Y14.3996 
G01 Z-0.0700 F80.00 
G01 X-38.8432 Y14.3996 F250.00 
G01 X-39.0055 Y14.4319 
G01 X-39.1585 Y14.4952 
G01 X-39.2961 Y14.5872 
G01 X-39.4132 Y14.7043 
G01 X-39.5052 Y14.8419 
G01 X-39.5685 Y14.9949 
G01 X-39.6008 Y15.1572 
G01 X-39.6008 Y15.3228 
G01 X-39.5685 Y15.4851 
G01 X-39.5052 Y15.6381 
G01 X-39.4132 Y15.7757 
G01 X-39.2961 Y15.8928 
G01 X-39.1585 Y15.9848 
G01 X-39.0055 Y16.0481 
G01 X-38.8432 Y16.0804 
G01 X-37.3568 Y16.0804 
G01 X-37.1945 Y16.0481 
G01 X-37.0415 Y15.9848 
G01 X-36.9039 Y15.8928 
G01 X-36.7868 Y15.7757 
G01 X-36.6948 Y15.6381 
G01 X-36.6315 Y15.4851 
G01 X-36.5992 Y15.3228 
G01 X-36.5992 Y15.1572 
G01 X-36.6315 Y14.9949 
G01 X-36.6948 Y14.8419 
G01 X-36.7868 Y14.7043 
G01 X-36.9039 Y14.5872 
G01 X-37.0415 Y14.4952 
G01 X-37.1945 Y14.4319 
G01 X-37.3568 Y14.3996 
G00 Z3.0000 
G00 X-37.3568 Y16.9396 
G01 Z-0.0700 F80.00 
G01 X-38.8432 Y16.9396 F250.00 
G01 X-39.0055 Y16.9719 
G01 X-39.1585 Y17.0352 
G01 X-39.2961 Y17.1272 
G01 X-39.4132 Y17.2443 
G01 X-39.5052 Y17.3819 
G01 X-39.5685 Y17.5349 
G01 X-39.6008 Y17.6972 
G01 X-39.6008 Y17.8628 
G01 X-39.5685 Y18.0251 
G01 X-39.5052 Y18.1781 
G01 X-39.4132 Y18.3157 
G01 X-39.2961 Y18.4328 
G01 X-39.1585 Y18.5248 
G01 X-39.0055 Y18.5881 
G01 X-38.8432 Y18.6204 
G01 X-37.3568 Y18.6204 
G01 X-37.1945 Y18.5881 
G01 X-37.0415 Y18.5248 
G01 X-36.9039 Y18.4328 
G01 X-36.7868 Y18.3157 
G01 X-36.6948 Y18.1781 
G01 X-36.6315 Y18.0251 
G01 X-36.5992 Y17.8628 
G01 X-36.5992 Y17.6972 
G01 X-36.6315 Y17.5349 
G01 X-36.6948 Y17.3819 
G01 X-36.7868 Y17.2443 
G01 X-36.9039 Y17.1272 
G01 X-37.0415 Y17.0352 
G01 X-37.1945 Y16.9719 
G01 X-37.3568 Y16.9396 
G00 Z3.0000 
G00 X-37.3568 Y19.4796 
G01 Z-0.0700 F80.00 
G01 X-38.8432 Y19.4796 F250.00 
G01 X-39.0055 Y19.5119 
G01 X-39.1585 Y19.5752 
G01 X-39.2961 Y19.6672 
G01 X-39.4132 Y19.7843 
G01 X-39.5052 Y19.9219 
G01 X-39.5685 Y20.0749 
G01 X-39.6008 Y20.2372 
G01 X-39.6008 Y20.4028 
G01 X-39.5685 Y20.5651 
G01 X-39.5052 Y20.7181 
G01 X-39.4132 Y20.8557 
G01 X-39.2961 Y20.9728 
G01 X-39.1585 Y21.0648 
G01 X-39.0055 Y21.1281 
G01 X-38.8432 Y21.1604 
G01 X-37.3568 Y21.1604 
G01 X-37.1945 Y21.1281 
G01 X-37.0415 Y21.0648 
G01 X-36.9039 Y20.9728 
G01 X-36.7868 Y20.8557 
G01 X-36.6948 Y20.7181 
G01 X-36.6315 Y20.5651 
G01 X-36.5992 Y20.4028 
G01 X-36.5992 Y20.2372 
G01 X-36.6315 Y20.0749 
G01 X-36.6948 Y19.9219 
G01 X-36.7868 Y19.7843 
G01 X-36.9039 Y19.6672 
G01 X-37.0415 Y19.5752 
G01 X-37.1945 Y19.5119 
G01 X-37.3568 Y19.4796 
G00 Z3.0000 
G00 X-37.3568 Y22.0196 
G01 Z-0.0700 F80.00 
G01 X-38.8432 Y22.0196 F250.00 
G01 X-39.0055 Y22.0519 
G01 X-39.1585 Y22.1152 
G01 X-39.2961 Y22.2072 
G01 X-39.4132 Y22.3243 
G01 X-39.5052 Y22.4619 
G01 X-39.5685 Y22.6149 
G01 X-39.6008 Y22.7772 
G01 X-39.6008 Y22.9428 
G01 X-39.5685 Y23.1051 
G01 X-39.5052 Y23.2581 
G01 X-39.4132 Y23.3957 
G01 X-39.2961 Y23.5128 
G01 X-39.1585 Y23.6048 
G01 X-39.0055 Y23.6681 
G01 X-38.8432 Y23.7004 
G01 X-37.3568 Y23.7004 
G01 X-37.1945 Y23.6681 
G01 X-37.0415 Y23.6048 
G01 X-36.9039 Y23.5128 
G01 X-36.7868 Y23.3957 
G01 X-36.6948 Y23.2581 
G01 X-36.6315 Y23.1051 
G01 X-36.5992 Y22.9428 
G01 X-36.5992 Y22.7772 
G01 X-36.6315 Y22.6149 
G01 X-36.6948 Y22.4619 
G01 X-36.7868 Y22.3243 
G01 X-36.9039 Y22.2072 
G01 X-37.0415 Y22.1152 
G01 X-37.1945 Y22.0519 
G01 X-37.3568 Y22.0196 
G00 Z3.0000 
G00 X-37.3568 Y24.5596 
G01 Z-0.0700 F80.00 
G01 X-38.8432 Y24.5596 F250.00 
G01 X-39.0055 Y24.5919 
G01 X-39.1585 Y24.6552 
G01 X-39.2961 Y24.7472 
G01 X-39.4132 Y24.8643 
G01 X-39.5052 Y25.0019 
G01 X-39.5685 Y25.1549 
G01 X-39.6008 Y25.3172 
G01 X-39.6008 Y25.4828 
G01 X-39.5685 Y25.6451 
G01 X-39.5052 Y25.7981 
G01 X-39.4132 Y25.9357 
G01 X-39.2961 Y26.0528 
G01 X-39.1585 Y26.1448 
G01 X-39.0055 Y26.2081 
G01 X-38.8432 Y26.2404 
G01 X-37.3568 Y26.2404 
G01 X-37.1945 Y26.2081 
G01 X-37.0415 Y26.1448 
G01 X-36.9039 Y26.0528 
G01 X-36.7868 Y25.9357 
G01 X-36.6948 Y25.7981 
G01 X-36.6315 Y25.6451 
G01 X-36.5992 Y25.4828 
G01 X-36.5992 Y25.3172 
G01 X-36.6315 Y25.1549 
G01 X-36.6948 Y25.0019 
G01 X-36.7868 Y24.8643 
G01 X-36.9039 Y24.7472 
G01 X-37.0415 Y24.6552 
G01 X-37.1945 Y24.5919 
G01 X-37.3568 Y24.5596 
G00 Z3.0000 
G00 X-37.3568 Y27.0996 
G01 Z-0.0700 F80.00 
G01 X-38.8432 Y27.0996 F250.00 
G01 X-39.0055 Y27.1319 
G01 X-39.1585 Y27.1952 
G01 X-39.2961 Y27.2872 
G01 X-39.4132 Y27.4043 
G01 X-39.5052 Y27.5419 
G01 X-39.5685 Y27.6949 
G01 X-39.6008 Y27.8572 
G01 X-39.6008 Y28.0228 
G01 X-39.5685 Y28.1851 
G01 X-39.5052 Y28.3381 
G01 X-39.4132 Y28.4757 
G01 X-39.2961 Y28.5928 
G01 X-39.1585 Y28.6848 
G01 X-39.0055 Y28.7481 
G01 X-38.8432 Y28.7804 
G01 X-37.3568 Y28.7804 
G01 X-37.1945 Y28.7481 
G01 X-37.0415 Y28.6848 
G01 X-36.9039 Y28.5928 
G01 X-36.7868 Y28.4757 
G01 X-36.6948 Y28.3381 
G01 X-36.6315 Y28.1851 
G01 X-36.5992 Y28.0228 
G01 X-36.5992 Y27.8572 
G01 X-36.6315 Y27.6949 
G01 X-36.6948 Y27.5419 
G01 X-36.7868 Y27.4043 
G01 X-36.9039 Y27.2872 
G01 X-37.0415 Y27.1952 
G01 X-37.1945 Y27.1319 
G01 X-37.3568 Y27.0996 
G00 Z3.0000 
G00 X-37.3568 Y34.7196 
G01 Z-0.0700 F80.00 
G01 X-38.8432 Y34.7196 F250.00 
G01 X-39.0055 Y34.7519 
G01 X-39.1585 Y34.8152 
G01 X-39.2961 Y34.9072 
G01 X-39.4132 Y35.0243 
G01 X-39.5052 Y35.1619 
G01 X-39.5685 Y35.3149 
G01 X-39.6008 Y35.4772 
G01 X-39.6008 Y35.6428 
G01 X-39.5685 Y35.8051 
G01 X-39.5052 Y35.9581 
G01 X-39.4132 Y36.0957 
G01 X-39.2961 Y36.2128 
G01 X-39.1585 Y36.3047 
G01 X-39.0055 Y36.3681 
G01 X-38.8432 Y36.4004 
G01 X-37.3568 Y36.4004 
G01 X-37.1945 Y36.3681 
G01 X-37.0415 Y36.3047 
G01 X-36.9039 Y36.2128 
G01 X-36.7868 Y36.0957 
G01 X-36.6948 Y35.9581 
G01 X-36.6887 Y35.9432 
G01 X-30.4295 Y35.9432 
G01 X-30.3321 Y35.9171 
G01 X-30.2447 Y35.8666 
G01 X-30.1734 Y35.7953 
G01 X-30.1229 Y35.7079 
G01 X-30.0968 Y35.6105 
G01 X-30.0968 Y30.4295 
G01 X-30.1095 Y30.3822 
G01 X-30.1095 Y8.8412 
G01 X-30.1348 Y8.7470 
G01 X-30.1835 Y8.6625 
G01 X-30.2525 Y8.5935 
G01 X-30.3370 Y8.5448 
G01 X-30.4312 Y8.5195 
G01 X-53.5040 Y8.5195 
G01 X-53.6785 Y8.3450 
G01 X-53.7475 Y8.2760 
G01 X-53.8320 Y8.2272 
G01 X-53.9262 Y8.2020 
G01 X-55.6113 Y8.2020 
G01 X-55.7055 Y8.2272 
G01 X-55.7900 Y8.2760 
G01 X-56.6457 Y9.1317 
G01 X-56.7104 Y9.0987 
G01 X-56.8818 Y9.0430 
G01 X-57.0599 Y9.0148 
G01 X-57.2401 Y9.0148 
G01 X-57.4182 Y9.0430 
G01 X-57.5896 Y9.0987 
G01 X-57.7502 Y9.1805 
G01 X-57.8960 Y9.2865 
G01 X-58.0235 Y9.4139 
G01 X-58.1295 Y9.5598 
G01 X-58.2113 Y9.7204 
G01 X-58.2670 Y9.8918 
G01 X-58.2952 Y10.0699 
G01 X-58.2952 Y10.2501 
G01 X-58.2670 Y10.4282 
G01 X-58.2113 Y10.5996 
G01 X-58.1295 Y10.7602 
G01 X-58.0235 Y10.9060 
G01 X-57.8960 Y11.0335 
G01 X-57.7502 Y11.1395 
G01 X-57.5896 Y11.2213 
G01 X-57.4182 Y11.2770 
G01 X-57.2401 Y11.3052 
G01 X-57.0599 Y11.3052 
G01 X-56.8818 Y11.2770 
G01 X-56.7104 Y11.2213 
G01 X-56.5498 Y11.1395 
G01 X-56.4040 Y11.0335 
G01 X-56.2765 Y10.9060 
G01 X-56.1705 Y10.7602 
G01 X-56.0887 Y10.5996 
G01 X-56.0330 Y10.4282 
G01 X-56.0048 Y10.2501 
G01 X-56.0048 Y10.0699 
G01 X-56.0330 Y9.8918 
G01 X-56.0887 Y9.7204 
G01 X-56.1217 Y9.6557 
G01 X-55.4090 Y8.9430 
G01 X-54.1285 Y8.9430 
G01 X-53.8850 Y9.1865 
G01 X-53.8005 Y9.2352 
G01 X-53.7063 Y9.2605 
G01 X-30.8505 Y9.2605 
G01 X-30.8505 Y30.3822 
G01 X-30.8632 Y30.4295 
G01 X-30.8632 Y35.1768 
G01 X-36.6887 Y35.1768 
G01 X-36.6948 Y35.1619 
G01 X-36.7868 Y35.0243 
G01 X-36.9039 Y34.9072 
G01 X-37.0415 Y34.8152 
G01 X-37.1945 Y34.7519 
G01 X-37.3568 Y34.7196 
G00 Z3.0000 
G00 X-44.9768 Y37.2596 
G01 Z-0.0700 F80.00 
G01 X-46.4632 Y37.2596 F250.00 
G01 X-46.6255 Y37.2919 
G01 X-46.7785 Y37.3552 
G01 X-46.9161 Y37.4472 
G01 X-47.0332 Y37.5643 
G01 X-47.1252 Y37.7019 
G01 X-47.1313 Y37.7168 
G01 X-73.7105 Y37.7168 
G01 X-73.8079 Y37.7429 
G01 X-73.8953 Y37.7934 
G01 X-73.9666 Y37.8647 
G01 X-79.8634 Y43.7615 
G01 X-79.9899 Y43.6350 
G01 X-80.6651 Y43.6350 
G01 X-81.1425 Y44.1124 
G01 X-81.1425 Y44.7876 
G01 X-80.6651 Y45.2650 
G01 X-79.9899 Y45.2650 
G01 X-79.5125 Y44.7876 
G01 X-79.5125 Y44.4944 
G01 X-73.5013 Y38.4832 
G01 X-47.1313 Y38.4832 
G01 X-47.1252 Y38.4981 
G01 X-47.0332 Y38.6357 
G01 X-46.9161 Y38.7528 
G01 X-46.7785 Y38.8448 
G01 X-46.6255 Y38.9081 
G01 X-46.4632 Y38.9404 
G01 X-44.9768 Y38.9404 
G01 X-44.8145 Y38.9081 
G01 X-44.6615 Y38.8448 
G01 X-44.5239 Y38.7528 
G01 X-44.4068 Y38.6357 
G01 X-44.3148 Y38.4981 
G01 X-44.2515 Y38.3451 
G01 X-44.2192 Y38.1828 
G01 X-44.2192 Y38.0172 
G01 X-44.2515 Y37.8549 
G01 X-44.3148 Y37.7019 
G01 X-44.4068 Y37.5643 
G01 X-44.5239 Y37.4472 
G01 X-44.6615 Y37.3552 
G01 X-44.8145 Y37.2919 
G01 X-44.9768 Y37.2596 
G00 Z3.0000 
G00 X-44.9768 Y32.1796 
G01 Z-0.0700 F80.00 
G01 X-46.4632 Y32.1796 F250.00 
G01 X-46.6255 Y32.2119 
G01 X-46.7785 Y32.2752 
G01 X-46.9161 Y32.3672 
G01 X-47.0332 Y32.4843 
G01 X-47.1252 Y32.6219 
G01 X-47.1885 Y32.7749 
G01 X-47.2208 Y32.9372 
G01 X-47.2208 Y33.1028 
G01 X-47.1885 Y33.2651 
G01 X-47.1252 Y33.4181 
G01 X-47.0332 Y33.5557 
G01 X-46.9161 Y33.6728 
G01 X-46.7785 Y33.7647 
G01 X-46.6255 Y33.8281 
G01 X-46.4632 Y33.8604 
G01 X-45.4036 Y33.8604 
G01 X-44.1855 Y35.0785 
G01 X-44.1855 Y36.4595 
G01 X-70.9729 Y36.4595 
G01 X-71.4174 Y36.0150 
G01 X-72.0926 Y36.0150 
G01 X-72.5700 Y36.4924 
G01 X-72.5700 Y37.1676 
G01 X-72.0926 Y37.6450 
G01 X-71.4174 Y37.6450 
G01 X-70.9729 Y37.2005 
G01 X-43.7662 Y37.2005 
G01 X-43.6720 Y37.1752 
G01 X-43.5875 Y37.1265 
G01 X-43.5185 Y37.0575 
G01 X-43.4698 Y36.9730 
G01 X-43.4445 Y36.8788 
G01 X-43.4445 Y34.8762 
G01 X-43.4698 Y34.7820 
G01 X-43.5185 Y34.6975 
G01 X-43.5875 Y34.6285 
G01 X-44.5355 Y33.6805 
G01 X-44.5239 Y33.6728 
G01 X-44.4068 Y33.5557 
G01 X-44.3148 Y33.4181 
G01 X-44.2515 Y33.2651 
G01 X-44.2192 Y33.1028 
G01 X-44.2192 Y32.9372 
G01 X-44.2515 Y32.7749 
G01 X-44.3148 Y32.6219 
G01 X-44.4068 Y32.4843 
G01 X-44.5239 Y32.3672 
G01 X-44.6615 Y32.2752 
G01 X-44.8145 Y32.2119 
G01 X-44.9768 Y32.1796 
G00 Z3.0000 
G00 X-44.9768 Y29.6396 
G01 Z-0.0700 F80.00 
G01 X-46.4632 Y29.6396 F250.00 
G01 X-46.6255 Y29.6719 
G01 X-46.7785 Y29.7352 
G01 X-46.9161 Y29.8272 
G01 X-47.0332 Y29.9443 
G01 X-47.1252 Y30.0819 
G01 X-47.1885 Y30.2349 
G01 X-47.2208 Y30.3972 
G01 X-47.2208 Y30.5628 
G01 X-47.1885 Y30.7251 
G01 X-47.1252 Y30.8781 
G01 X-47.0332 Y31.0157 
G01 X-46.9161 Y31.1328 
G01 X-46.9045 Y31.1405 
G01 X-49.6835 Y33.9195 
G01 X-52.8754 Y33.9195 
G01 X-53.3199 Y33.4750 
G01 X-53.9951 Y33.4750 
G01 X-54.4725 Y33.9524 
G01 X-54.4725 Y34.6276 
G01 X-53.9951 Y35.1050 
G01 X-53.3199 Y35.1050 
G01 X-52.8754 Y34.6605 
G01 X-49.4812 Y34.6605 
G01 X-49.3870 Y34.6352 
G01 X-49.3025 Y34.5865 
G01 X-49.2335 Y34.5175 
G01 X-46.0364 Y31.3204 
G01 X-44.9768 Y31.3204 
G01 X-44.8145 Y31.2881 
G01 X-44.6615 Y31.2248 
G01 X-44.5239 Y31.1328 
G01 X-44.4068 Y31.0157 
G01 X-44.3148 Y30.8781 
G01 X-44.2515 Y30.7251 
G01 X-44.2192 Y30.5628 
G01 X-44.2192 Y30.3972 
G01 X-44.2515 Y30.2349 
G01 X-44.3148 Y30.0819 
G01 X-44.4068 Y29.9443 
G01 X-44.5239 Y29.8272 
G01 X-44.6615 Y29.7352 
G01 X-44.8145 Y29.6719 
G01 X-44.9768 Y29.6396 
G00 Z3.0000 
G00 X-44.9768 Y27.0996 
G01 Z-0.0700 F80.00 
G01 X-46.4632 Y27.0996 F250.00 
G01 X-46.6255 Y27.1319 
G01 X-46.7785 Y27.1952 
G01 X-46.9161 Y27.2872 
G01 X-47.0332 Y27.4043 
G01 X-47.1252 Y27.5419 
G01 X-47.1885 Y27.6949 
G01 X-47.2208 Y27.8572 
G01 X-47.2208 Y28.0228 
G01 X-47.1885 Y28.1851 
G01 X-47.1252 Y28.3381 
G01 X-47.0332 Y28.4757 
G01 X-46.9161 Y28.5928 
G01 X-46.9045 Y28.6005 
G01 X-47.1901 Y28.8862 
G01 X-47.3710 Y28.9465 
G01 X-47.6049 Y28.7125 
G01 X-48.2801 Y28.7125 
G01 X-48.7575 Y29.1899 
G01 X-48.7575 Y29.8651 
G01 X-48.2801 Y30.3425 
G01 X-47.6049 Y30.3425 
G01 X-47.1275 Y29.8651 
G01 X-47.1275 Y29.6464 
G01 X-46.9299 Y29.5805 
G01 X-43.2330 Y29.5805 
G01 X-43.2330 Y37.6290 
G01 X-44.6035 Y38.9995 
G01 X-59.7388 Y38.9995 
G01 X-59.8330 Y39.0248 
G01 X-59.9175 Y39.0735 
G01 X-59.9865 Y39.1425 
G01 X-60.1533 Y39.3093 
G01 X-60.2422 Y39.2916 
G01 X-60.4078 Y39.2916 
G01 X-60.5701 Y39.3239 
G01 X-60.7231 Y39.3872 
G01 X-60.8607 Y39.4792 
G01 X-60.9778 Y39.5963 
G01 X-61.0698 Y39.7339 
G01 X-61.1331 Y39.8869 
G01 X-61.1654 Y40.0492 
G01 X-61.1654 Y40.2148 
G01 X-61.1331 Y40.3771 
G01 X-61.0698 Y40.5301 
G01 X-60.9778 Y40.6677 
G01 X-60.8607 Y40.7848 
G01 X-60.7231 Y40.8768 
G01 X-60.5701 Y40.9401 
G01 X-60.4078 Y40.9724 
G01 X-60.2422 Y40.9724 
G01 X-60.0799 Y40.9401 
G01 X-59.9269 Y40.8768 
G01 X-59.7893 Y40.7848 
G01 X-59.6722 Y40.6677 
G01 X-59.5802 Y40.5301 
G01 X-59.5169 Y40.3771 
G01 X-59.4846 Y40.2148 
G01 X-59.4846 Y40.0492 
G01 X-59.5169 Y39.8869 
G01 X-59.5655 Y39.7695 
G01 X-59.5365 Y39.7405 
G01 X-44.4012 Y39.7405 
G01 X-44.3070 Y39.7152 
G01 X-44.2225 Y39.6665 
G01 X-42.6350 Y38.0790 
G01 X-42.5660 Y38.0100 
G01 X-42.5173 Y37.9255 
G01 X-42.4920 Y37.8313 
G01 X-42.4920 Y29.1612 
G01 X-42.5173 Y29.0670 
G01 X-42.5660 Y28.9825 
G01 X-42.6350 Y28.9135 
G01 X-42.7195 Y28.8648 
G01 X-42.8137 Y28.8395 
G01 X-46.0955 Y28.8395 
G01 X-46.0364 Y28.7804 
G01 X-44.9768 Y28.7804 
G01 X-44.8145 Y28.7481 
G01 X-44.6615 Y28.6848 
G01 X-44.5239 Y28.5928 
G01 X-44.4068 Y28.4757 
G01 X-44.3148 Y28.3381 
G01 X-44.2515 Y28.1851 
G01 X-44.2192 Y28.0228 
G01 X-44.2192 Y27.8572 
G01 X-44.2515 Y27.6949 
G01 X-44.3148 Y27.5419 
G01 X-44.4068 Y27.4043 
G01 X-44.5239 Y27.2872 
G01 X-44.6615 Y27.1952 
G01 X-44.8145 Y27.1319 
G01 X-44.9768 Y27.0996 
G00 Z3.0000 
G00 X-44.9768 Y22.0196 
G01 Z-0.0700 F80.00 
G01 X-46.4632 Y22.0196 F250.00 
G01 X-46.6255 Y22.0519 
G01 X-46.7785 Y22.1152 
G01 X-46.9161 Y22.2072 
G01 X-47.0332 Y22.3243 
G01 X-47.1252 Y22.4619 
G01 X-47.1885 Y22.6149 
G01 X-47.2208 Y22.7772 
G01 X-47.2208 Y22.9428 
G01 X-47.1885 Y23.1051 
G01 X-47.1252 Y23.2581 
G01 X-47.0332 Y23.3957 
G01 X-46.9161 Y23.5128 
G01 X-46.7785 Y23.6048 
G01 X-46.6255 Y23.6681 
G01 X-46.4632 Y23.7004 
G01 X-44.9768 Y23.7004 
G01 X-44.8145 Y23.6681 
G01 X-44.6615 Y23.6048 
G01 X-44.5766 Y23.5480 
G01 X-43.0160 Y23.5480 
G01 X-39.6665 Y26.8975 
G01 X-39.5975 Y26.9665 
G01 X-39.5130 Y27.0152 
G01 X-39.4188 Y27.0405 
G01 X-36.0246 Y27.0405 
G01 X-35.5801 Y27.4850 
G01 X-34.9049 Y27.4850 
G01 X-34.4275 Y27.0076 
G01 X-34.4275 Y26.3324 
G01 X-34.9049 Y25.8550 
G01 X-35.5801 Y25.8550 
G01 X-36.0246 Y26.2995 
G01 X-39.2165 Y26.2995 
G01 X-42.6350 Y22.8810 
G01 X-42.7195 Y22.8323 
G01 X-42.8137 Y22.8070 
G01 X-44.2192 Y22.8070 
G01 X-44.2192 Y22.7772 
G01 X-44.2515 Y22.6149 
G01 X-44.3148 Y22.4619 
G01 X-44.4068 Y22.3243 
G01 X-44.5239 Y22.2072 
G01 X-44.6615 Y22.1152 
G01 X-44.8145 Y22.0519 
G01 X-44.9768 Y22.0196 
G00 Z3.0000 
G00 X-44.9768 Y19.4796 
G01 Z-0.0700 F80.00 
G01 X-46.4632 Y19.4796 F250.00 
G01 X-46.6255 Y19.5119 
G01 X-46.7785 Y19.5752 
G01 X-46.9161 Y19.6672 
G01 X-47.0332 Y19.7843 
G01 X-47.1252 Y19.9219 
G01 X-47.1885 Y20.0749 
G01 X-47.2208 Y20.2372 
G01 X-47.2208 Y20.4028 
G01 X-47.1885 Y20.5651 
G01 X-47.1252 Y20.7181 
G01 X-47.0332 Y20.8557 
G01 X-46.9161 Y20.9728 
G01 X-46.7785 Y21.0648 
G01 X-46.6255 Y21.1281 
G01 X-46.4632 Y21.1604 
G01 X-45.4036 Y21.1604 
G01 X-44.7465 Y21.8175 
G01 X-44.6775 Y21.8865 
G01 X-44.5930 Y21.9352 
G01 X-44.4988 Y21.9605 
G01 X-36.0246 Y21.9605 
G01 X-35.5801 Y22.4050 
G01 X-34.9049 Y22.4050 
G01 X-34.4275 Y21.9276 
G01 X-34.4275 Y21.2524 
G01 X-34.9049 Y20.7750 
G01 X-35.5801 Y20.7750 
G01 X-36.0246 Y21.2195 
G01 X-44.2965 Y21.2195 
G01 X-44.5355 Y20.9805 
G01 X-44.5239 Y20.9728 
G01 X-44.4068 Y20.8557 
G01 X-44.3148 Y20.7181 
G01 X-44.2515 Y20.5651 
G01 X-44.2192 Y20.4028 
G01 X-44.2192 Y20.2372 
G01 X-44.2515 Y20.0749 
G01 X-44.3148 Y19.9219 
G01 X-44.4068 Y19.7843 
G01 X-44.5239 Y19.6672 
G01 X-44.6615 Y19.5752 
G01 X-44.8145 Y19.5119 
G01 X-44.9768 Y19.4796 
G00 Z3.0000 
G00 X-44.9768 Y14.3996 
G01 Z-0.0700 F80.00 
G01 X-46.0364 Y14.3996 F250.00 
G01 X-46.3760 Y14.0600 
G01 X-46.4450 Y13.9910 
G01 X-46.5295 Y13.9423 
G01 X-46.6237 Y13.9170 
G01 X-47.0225 Y13.9170 
G01 X-47.3400 Y13.5995 
G01 X-47.9100 Y13.5995 
G01 X-48.3130 Y14.0025 
G01 X-48.3130 Y14.5725 
G01 X-47.9100 Y14.9755 
G01 X-47.3400 Y14.9755 
G01 X-47.0225 Y14.6580 
G01 X-46.9869 Y14.6580 
G01 X-47.0332 Y14.7043 
G01 X-47.1252 Y14.8419 
G01 X-47.1885 Y14.9949 
G01 X-47.2208 Y15.1572 
G01 X-47.2208 Y15.3228 
G01 X-47.1885 Y15.4851 
G01 X-47.1252 Y15.6381 
G01 X-47.0332 Y15.7757 
G01 X-46.9161 Y15.8928 
G01 X-46.7785 Y15.9848 
G01 X-46.6255 Y16.0481 
G01 X-46.4632 Y16.0804 
G01 X-44.9768 Y16.0804 
G01 X-44.8145 Y16.0481 
G01 X-44.6615 Y15.9848 
G01 X-44.5239 Y15.8928 
G01 X-44.4068 Y15.7757 
G01 X-44.3148 Y15.6381 
G01 X-44.2515 Y15.4851 
G01 X-44.2192 Y15.3228 
G01 X-44.2192 Y15.1572 
G01 X-44.2515 Y14.9949 
G01 X-44.3148 Y14.8419 
G01 X-44.4068 Y14.7043 
G01 X-44.5239 Y14.5872 
G01 X-44.6615 Y14.4952 
G01 X-44.8145 Y14.4319 
G01 X-44.9768 Y14.3996 
G00 Z3.0000 
G00 X-44.9768 Y11.8596 
G01 Z-0.0700 F80.00 
G01 X-46.4632 Y11.8596 F250.00 
G01 X-46.6255 Y11.8919 
G01 X-46.7785 Y11.9552 
G01 X-46.9161 Y12.0472 
G01 X-47.0332 Y12.1643 
G01 X-47.1252 Y12.3019 
G01 X-47.1885 Y12.4549 
G01 X-47.2208 Y12.6172 
G01 X-47.2208 Y12.7828 
G01 X-47.1885 Y12.9451 
G01 X-47.1252 Y13.0981 
G01 X-47.0332 Y13.2357 
G01 X-46.9161 Y13.3528 
G01 X-46.7785 Y13.4448 
G01 X-46.6255 Y13.5081 
G01 X-46.4632 Y13.5404 
G01 X-45.4036 Y13.5404 
G01 X-42.2065 Y16.7375 
G01 X-42.1375 Y16.8065 
G01 X-42.0530 Y16.8552 
G01 X-41.9588 Y16.8805 
G01 X-33.1671 Y16.8805 
G01 X-32.7226 Y17.3250 
G01 X-32.0474 Y17.3250 
G01 X-31.5700 Y16.8476 
G01 X-31.5700 Y16.1724 
G01 X-32.0474 Y15.6950 
G01 X-32.7226 Y15.6950 
G01 X-33.1671 Y16.1395 
G01 X-41.7565 Y16.1395 
G01 X-44.5355 Y13.3605 
G01 X-44.5239 Y13.3528 
G01 X-44.4068 Y13.2357 
G01 X-44.3148 Y13.0981 
G01 X-44.2515 Y12.9451 
G01 X-44.2192 Y12.7828 
G01 X-44.2192 Y12.6172 
G01 X-44.2515 Y12.4549 
G01 X-44.3148 Y12.3019 
G01 X-44.4068 Y12.1643 
G01 X-44.5239 Y12.0472 
G01 X-44.6615 Y11.9552 
G01 X-44.8145 Y11.8919 
G01 X-44.9768 Y11.8596 
G00 Z3.0000 
G00 X-44.9768 Y9.3196 
G01 Z-0.0700 F80.00 
G01 X-46.4632 Y9.3196 F250.00 
G01 X-46.6255 Y9.3519 
G01 X-46.7785 Y9.4152 
G01 X-46.9161 Y9.5072 
G01 X-47.0332 Y9.6243 
G01 X-47.1252 Y9.7619 
G01 X-47.1885 Y9.9149 
G01 X-47.2208 Y10.0772 
G01 X-47.2208 Y10.2428 
G01 X-47.1885 Y10.4051 
G01 X-47.1252 Y10.5581 
G01 X-47.0332 Y10.6957 
G01 X-46.9161 Y10.8128 
G01 X-46.7785 Y10.9047 
G01 X-46.6255 Y10.9681 
G01 X-46.4632 Y11.0004 
G01 X-45.4036 Y11.0004 
G01 X-42.2065 Y14.1975 
G01 X-42.1375 Y14.2665 
G01 X-42.0530 Y14.3152 
G01 X-41.9588 Y14.3405 
G01 X-35.3896 Y14.3405 
G01 X-34.9451 Y14.7850 
G01 X-34.2699 Y14.7850 
G01 X-33.7925 Y14.3076 
G01 X-33.7925 Y13.6324 
G01 X-34.2699 Y13.1550 
G01 X-34.9451 Y13.1550 
G01 X-35.3896 Y13.5995 
G01 X-41.7565 Y13.5995 
G01 X-44.5355 Y10.8205 
G01 X-44.5239 Y10.8128 
G01 X-44.4068 Y10.6957 
G01 X-44.3148 Y10.5581 
G01 X-44.2515 Y10.4051 
G01 X-44.2192 Y10.2428 
G01 X-44.2192 Y10.0772 
G01 X-44.2515 Y9.9149 
G01 X-44.3148 Y9.7619 
G01 X-44.4068 Y9.6243 
G01 X-44.5239 Y9.5072 
G01 X-44.6615 Y9.4152 
G01 X-44.8145 Y9.3519 
G01 X-44.9768 Y9.3196 
G00 Z3.0000 
G00 X-44.9768 Y6.7796 
G01 Z-0.0700 F80.00 
G01 X-46.4632 Y6.7796 F250.00 
G01 X-46.6255 Y6.8119 
G01 X-46.7785 Y6.8752 
G01 X-46.9161 Y6.9672 
G01 X-47.0332 Y7.0843 
G01 X-47.1252 Y7.2219 
G01 X-47.1366 Y7.2495 
G01 X-56.8813 Y7.2495 
G01 X-56.9755 Y7.2748 
G01 X-57.0600 Y7.3235 
G01 X-58.9650 Y9.2285 
G01 X-59.0340 Y9.2975 
G01 X-59.0827 Y9.3820 
G01 X-59.1080 Y9.4762 
G01 X-59.1080 Y15.0865 
G01 X-60.5525 Y16.5310 
G01 X-60.6215 Y16.6000 
G01 X-60.6702 Y16.6845 
G01 X-60.6955 Y16.7787 
G01 X-60.6955 Y29.5763 
G01 X-60.6702 Y29.6705 
G01 X-60.6215 Y29.7550 
G01 X-60.5525 Y29.8240 
G01 X-60.4680 Y29.8727 
G01 X-60.3738 Y29.8980 
G01 X-60.1610 Y29.8980 
G01 X-58.9440 Y31.1150 
G01 X-59.0815 Y31.2525 
G01 X-59.7101 Y31.2525 
G01 X-60.1875 Y31.7299 
G01 X-60.1875 Y32.4051 
G01 X-59.7101 Y32.8825 
G01 X-59.0349 Y32.8825 
G01 X-58.5575 Y32.4051 
G01 X-58.5575 Y31.7765 
G01 X-58.1925 Y31.4115 
G01 X-58.1235 Y31.3425 
G01 X-58.0412 Y31.2602 
G01 X-58.0412 Y31.2790 
G01 X-58.0070 Y31.4512 
G01 X-57.9398 Y31.6133 
G01 X-57.8422 Y31.7593 
G01 X-57.7181 Y31.8834 
G01 X-57.5721 Y31.9810 
G01 X-57.4100 Y32.0481 
G01 X-57.2378 Y32.0824 
G01 X-57.0622 Y32.0824 
G01 X-56.8900 Y32.0481 
G01 X-56.7279 Y31.9810 
G01 X-56.5819 Y31.8834 
G01 X-56.4578 Y31.7593 
G01 X-56.3602 Y31.6133 
G01 X-56.2930 Y31.4512 
G01 X-56.2588 Y31.2790 
G01 X-56.2588 Y29.6810 
G01 X-56.2930 Y29.5088 
G01 X-56.3602 Y29.3467 
G01 X-56.4578 Y29.2007 
G01 X-56.5819 Y29.0766 
G01 X-56.7279 Y28.9790 
G01 X-56.8900 Y28.9118 
G01 X-57.0622 Y28.8776 
G01 X-57.2378 Y28.8776 
G01 X-57.4100 Y28.9118 
G01 X-57.5721 Y28.9790 
G01 X-57.7181 Y29.0766 
G01 X-57.8422 Y29.2007 
G01 X-57.9398 Y29.3467 
G01 X-58.0070 Y29.5088 
G01 X-58.0412 Y29.6810 
G01 X-58.0412 Y30.2122 
G01 X-58.0815 Y30.2525 
G01 X-58.4200 Y30.5910 
G01 X-59.7800 Y29.2310 
G01 X-59.8645 Y29.1822 
G01 X-59.9545 Y29.1581 
G01 X-59.9545 Y16.9810 
G01 X-58.5840 Y15.6105 
G01 X-58.2337 Y15.6105 
G01 X-58.2113 Y15.6796 
G01 X-58.1295 Y15.8402 
G01 X-58.0235 Y15.9860 
G01 X-57.8960 Y16.1135 
G01 X-57.7502 Y16.2195 
G01 X-57.5896 Y16.3013 
G01 X-57.4182 Y16.3570 
G01 X-57.2401 Y16.3852 
G01 X-57.0599 Y16.3852 
G01 X-56.8818 Y16.3570 
G01 X-56.7104 Y16.3013 
G01 X-56.5498 Y16.2195 
G01 X-56.4040 Y16.1135 
G01 X-56.2765 Y15.9860 
G01 X-56.1705 Y15.8402 
G01 X-56.0887 Y15.6796 
G01 X-56.0330 Y15.5082 
G01 X-56.0048 Y15.3301 
G01 X-56.0048 Y15.1499 
G01 X-56.0330 Y14.9718 
G01 X-56.0887 Y14.8004 
G01 X-56.1705 Y14.6398 
G01 X-56.2765 Y14.4939 
G01 X-56.4040 Y14.3665 
G01 X-56.5498 Y14.2605 
G01 X-56.7104 Y14.1787 
G01 X-56.8818 Y14.1230 
G01 X-57.0599 Y14.0948 
G01 X-57.2401 Y14.0948 
G01 X-57.4182 Y14.1230 
G01 X-57.5896 Y14.1787 
G01 X-57.7502 Y14.2605 
G01 X-57.8960 Y14.3665 
G01 X-58.0235 Y14.4939 
G01 X-58.1295 Y14.6398 
G01 X-58.2113 Y14.8004 
G01 X-58.2337 Y14.8695 
G01 X-58.3670 Y14.8695 
G01 X-58.3670 Y9.6785 
G01 X-56.6790 Y7.9905 
G01 X-47.1366 Y7.9905 
G01 X-47.1252 Y8.0181 
G01 X-47.0332 Y8.1557 
G01 X-46.9161 Y8.2728 
G01 X-46.7785 Y8.3648 
G01 X-46.6255 Y8.4281 
G01 X-46.4632 Y8.4604 
G01 X-44.9768 Y8.4604 
G01 X-44.8145 Y8.4281 
G01 X-44.6615 Y8.3648 
G01 X-44.5239 Y8.2728 
G01 X-44.4068 Y8.1557 
G01 X-44.3148 Y8.0181 
G01 X-44.2515 Y7.8651 
G01 X-44.2192 Y7.7028 
G01 X-44.2192 Y7.5372 
G01 X-44.2515 Y7.3749 
G01 X-44.3148 Y7.2219 
G01 X-44.4068 Y7.0843 
G01 X-44.5239 Y6.9672 
G01 X-44.6615 Y6.8752 
G01 X-44.8145 Y6.8119 
G01 X-44.9768 Y6.7796 
G00 Z3.0000 
G00 X-56.6950 Y44.1124 
G01 Z-0.0700 F80.00 
G01 X-56.6950 Y44.5875 F250.00 
G01 X-59.5688 Y44.5875 
G01 X-59.5802 Y44.5599 
G01 X-59.6722 Y44.4223 
G01 X-59.7893 Y44.3052 
G01 X-59.9269 Y44.2132 
G01 X-60.0799 Y44.1499 
G01 X-60.2422 Y44.1176 
G01 X-60.4078 Y44.1176 
G01 X-60.5701 Y44.1499 
G01 X-60.7231 Y44.2132 
G01 X-60.8607 Y44.3052 
G01 X-60.9778 Y44.4223 
G01 X-61.0698 Y44.5599 
G01 X-61.1331 Y44.7129 
G01 X-61.1654 Y44.8752 
G01 X-61.1654 Y45.0408 
G01 X-61.1331 Y45.2031 
G01 X-61.0698 Y45.3561 
G01 X-60.9778 Y45.4937 
G01 X-60.8607 Y45.6108 
G01 X-60.7231 Y45.7028 
G01 X-60.5701 Y45.7661 
G01 X-60.4078 Y45.7984 
G01 X-60.2422 Y45.7984 
G01 X-60.0799 Y45.7661 
G01 X-59.9269 Y45.7028 
G01 X-59.7893 Y45.6108 
G01 X-59.6722 Y45.4937 
G01 X-59.5802 Y45.3561 
G01 X-59.5688 Y45.3285 
G01 X-55.8312 Y45.3285 
G01 X-55.7370 Y45.3032 
G01 X-55.6707 Y45.2650 
G01 X-55.5424 Y45.2650 
G01 X-55.0650 Y44.7876 
G01 X-55.0650 Y44.1124 
G01 X-55.5424 Y43.6350 
G01 X-56.2176 Y43.6350 
G01 X-56.6950 Y44.1124 
G00 Z3.0000 
G00 X-22.3721 Y45.1380 
G01 Z-0.0700 F80.00 
G01 X-21.9276 Y45.5825 F250.00 
G01 X-21.2524 Y45.5825 
G01 X-20.7750 Y45.1051 
G01 X-20.7750 Y44.4299 
G01 X-21.2524 Y43.9525 
G01 X-21.9276 Y43.9525 
G01 X-22.3721 Y44.3970 
G01 X-33.8747 Y44.3970 
G01 X-33.9220 Y44.3843 
G01 X-37.7168 Y44.3843 
G01 X-37.7168 Y41.4804 
G01 X-37.3568 Y41.4804 
G01 X-37.1945 Y41.4481 
G01 X-37.0415 Y41.3848 
G01 X-36.9039 Y41.2928 
G01 X-36.7868 Y41.1757 
G01 X-36.6948 Y41.0381 
G01 X-36.6315 Y40.8851 
G01 X-36.5992 Y40.7228 
G01 X-36.5992 Y40.5572 
G01 X-36.6315 Y40.3949 
G01 X-36.6948 Y40.2419 
G01 X-36.7868 Y40.1043 
G01 X-36.9039 Y39.9872 
G01 X-37.0415 Y39.8952 
G01 X-37.1945 Y39.8319 
G01 X-37.3568 Y39.7996 
G01 X-38.8432 Y39.7996 
G01 X-39.0055 Y39.8319 
G01 X-39.1585 Y39.8952 
G01 X-39.2961 Y39.9872 
G01 X-39.4132 Y40.1043 
G01 X-39.5052 Y40.2419 
G01 X-39.5685 Y40.3949 
G01 X-39.6008 Y40.5572 
G01 X-39.6008 Y40.7228 
G01 X-39.5685 Y40.8851 
G01 X-39.5052 Y41.0381 
G01 X-39.4132 Y41.1757 
G01 X-39.2961 Y41.2928 
G01 X-39.1585 Y41.3848 
G01 X-39.0055 Y41.4481 
G01 X-38.8432 Y41.4804 
G01 X-38.4832 Y41.4804 
G01 X-38.4832 Y44.8180 
G01 X-38.4571 Y44.9154 
G01 X-38.4066 Y45.0028 
G01 X-38.3353 Y45.0741 
G01 X-38.2479 Y45.1246 
G01 X-38.1504 Y45.1507 
G01 X-33.9220 Y45.1507 
G01 X-33.8747 Y45.1380 
G01 X-22.3721 Y45.1380 
G00 Z3.0000 
G00 X-24.9121 Y43.8680 
G01 Z-0.0700 F80.00 
G01 X-24.4676 Y44.3125 F250.00 
G01 X-23.7924 Y44.3125 
G01 X-23.3150 Y43.8351 
G01 X-23.3150 Y43.1599 
G01 X-23.7924 Y42.6825 
G01 X-24.4676 Y42.6825 
G01 X-24.9121 Y43.1270 
G01 X-32.3193 Y43.1270 
G01 X-32.3193 Y38.0495 
G01 X-32.3454 Y37.9521 
G01 X-32.3959 Y37.8647 
G01 X-32.4672 Y37.7934 
G01 X-32.5546 Y37.7429 
G01 X-32.6520 Y37.7168 
G01 X-36.6887 Y37.7168 
G01 X-36.6948 Y37.7019 
G01 X-36.7868 Y37.5643 
G01 X-36.9039 Y37.4472 
G01 X-37.0415 Y37.3552 
G01 X-37.1945 Y37.2919 
G01 X-37.3568 Y37.2596 
G01 X-38.8432 Y37.2596 
G01 X-39.0055 Y37.2919 
G01 X-39.1585 Y37.3552 
G01 X-39.2961 Y37.4472 
G01 X-39.4132 Y37.5643 
G01 X-39.5052 Y37.7019 
G01 X-39.5685 Y37.8549 
G01 X-39.6008 Y38.0172 
G01 X-39.6008 Y38.1828 
G01 X-39.5685 Y38.3451 
G01 X-39.5052 Y38.4981 
G01 X-39.4132 Y38.6357 
G01 X-39.2961 Y38.7528 
G01 X-39.1585 Y38.8448 
G01 X-39.0055 Y38.9081 
G01 X-38.8432 Y38.9404 
G01 X-37.3568 Y38.9404 
G01 X-37.1945 Y38.9081 
G01 X-37.0415 Y38.8448 
G01 X-36.9039 Y38.7528 
G01 X-36.7868 Y38.6357 
G01 X-36.6948 Y38.4981 
G01 X-36.6887 Y38.4832 
G01 X-33.0857 Y38.4832 
G01 X-33.0857 Y43.5480 
G01 X-33.0596 Y43.6454 
G01 X-33.0091 Y43.7328 
G01 X-32.9378 Y43.8041 
G01 X-32.8504 Y43.8546 
G01 X-32.7529 Y43.8807 
G01 X-32.6520 Y43.8807 
G01 X-32.6047 Y43.8680 
G01 X-24.9121 Y43.8680 
G00 Z3.0000 
G00 X-67.6275 Y31.0040 
G01 Z-0.0700 F80.00 
G01 X-62.7750 Y35.8565 F250.00 
G01 X-62.6905 Y35.9052 
G01 X-62.5963 Y35.9305 
G01 X-47.1366 Y35.9305 
G01 X-47.1252 Y35.9581 
G01 X-47.0332 Y36.0957 
G01 X-46.9161 Y36.2128 
G01 X-46.7785 Y36.3047 
G01 X-46.6255 Y36.3681 
G01 X-46.4632 Y36.4004 
G01 X-44.9768 Y36.4004 
G01 X-44.8145 Y36.3681 
G01 X-44.6615 Y36.3047 
G01 X-44.5239 Y36.2128 
G01 X-44.4068 Y36.0957 
G01 X-44.3148 Y35.9581 
G01 X-44.2515 Y35.8051 
G01 X-44.2192 Y35.6428 
G01 X-44.2192 Y35.4772 
G01 X-44.2515 Y35.3149 
G01 X-44.3148 Y35.1619 
G01 X-44.4068 Y35.0243 
G01 X-44.5239 Y34.9072 
G01 X-44.6615 Y34.8152 
G01 X-44.8145 Y34.7519 
G01 X-44.9768 Y34.7196 
G01 X-46.4632 Y34.7196 
G01 X-46.6255 Y34.7519 
G01 X-46.7785 Y34.8152 
G01 X-46.9161 Y34.9072 
G01 X-47.0332 Y35.0243 
G01 X-47.1252 Y35.1619 
G01 X-47.1366 Y35.1895 
G01 X-62.3940 Y35.1895 
G01 X-67.1035 Y30.4800 
G01 X-65.8865 Y29.2630 
G01 X-65.2410 Y29.2630 
G01 X-64.4820 Y30.0220 
G01 X-64.5182 Y30.0582 
G01 X-64.5182 Y30.8428 
G01 X-64.6408 Y30.7202 
G01 X-64.6408 Y30.0582 
G01 X-65.2372 Y29.4618 
G01 X-66.0808 Y29.4618 
G01 X-66.6772 Y30.0582 
G01 X-66.6772 Y30.9017 
G01 X-66.0808 Y31.4982 
G01 X-65.2372 Y31.4982 
G01 X-65.0740 Y31.3350 
G01 X-62.2090 Y34.2000 
G01 X-62.1400 Y34.2690 
G01 X-62.0555 Y34.3177 
G01 X-61.9613 Y34.3430 
G01 X-55.6603 Y34.3430 
G01 X-55.6130 Y34.3557 
G01 X-55.5120 Y34.3557 
G01 X-55.4146 Y34.3296 
G01 X-55.3272 Y34.2791 
G01 X-55.2559 Y34.2078 
G01 X-55.2054 Y34.1204 
G01 X-55.1793 Y34.0230 
G01 X-55.1793 Y31.8822 
G01 X-55.0321 Y31.9810 
G01 X-54.8700 Y32.0481 
G01 X-54.6978 Y32.0824 
G01 X-54.5222 Y32.0824 
G01 X-54.3500 Y32.0481 
G01 X-54.1879 Y31.9810 
G01 X-54.0419 Y31.8834 
G01 X-53.9178 Y31.7593 
G01 X-53.8202 Y31.6133 
G01 X-53.7530 Y31.4512 
G01 X-53.7188 Y31.2790 
G01 X-53.7188 Y30.8505 
G01 X-53.1696 Y30.8505 
G01 X-52.7251 Y31.2950 
G01 X-52.0499 Y31.2950 
G01 X-51.6054 Y30.8505 
G01 X-50.7512 Y30.8505 
G01 X-50.6570 Y30.8252 
G01 X-50.5725 Y30.7765 
G01 X-50.5035 Y30.7075 
G01 X-46.0364 Y26.2404 
G01 X-44.9768 Y26.2404 
G01 X-44.8145 Y26.2081 
G01 X-44.6615 Y26.1448 
G01 X-44.5239 Y26.0528 
G01 X-44.4068 Y25.9357 
G01 X-44.3148 Y25.7981 
G01 X-44.2515 Y25.6451 
G01 X-44.2192 Y25.4828 
G01 X-44.2192 Y25.3172 
G01 X-44.2515 Y25.1549 
G01 X-44.3148 Y25.0019 
G01 X-44.4068 Y24.8643 
G01 X-44.5239 Y24.7472 
G01 X-44.6615 Y24.6552 
G01 X-44.8145 Y24.5919 
G01 X-44.9768 Y24.5596 
G01 X-46.4632 Y24.5596 
G01 X-46.6255 Y24.5919 
G01 X-46.7785 Y24.6552 
G01 X-46.9161 Y24.7472 
G01 X-47.0332 Y24.8643 
G01 X-47.1252 Y25.0019 
G01 X-47.1885 Y25.1549 
G01 X-47.2208 Y25.3172 
G01 X-47.2208 Y25.4828 
G01 X-47.1885 Y25.6451 
G01 X-47.1252 Y25.7981 
G01 X-47.0332 Y25.9357 
G01 X-46.9161 Y26.0528 
G01 X-46.9045 Y26.0605 
G01 X-50.9535 Y30.1095 
G01 X-51.6054 Y30.1095 
G01 X-52.0499 Y29.6650 
G01 X-52.7251 Y29.6650 
G01 X-53.1696 Y30.1095 
G01 X-53.7188 Y30.1095 
G01 X-53.7188 Y29.6810 
G01 X-53.7530 Y29.5088 
G01 X-53.8202 Y29.3467 
G01 X-53.9178 Y29.2007 
G01 X-54.0419 Y29.0766 
G01 X-54.1879 Y28.9790 
G01 X-54.3500 Y28.9118 
G01 X-54.5222 Y28.8776 
G01 X-54.6978 Y28.8776 
G01 X-54.8700 Y28.9118 
G01 X-55.0321 Y28.9790 
G01 X-55.1781 Y29.0766 
G01 X-55.3022 Y29.2007 
G01 X-55.3998 Y29.3467 
G01 X-55.4670 Y29.5088 
G01 X-55.5012 Y29.6810 
G01 X-55.5012 Y30.8293 
G01 X-55.8691 Y31.1972 
G01 X-55.9196 Y31.2846 
G01 X-55.9457 Y31.3820 
G01 X-55.9457 Y33.6020 
G01 X-61.7590 Y33.6020 
G01 X-63.8628 Y31.4982 
G01 X-63.0782 Y31.4982 
G01 X-62.4818 Y30.9017 
G01 X-62.4818 Y30.0582 
G01 X-63.0782 Y29.4618 
G01 X-63.9218 Y29.4618 
G01 X-63.9580 Y29.4980 
G01 X-64.8600 Y28.5960 
G01 X-64.9445 Y28.5473 
G01 X-65.0387 Y28.5220 
G01 X-66.0888 Y28.5220 
G01 X-66.1830 Y28.5473 
G01 X-66.2675 Y28.5960 
G01 X-66.3365 Y28.6650 
G01 X-67.8550 Y30.1835 
G01 X-67.9240 Y30.2525 
G01 X-70.1940 Y32.5225 
G01 X-70.8226 Y32.5225 
G01 X-71.3000 Y32.9999 
G01 X-71.3000 Y33.6751 
G01 X-70.8226 Y34.1525 
G01 X-70.1474 Y34.1525 
G01 X-69.6700 Y33.6751 
G01 X-69.6700 Y33.0465 
G01 X-67.6275 Y31.0040 
G00 Z3.0000 
G00 X-47.2238 Y8.1405 
G01 Z-0.0700 F80.00 
G01 X-47.1497 Y8.2513 F250.00 
G01 X-47.0315 Y8.3695 
G01 X-53.4419 Y8.3695 
G01 X-53.5585 Y8.2529 
G01 X-53.6554 Y8.1560 
G01 X-53.6823 Y8.1405 
G01 X-47.2238 Y8.1405 
G00 Z3.0000 
G00 X-55.3449 Y9.0930 
G01 Z-0.0700 F80.00 
G01 X-55.3522 Y9.0983 F250.00 
G00 Z3.0000 
G00 X-56.8467 Y8.8967 
G01 Z-0.0700 F80.00 
G01 X-57.0481 Y8.8648 F250.00 
G01 X-57.2519 Y8.8648 
G01 X-57.3580 Y8.8816 
G01 X-56.6169 Y8.1405 
G01 X-55.8552 Y8.1405 
G01 X-55.8821 Y8.1560 
G01 X-56.6777 Y8.9516 
G01 X-56.8467 Y8.8967 
G00 Z3.0000 
G00 X-55.7178 Y9.4812 
G01 Z-0.0700 F80.00 
G01 X-55.8103 Y9.6628 F250.00 
G01 X-55.8733 Y9.8567 
G01 X-55.8800 Y9.8990 
G01 X-55.8867 Y9.8567 
G01 X-55.9416 Y9.6877 
G01 X-55.6717 Y9.4178 
G01 X-55.7178 Y9.4812 
G00 Z3.0000 
G00 X-54.0895 Y18.9684 
G01 Z-0.0700 F80.00 
G01 X-53.9325 Y18.8884 F250.00 
G01 X-54.0895 Y19.0454 
G01 X-54.0895 Y18.9684 
G00 Z3.0000 
G00 X-55.8867 Y20.0167 
G01 Z-0.0700 F80.00 
G01 X-55.9497 Y19.8228 F250.00 
G01 X-56.0422 Y19.6412 
G01 X-56.1621 Y19.4762 
G01 X-56.3062 Y19.3321 
G01 X-56.4712 Y19.2122 
G01 X-56.6528 Y19.1197 
G01 X-56.8467 Y19.0567 
G01 X-56.8890 Y19.0500 
G01 X-56.8467 Y19.0433 
G01 X-56.6528 Y18.9803 
G01 X-56.4712 Y18.8878 
G01 X-56.3062 Y18.7679 
G01 X-56.1621 Y18.6238 
G01 X-56.0422 Y18.4588 
G01 X-55.9497 Y18.2772 
G01 X-55.8867 Y18.0833 
G01 X-55.8800 Y18.0410 
G01 X-55.8733 Y18.0833 
G01 X-55.8103 Y18.2772 
G01 X-55.7178 Y18.4588 
G01 X-55.5979 Y18.6238 
G01 X-55.4538 Y18.7679 
G01 X-55.2888 Y18.8878 
G01 X-55.1305 Y18.9684 
G01 X-55.1305 Y19.1316 
G01 X-55.2888 Y19.2122 
G01 X-55.4538 Y19.3321 
G01 X-55.5979 Y19.4762 
G01 X-55.7178 Y19.6412 
G01 X-55.8103 Y19.8228 
G01 X-55.8733 Y20.0167 
G01 X-55.8800 Y20.0590 
G01 X-55.8867 Y20.0167 
G00 Z3.0000 
G00 X-55.8867 Y17.4767 
G01 Z-0.0700 F80.00 
G01 X-55.9497 Y17.2828 F250.00 
G01 X-56.0422 Y17.1012 
G01 X-56.1621 Y16.9362 
G01 X-56.3062 Y16.7921 
G01 X-56.4712 Y16.6722 
G01 X-56.6528 Y16.5797 
G01 X-56.8467 Y16.5167 
G01 X-56.8890 Y16.5100 
G01 X-56.8467 Y16.5033 
G01 X-56.6528 Y16.4403 
G01 X-56.4712 Y16.3478 
G01 X-56.3062 Y16.2279 
G01 X-56.1621 Y16.0838 
G01 X-56.0422 Y15.9188 
G01 X-55.9497 Y15.7372 
G01 X-55.8867 Y15.5433 
G01 X-55.8800 Y15.5010 
G01 X-55.8733 Y15.5433 
G01 X-55.8103 Y15.7372 
G01 X-55.7178 Y15.9188 
G01 X-55.5979 Y16.0838 
G01 X-55.4538 Y16.2279 
G01 X-55.2888 Y16.3478 
G01 X-55.1305 Y16.4284 
G01 X-55.1305 Y16.5916 
G01 X-55.2888 Y16.6722 
G01 X-55.4538 Y16.7921 
G01 X-55.5979 Y16.9362 
G01 X-55.7178 Y17.1012 
G01 X-55.8103 Y17.2828 
G01 X-55.8733 Y17.4767 
G01 X-55.8800 Y17.5190 
G01 X-55.8867 Y17.4767 
G00 Z3.0000 
G00 X-55.8867 Y14.9367 
G01 Z-0.0700 F80.00 
G01 X-55.9497 Y14.7428 F250.00 
G01 X-56.0422 Y14.5612 
G01 X-56.1621 Y14.3962 
G01 X-56.3062 Y14.2521 
G01 X-56.4712 Y14.1322 
G01 X-56.6528 Y14.0397 
G01 X-56.8467 Y13.9767 
G01 X-56.8890 Y13.9700 
G01 X-56.8467 Y13.9633 
G01 X-56.6528 Y13.9003 
G01 X-56.4712 Y13.8078 
G01 X-56.3062 Y13.6879 
G01 X-56.1621 Y13.5438 
G01 X-56.0422 Y13.3788 
G01 X-55.9497 Y13.1972 
G01 X-55.8867 Y13.0033 
G01 X-55.8800 Y12.9610 
G01 X-55.8733 Y13.0033 
G01 X-55.8103 Y13.1972 
G01 X-55.7178 Y13.3788 
G01 X-55.5979 Y13.5438 
G01 X-55.4538 Y13.6879 
G01 X-55.2888 Y13.8078 
G01 X-55.1305 Y13.8884 
G01 X-55.1305 Y14.0516 
G01 X-55.2888 Y14.1322 
G01 X-55.4538 Y14.2521 
G01 X-55.5979 Y14.3962 
G01 X-55.7178 Y14.5612 
G01 X-55.8103 Y14.7428 
G01 X-55.8733 Y14.9367 
G01 X-55.8800 Y14.9790 
G01 X-55.8867 Y14.9367 
G00 Z3.0000 
G00 X-55.8867 Y12.3967 
G01 Z-0.0700 F80.00 
G01 X-55.9497 Y12.2028 F250.00 
G01 X-56.0422 Y12.0212 
G01 X-56.1621 Y11.8562 
G01 X-56.3062 Y11.7121 
G01 X-56.4712 Y11.5922 
G01 X-56.6528 Y11.4997 
G01 X-56.8467 Y11.4367 
G01 X-56.8890 Y11.4300 
G01 X-56.8467 Y11.4233 
G01 X-56.6528 Y11.3603 
G01 X-56.4712 Y11.2678 
G01 X-56.3062 Y11.1479 
G01 X-56.1621 Y11.0038 
G01 X-56.0422 Y10.8388 
G01 X-55.9497 Y10.6572 
G01 X-55.8867 Y10.4633 
G01 X-55.8800 Y10.4210 
G01 X-55.8733 Y10.4633 
G01 X-55.8103 Y10.6572 
G01 X-55.7178 Y10.8388 
G01 X-55.5979 Y11.0038 
G01 X-55.4538 Y11.1479 
G01 X-55.2888 Y11.2678 
G01 X-55.1072 Y11.3603 
G01 X-54.9133 Y11.4233 
G01 X-54.8710 Y11.4300 
G01 X-54.9133 Y11.4367 
G01 X-55.1072 Y11.4997 
G01 X-55.2888 Y11.5922 
G01 X-55.4538 Y11.7121 
G01 X-55.5979 Y11.8562 
G01 X-55.7178 Y12.0212 
G01 X-55.8103 Y12.2028 
G01 X-55.8733 Y12.3967 
G01 X-55.8800 Y12.4390 
G01 X-55.8867 Y12.3967 
G00 Z3.0000 
G00 X-39.5297 Y14.6087 
G01 Z-0.0700 F80.00 
G01 X-39.6381 Y14.7709 F250.00 
G01 X-39.7127 Y14.9511 
G01 X-39.7508 Y15.1425 
G01 X-39.7508 Y15.3375 
G01 X-39.7127 Y15.5289 
G01 X-39.6381 Y15.7091 
G01 X-39.5297 Y15.8713 
G01 X-39.4115 Y15.9895 
G01 X-41.6944 Y15.9895 
G01 X-44.3214 Y13.3625 
G01 X-44.2903 Y13.3313 
G01 X-44.1819 Y13.1691 
G01 X-44.1073 Y12.9889 
G01 X-44.0692 Y12.7975 
G01 X-44.0692 Y12.6025 
G01 X-44.0830 Y12.5331 
G01 X-42.3265 Y14.2896 
G01 X-42.2296 Y14.3865 
G01 X-42.1109 Y14.4550 
G01 X-41.9785 Y14.4905 
G01 X-39.4115 Y14.4905 
G01 X-39.5297 Y14.6087 
G00 Z3.0000 
G00 X-65.1751 Y31.6482 
G01 Z-0.0700 F80.00 
G01 X-65.0740 Y31.5471 F250.00 
G01 X-62.3290 Y34.2921 
G01 X-62.2321 Y34.3890 
G01 X-62.1134 Y34.4575 
G01 X-61.9810 Y34.4930 
G01 X-55.6801 Y34.4930 
G01 X-55.6327 Y34.5057 
G01 X-55.4923 Y34.5057 
G01 X-55.3567 Y34.4694 
G01 X-55.2351 Y34.3992 
G01 X-55.1358 Y34.2999 
G01 X-55.0656 Y34.1783 
G01 X-55.0293 Y34.0427 
G01 X-55.0293 Y32.1461 
G01 X-55.0097 Y32.1561 
G01 X-54.8538 Y32.2068 
G01 X-54.6919 Y32.2324 
G01 X-54.5281 Y32.2324 
G01 X-54.3662 Y32.2068 
G01 X-54.2103 Y32.1561 
G01 X-54.0643 Y32.0817 
G01 X-53.9317 Y31.9854 
G01 X-53.8158 Y31.8695 
G01 X-53.7195 Y31.7369 
G01 X-53.6451 Y31.5909 
G01 X-53.5944 Y31.4350 
G01 X-53.5688 Y31.2731 
G01 X-53.5688 Y31.0005 
G01 X-53.2317 Y31.0005 
G01 X-52.7872 Y31.4450 
G01 X-51.9878 Y31.4450 
G01 X-51.5433 Y31.0005 
G01 X-50.7315 Y31.0005 
G01 X-50.5991 Y30.9650 
G01 X-50.4804 Y30.8965 
G01 X-50.3835 Y30.7996 
G01 X-48.9075 Y29.3236 
G01 X-48.9075 Y29.9272 
G01 X-48.3422 Y30.4925 
G01 X-47.5428 Y30.4925 
G01 X-47.3554 Y30.3051 
G01 X-47.3708 Y30.3825 
G01 X-47.3708 Y30.5775 
G01 X-47.3327 Y30.7689 
G01 X-47.2581 Y30.9491 
G01 X-47.1497 Y31.1113 
G01 X-47.1186 Y31.1425 
G01 X-49.7456 Y33.7695 
G01 X-52.8133 Y33.7695 
G01 X-53.2578 Y33.3250 
G01 X-54.0572 Y33.3250 
G01 X-54.6225 Y33.8903 
G01 X-54.6225 Y34.6897 
G01 X-54.2727 Y35.0395 
G01 X-62.3319 Y35.0395 
G01 X-65.7232 Y31.6482 
G01 X-65.1751 Y31.6482 
G00 Z3.0000 
G00 X-66.8272 Y30.4158 
G01 Z-0.0700 F80.00 
G01 X-66.8272 Y30.5442 F250.00 
G01 X-66.8914 Y30.4800 
G01 X-66.8272 Y30.4158 
G00 Z3.0000 
G00 X-52.8133 Y34.8105 
G01 Z-0.0700 F80.00 
G01 X-49.4615 Y34.8105 F250.00 
G01 X-49.3291 Y34.7750 
G01 X-49.2104 Y34.7065 
G01 X-49.1135 Y34.6096 
G01 X-47.3570 Y32.8531 
G01 X-47.3708 Y32.9225 
G01 X-47.3708 Y33.1175 
G01 X-47.3327 Y33.3089 
G01 X-47.2581 Y33.4891 
G01 X-47.1497 Y33.6513 
G01 X-47.0117 Y33.7893 
G01 X-46.8495 Y33.8977 
G01 X-46.6693 Y33.9723 
G01 X-46.4779 Y34.0104 
G01 X-45.4657 Y34.0104 
G01 X-44.8927 Y34.5834 
G01 X-44.9621 Y34.5696 
G01 X-46.4779 Y34.5696 
G01 X-46.6693 Y34.6077 
G01 X-46.8495 Y34.6823 
G01 X-47.0117 Y34.7907 
G01 X-47.1497 Y34.9287 
G01 X-47.2238 Y35.0395 
G01 X-53.0423 Y35.0395 
G01 X-52.8133 Y34.8105 
G00 Z3.0000 
G00 X-44.3214 Y20.9825 
G01 Z-0.0700 F80.00 
G01 X-44.2903 Y20.9513 F250.00 
G01 X-44.1819 Y20.7891 
G01 X-44.1073 Y20.6089 
G01 X-44.0692 Y20.4175 
G01 X-44.0692 Y20.2225 
G01 X-44.1073 Y20.0311 
G01 X-44.1819 Y19.8509 
G01 X-44.2903 Y19.6887 
G01 X-44.4085 Y19.5705 
G01 X-39.4115 Y19.5705 
G01 X-39.5297 Y19.6887 
G01 X-39.6381 Y19.8509 
G01 X-39.7127 Y20.0311 
G01 X-39.7508 Y20.2225 
G01 X-39.7508 Y20.4175 
G01 X-39.7127 Y20.6089 
G01 X-39.6381 Y20.7891 
G01 X-39.5297 Y20.9513 
G01 X-39.4115 Y21.0695 
G01 X-44.2344 Y21.0695 
G01 X-44.3214 Y20.9825 
G00 Z3.0000 
G00 X-44.9621 Y21.8696 
G01 Z-0.0700 F80.00 
G01 X-46.4779 Y21.8696 F250.00 
G01 X-46.6693 Y21.9077 
G01 X-46.8495 Y21.9823 
G01 X-47.0117 Y22.0907 
G01 X-47.1497 Y22.2287 
G01 X-47.2581 Y22.3909 
G01 X-47.3327 Y22.5711 
G01 X-47.3708 Y22.7625 
G01 X-47.3708 Y22.9575 
G01 X-47.3327 Y23.1489 
G01 X-47.2581 Y23.3291 
G01 X-47.1497 Y23.4913 
G01 X-47.0315 Y23.6095 
G01 X-55.3469 Y23.6095 
G01 X-57.3580 Y21.5984 
G01 X-57.2519 Y21.6152 
G01 X-57.0481 Y21.6152 
G01 X-56.8467 Y21.5833 
G01 X-56.6777 Y21.5284 
G01 X-55.8821 Y22.3240 
G01 X-55.7634 Y22.3925 
G01 X-55.6310 Y22.4280 
G01 X-50.7315 Y22.4280 
G01 X-50.5991 Y22.3925 
G01 X-50.4804 Y22.3240 
G01 X-50.3835 Y22.2271 
G01 X-47.7269 Y19.5705 
G01 X-47.0315 Y19.5705 
G01 X-47.1497 Y19.6887 
G01 X-47.2581 Y19.8509 
G01 X-47.3327 Y20.0311 
G01 X-47.3708 Y20.2225 
G01 X-47.3708 Y20.4175 
G01 X-47.3327 Y20.6089 
G01 X-47.2581 Y20.7891 
G01 X-47.1497 Y20.9513 
G01 X-47.0117 Y21.0893 
G01 X-46.8495 Y21.1977 
G01 X-46.6693 Y21.2723 
G01 X-46.4779 Y21.3104 
G01 X-45.4657 Y21.3104 
G01 X-44.8927 Y21.8834 
G01 X-44.9621 Y21.8696 
G00 Z3.0000 
G00 X-58.1379 Y18.6238 
G01 Z-0.0700 F80.00 
G01 X-57.9938 Y18.7679 F250.00 
G01 X-57.8288 Y18.8878 
G01 X-57.6472 Y18.9803 
G01 X-57.4533 Y19.0433 
G01 X-57.4110 Y19.0500 
G01 X-57.4533 Y19.0567 
G01 X-57.6472 Y19.1197 
G01 X-57.8288 Y19.2122 
G01 X-57.9938 Y19.3321 
G01 X-58.1379 Y19.4762 
G01 X-58.2170 Y19.5851 
G01 X-58.2170 Y18.5149 
G01 X-58.1379 Y18.6238 
G00 Z3.0000 
G00 X-47.0315 Y24.6505 
G01 Z-0.0700 F80.00 
G01 X-47.1497 Y24.7687 F250.00 
G01 X-47.2581 Y24.9309 
G01 X-47.3327 Y25.1111 
G01 X-47.3708 Y25.3025 
G01 X-47.3708 Y25.4975 
G01 X-47.3327 Y25.6889 
G01 X-47.2581 Y25.8691 
G01 X-47.1497 Y26.0313 
G01 X-47.1186 Y26.0625 
G01 X-51.0156 Y29.9595 
G01 X-51.5433 Y29.9595 
G01 X-51.9878 Y29.5150 
G01 X-52.7872 Y29.5150 
G01 X-53.2317 Y29.9595 
G01 X-53.5688 Y29.9595 
G01 X-53.5688 Y29.6869 
G01 X-53.5944 Y29.5250 
G01 X-53.6451 Y29.3691 
G01 X-53.7195 Y29.2231 
G01 X-53.8158 Y29.0905 
G01 X-53.9317 Y28.9746 
G01 X-54.0643 Y28.8783 
G01 X-54.2103 Y28.8039 
G01 X-54.3662 Y28.7532 
G01 X-54.5281 Y28.7276 
G01 X-54.6919 Y28.7276 
G01 X-54.8538 Y28.7532 
G01 X-55.0097 Y28.8039 
G01 X-55.1557 Y28.8783 
G01 X-55.2883 Y28.9746 
G01 X-55.4042 Y29.0905 
G01 X-55.5005 Y29.2231 
G01 X-55.5749 Y29.3691 
G01 X-55.6256 Y29.5250 
G01 X-55.6512 Y29.6869 
G01 X-55.6512 Y30.7671 
G01 X-55.9892 Y31.1051 
G01 X-56.0594 Y31.2267 
G01 X-56.0957 Y31.3623 
G01 X-56.0957 Y33.4520 
G01 X-61.6969 Y33.4520 
G01 X-63.5007 Y31.6482 
G01 X-63.0161 Y31.6482 
G01 X-62.4205 Y31.0526 
G01 X-61.8249 Y31.6482 
G01 X-60.8571 Y31.6482 
G01 X-60.1728 Y30.9639 
G01 X-60.1728 Y30.0983 
G01 X-59.1686 Y31.1025 
G01 X-59.7722 Y31.1025 
G01 X-60.3375 Y31.6678 
G01 X-60.3375 Y32.4672 
G01 X-59.7722 Y33.0325 
G01 X-58.9728 Y33.0325 
G01 X-58.4075 Y32.4672 
G01 X-58.4075 Y31.8386 
G01 X-58.1259 Y31.5570 
G01 X-58.1149 Y31.5909 
G01 X-58.0405 Y31.7369 
G01 X-57.9442 Y31.8695 
G01 X-57.8283 Y31.9854 
G01 X-57.6957 Y32.0817 
G01 X-57.5497 Y32.1561 
G01 X-57.3938 Y32.2068 
G01 X-57.2319 Y32.2324 
G01 X-57.0681 Y32.2324 
G01 X-56.9062 Y32.2068 
G01 X-56.7503 Y32.1561 
G01 X-56.6043 Y32.0817 
G01 X-56.4717 Y31.9854 
G01 X-56.3558 Y31.8695 
G01 X-56.2595 Y31.7369 
G01 X-56.1851 Y31.5909 
G01 X-56.1344 Y31.4350 
G01 X-56.1088 Y31.2731 
G01 X-56.1088 Y29.6869 
G01 X-56.1344 Y29.5250 
G01 X-56.1851 Y29.3691 
G01 X-56.2595 Y29.2231 
G01 X-56.3558 Y29.0905 
G01 X-56.4717 Y28.9746 
G01 X-56.6043 Y28.8783 
G01 X-56.7503 Y28.8039 
G01 X-56.9062 Y28.7532 
G01 X-57.0681 Y28.7276 
G01 X-57.2319 Y28.7276 
G01 X-57.3938 Y28.7532 
G01 X-57.5497 Y28.8039 
G01 X-57.6957 Y28.8783 
G01 X-57.8283 Y28.9746 
G01 X-57.9442 Y29.0905 
G01 X-58.0405 Y29.2231 
G01 X-58.1149 Y29.3691 
G01 X-58.1656 Y29.5250 
G01 X-58.1912 Y29.6869 
G01 X-58.1912 Y30.1501 
G01 X-58.2015 Y30.1604 
G01 X-58.4200 Y30.3789 
G01 X-59.6879 Y29.1110 
G01 X-59.8045 Y29.0437 
G01 X-59.8045 Y17.0431 
G01 X-58.5219 Y15.7605 
G01 X-58.3384 Y15.7605 
G01 X-58.2578 Y15.9188 
G01 X-58.1379 Y16.0838 
G01 X-57.9938 Y16.2279 
G01 X-57.8288 Y16.3478 
G01 X-57.6472 Y16.4403 
G01 X-57.4533 Y16.5033 
G01 X-57.4110 Y16.5100 
G01 X-57.4533 Y16.5167 
G01 X-57.6472 Y16.5797 
G01 X-57.8288 Y16.6722 
G01 X-57.9938 Y16.7921 
G01 X-58.1379 Y16.9362 
G01 X-58.2578 Y17.1012 
G01 X-58.3384 Y17.2595 
G01 X-58.8060 Y17.2595 
G01 X-58.9384 Y17.2950 
G01 X-59.0571 Y17.3635 
G01 X-59.1540 Y17.4604 
G01 X-59.2225 Y17.5791 
G01 X-59.2580 Y17.7115 
G01 X-59.2580 Y21.0235 
G01 X-59.2225 Y21.1559 
G01 X-59.1540 Y21.2746 
G01 X-59.0571 Y21.3715 
G01 X-55.8821 Y24.5465 
G01 X-55.7634 Y24.6150 
G01 X-55.6310 Y24.6505 
G01 X-55.4940 Y24.6505 
G01 X-47.0315 Y24.6505 
G00 Z3.0000 
G00 X-43.0781 Y23.6980 
G01 Z-0.0700 F80.00 
G01 X-39.7865 Y26.9896 F250.00 
G01 X-39.6896 Y27.0865 
G01 X-39.5709 Y27.1550 
G01 X-39.4385 Y27.1905 
G01 X-39.4115 Y27.1905 
G01 X-39.5297 Y27.3087 
G01 X-39.6381 Y27.4709 
G01 X-39.7127 Y27.6511 
G01 X-39.7508 Y27.8425 
G01 X-39.7508 Y28.0375 
G01 X-39.7370 Y28.1069 
G01 X-44.0335 Y23.8104 
G01 X-44.1304 Y23.7135 
G01 X-44.1573 Y23.6980 
G01 X-43.0781 Y23.6980 
G00 Z3.0000 
G00 X-47.0315 Y37.3505 
G01 Z-0.0700 F80.00 
G01 X-47.1497 Y37.4687 F250.00 
G01 X-47.2153 Y37.5668 
G01 X-71.1271 Y37.5668 
G01 X-70.9108 Y37.3505 
G01 X-47.0315 Y37.3505 
G00 Z3.0000 
G00 X-44.3355 Y36.2365 
G01 Z-0.0700 F80.00 
G01 X-44.3355 Y36.3095 F250.00 
G01 X-44.4085 Y36.3095 
G01 X-44.3355 Y36.2365 
G00 Z3.0000 
G00 X-43.3830 Y37.5669 
G01 Z-0.0700 F80.00 
G01 X-44.0830 Y38.2669 F250.00 
G01 X-44.0692 Y38.1975 
G01 X-44.0692 Y38.0025 
G01 X-44.1073 Y37.8111 
G01 X-44.1819 Y37.6309 
G01 X-44.2903 Y37.4687 
G01 X-44.4085 Y37.3505 
G01 X-43.7465 Y37.3505 
G01 X-43.6141 Y37.3150 
G01 X-43.4954 Y37.2465 
G01 X-43.3985 Y37.1496 
G01 X-43.3830 Y37.1227 
G01 X-43.3830 Y37.5669 
G00 Z3.0000 
G00 X-44.2903 Y33.6513 
G01 Z-0.0700 F80.00 
G01 X-44.1819 Y33.4891 F250.00 
G01 X-44.1073 Y33.3089 
G01 X-44.0692 Y33.1175 
G01 X-44.0692 Y32.9225 
G01 X-44.1073 Y32.7311 
G01 X-44.1819 Y32.5509 
G01 X-44.2903 Y32.3887 
G01 X-44.4283 Y32.2507 
G01 X-44.5905 Y32.1423 
G01 X-44.7707 Y32.0677 
G01 X-44.9621 Y32.0296 
G01 X-46.4779 Y32.0296 
G01 X-46.5473 Y32.0434 
G01 X-45.9743 Y31.4704 
G01 X-44.9621 Y31.4704 
G01 X-44.7707 Y31.4323 
G01 X-44.5905 Y31.3577 
G01 X-44.4283 Y31.2493 
G01 X-44.2903 Y31.1113 
G01 X-44.1819 Y30.9491 
G01 X-44.1073 Y30.7689 
G01 X-44.0692 Y30.5775 
G01 X-44.0692 Y30.3825 
G01 X-44.1073 Y30.1911 
G01 X-44.1819 Y30.0109 
G01 X-44.2903 Y29.8487 
G01 X-44.4085 Y29.7305 
G01 X-43.3830 Y29.7305 
G01 X-43.3830 Y34.6323 
G01 X-43.3985 Y34.6054 
G01 X-43.4954 Y34.5085 
G01 X-44.3214 Y33.6825 
G01 X-44.2903 Y33.6513 
G00 Z3.0000 
G00 X-44.9621 Y14.2496 
G01 Z-0.0700 F80.00 
G01 X-45.9743 Y14.2496 F250.00 
G01 X-46.2560 Y13.9679 
G01 X-46.3529 Y13.8710 
G01 X-46.4716 Y13.8025 
G01 X-46.6040 Y13.7670 
G01 X-46.9604 Y13.7670 
G01 X-47.2779 Y13.4495 
G01 X-47.9721 Y13.4495 
G01 X-48.4630 Y13.9404 
G01 X-48.4630 Y14.6346 
G01 X-47.9721 Y15.1255 
G01 X-47.3674 Y15.1255 
G01 X-47.3708 Y15.1425 
G01 X-47.3708 Y15.3375 
G01 X-47.3327 Y15.5289 
G01 X-47.2581 Y15.7091 
G01 X-47.1497 Y15.8713 
G01 X-47.0117 Y16.0093 
G01 X-46.8495 Y16.1177 
G01 X-46.6693 Y16.1923 
G01 X-46.4779 Y16.2304 
G01 X-44.9621 Y16.2304 
G01 X-44.7707 Y16.1923 
G01 X-44.5905 Y16.1177 
G01 X-44.4283 Y16.0093 
G01 X-44.2903 Y15.8713 
G01 X-44.1819 Y15.7091 
G01 X-44.1073 Y15.5289 
G01 X-44.0692 Y15.3375 
G01 X-44.0692 Y15.1425 
G01 X-44.0830 Y15.0731 
G01 X-42.3265 Y16.8296 
G01 X-42.2296 Y16.9265 
G01 X-42.1109 Y16.9950 
G01 X-41.9785 Y17.0305 
G01 X-39.4115 Y17.0305 
G01 X-39.5297 Y17.1487 
G01 X-39.6381 Y17.3109 
G01 X-39.7127 Y17.4911 
G01 X-39.7508 Y17.6824 
G01 X-39.7508 Y17.8775 
G01 X-39.7127 Y18.0689 
G01 X-39.6381 Y18.2491 
G01 X-39.5297 Y18.4113 
G01 X-39.4115 Y18.5295 
G01 X-44.4085 Y18.5295 
G01 X-44.2903 Y18.4113 
G01 X-44.1819 Y18.2491 
G01 X-44.1073 Y18.0689 
G01 X-44.0692 Y17.8775 
G01 X-44.0692 Y17.6824 
G01 X-44.1073 Y17.4911 
G01 X-44.1819 Y17.3109 
G01 X-44.2903 Y17.1487 
G01 X-44.4283 Y17.0107 
G01 X-44.5905 Y16.9023 
G01 X-44.7707 Y16.8277 
G01 X-44.9621 Y16.7896 
G01 X-46.4779 Y16.7896 
G01 X-46.6693 Y16.8277 
G01 X-46.8495 Y16.9023 
G01 X-47.0078 Y17.0081 
G01 X-49.6318 Y14.3841 
G01 X-49.6318 Y13.5315 
G01 X-49.2000 Y13.0997 
G01 X-49.2000 Y12.3003 
G01 X-49.7653 Y11.7350 
G01 X-50.5647 Y11.7350 
G01 X-51.1300 Y12.3003 
G01 X-51.1300 Y13.0997 
G01 X-50.6982 Y13.5315 
G01 X-50.6982 Y14.6752 
G01 X-50.6619 Y14.8108 
G01 X-50.5917 Y14.9324 
G01 X-50.4924 Y15.0317 
G01 X-47.3174 Y18.2067 
G01 X-47.2626 Y18.2383 
G01 X-47.2581 Y18.2491 
G01 X-47.1497 Y18.4113 
G01 X-47.0315 Y18.5295 
G01 X-48.0110 Y18.5295 
G01 X-48.1434 Y18.5650 
G01 X-48.2621 Y18.6335 
G01 X-51.0156 Y21.3870 
G01 X-53.8751 Y21.3870 
G01 X-53.7662 Y21.3079 
G01 X-53.6221 Y21.1638 
G01 X-53.5022 Y20.9988 
G01 X-53.4097 Y20.8172 
G01 X-53.3467 Y20.6233 
G01 X-53.3148 Y20.4219 
G01 X-53.3148 Y20.2181 
G01 X-53.3467 Y20.0167 
G01 X-53.3972 Y19.8613 
G01 X-52.4841 Y18.9482 
G01 X-50.3615 Y18.9482 
G01 X-49.9297 Y19.3800 
G01 X-49.1303 Y19.3800 
G01 X-48.5650 Y18.8147 
G01 X-48.5650 Y18.0153 
G01 X-49.1303 Y17.4500 
G01 X-49.9297 Y17.4500 
G01 X-50.3615 Y17.8818 
G01 X-52.7752 Y17.8818 
G01 X-52.9108 Y17.9181 
G01 X-53.0324 Y17.9883 
G01 X-53.5016 Y18.4575 
G01 X-53.4097 Y18.2772 
G01 X-53.3467 Y18.0833 
G01 X-53.3148 Y17.8819 
G01 X-53.3148 Y17.6781 
G01 X-53.3467 Y17.4767 
G01 X-53.4097 Y17.2828 
G01 X-53.5022 Y17.1012 
G01 X-53.6221 Y16.9362 
G01 X-53.7662 Y16.7921 
G01 X-53.9312 Y16.6722 
G01 X-54.0895 Y16.5916 
G01 X-54.0895 Y16.4284 
G01 X-53.9312 Y16.3478 
G01 X-53.7662 Y16.2279 
G01 X-53.6221 Y16.0838 
G01 X-53.5022 Y15.9188 
G01 X-53.4097 Y15.7372 
G01 X-53.3467 Y15.5433 
G01 X-53.3148 Y15.3419 
G01 X-53.3148 Y15.1381 
G01 X-53.3467 Y14.9367 
G01 X-53.4097 Y14.7428 
G01 X-53.5022 Y14.5612 
G01 X-53.6221 Y14.3962 
G01 X-53.7662 Y14.2521 
G01 X-53.9312 Y14.1322 
G01 X-54.0895 Y14.0516 
G01 X-54.0895 Y13.8884 
G01 X-53.9312 Y13.8078 
G01 X-53.7662 Y13.6879 
G01 X-53.6221 Y13.5438 
G01 X-53.5022 Y13.3788 
G01 X-53.4097 Y13.1972 
G01 X-53.3467 Y13.0033 
G01 X-53.3148 Y12.8019 
G01 X-53.3148 Y12.5981 
G01 X-53.3467 Y12.3967 
G01 X-53.4097 Y12.2028 
G01 X-53.5022 Y12.0212 
G01 X-53.6221 Y11.8562 
G01 X-53.7662 Y11.7121 
G01 X-53.9312 Y11.5922 
G01 X-54.1128 Y11.4997 
G01 X-54.3067 Y11.4367 
G01 X-54.3490 Y11.4300 
G01 X-54.3067 Y11.4233 
G01 X-54.1128 Y11.3603 
G01 X-53.9312 Y11.2678 
G01 X-53.7662 Y11.1479 
G01 X-53.6221 Y11.0038 
G01 X-53.6179 Y10.9980 
G01 X-50.0567 Y10.9980 
G01 X-49.6122 Y11.4425 
G01 X-48.8128 Y11.4425 
G01 X-48.2475 Y10.8772 
G01 X-48.2475 Y10.0778 
G01 X-48.8128 Y9.5125 
G01 X-49.6122 Y9.5125 
G01 X-50.0567 Y9.9570 
G01 X-53.3308 Y9.9570 
G01 X-53.3467 Y9.8567 
G01 X-53.4097 Y9.6628 
G01 X-53.5022 Y9.4812 
G01 X-53.5536 Y9.4105 
G01 X-47.0315 Y9.4105 
G01 X-47.1497 Y9.5287 
G01 X-47.2581 Y9.6909 
G01 X-47.3327 Y9.8711 
G01 X-47.3708 Y10.0625 
G01 X-47.3708 Y10.2575 
G01 X-47.3327 Y10.4489 
G01 X-47.2581 Y10.6291 
G01 X-47.1497 Y10.7913 
G01 X-47.0117 Y10.9293 
G01 X-46.8495 Y11.0377 
G01 X-46.6693 Y11.1123 
G01 X-46.4779 Y11.1504 
G01 X-45.4657 Y11.1504 
G01 X-44.8927 Y11.7234 
G01 X-44.9621 Y11.7096 
G01 X-46.4779 Y11.7096 
G01 X-46.6693 Y11.7477 
G01 X-46.8495 Y11.8223 
G01 X-47.0117 Y11.9307 
G01 X-47.1497 Y12.0687 
G01 X-47.2581 Y12.2309 
G01 X-47.3327 Y12.4111 
G01 X-47.3708 Y12.6025 
G01 X-47.3708 Y12.7975 
G01 X-47.3327 Y12.9889 
G01 X-47.2581 Y13.1691 
G01 X-47.1497 Y13.3313 
G01 X-47.0117 Y13.4693 
G01 X-46.8495 Y13.5777 
G01 X-46.6693 Y13.6523 
G01 X-46.4779 Y13.6904 
G01 X-45.4657 Y13.6904 
G01 X-44.8927 Y14.2634 
G01 X-44.9621 Y14.2496 
G00 Z3.0000 
G00 X-58.1379 Y11.0038 
G01 Z-0.0700 F80.00 
G01 X-57.9938 Y11.1479 F250.00 
G01 X-57.8288 Y11.2678 
G01 X-57.6472 Y11.3603 
G01 X-57.4533 Y11.4233 
G01 X-57.4110 Y11.4300 
G01 X-57.4533 Y11.4367 
G01 X-57.6472 Y11.4997 
G01 X-57.8288 Y11.5922 
G01 X-57.9938 Y11.7121 
G01 X-58.1379 Y11.8562 
G01 X-58.2170 Y11.9651 
G01 X-58.2170 Y10.8949 
G01 X-58.1379 Y11.0038 
G00 Z3.0000 
G00 X-58.1379 Y13.5438 
G01 Z-0.0700 F80.00 
G01 X-57.9938 Y13.6879 F250.00 
G01 X-57.8288 Y13.8078 
G01 X-57.6472 Y13.9003 
G01 X-57.4533 Y13.9633 
G01 X-57.4110 Y13.9700 
G01 X-57.4533 Y13.9767 
G01 X-57.6472 Y14.0397 
G01 X-57.8288 Y14.1322 
G01 X-57.9938 Y14.2521 
G01 X-58.1379 Y14.3962 
G01 X-58.2170 Y14.5051 
G01 X-58.2170 Y13.4349 
G01 X-58.1379 Y13.5438 
G00 Z3.0000 
G00 X-47.3570 Y27.7731 
G01 Z-0.0700 F80.00 
G01 X-47.3708 Y27.8425 F250.00 
G01 X-47.3708 Y28.0375 
G01 X-47.3327 Y28.2289 
G01 X-47.2581 Y28.4091 
G01 X-47.1497 Y28.5713 
G01 X-47.1186 Y28.6025 
G01 X-47.2712 Y28.7551 
G01 X-47.3305 Y28.7748 
G01 X-47.5428 Y28.5625 
G01 X-48.1464 Y28.5625 
G01 X-47.3570 Y27.7731 
G00 Z3.0000 
G00 X-55.8867 Y20.6233 
G01 Z-0.0700 F80.00 
G01 X-55.8800 Y20.5810 F250.00 
G01 X-55.8733 Y20.6233 
G01 X-55.8103 Y20.8172 
G01 X-55.7178 Y20.9988 
G01 X-55.6717 Y21.0622 
G01 X-55.9416 Y20.7923 
G01 X-55.8867 Y20.6233 
G00 Z3.0000 
G00 X-55.3449 Y21.3870 
G01 Z-0.0700 F80.00 
G01 X-55.3469 Y21.3870 F250.00 
G01 X-55.3522 Y21.3817 
G01 X-55.3449 Y21.3870 
G00 Z3.0000 
G00 X-56.8450 Y44.0503 
G01 Z-0.0700 F80.00 
G01 X-56.8450 Y44.4375 F250.00 
G01 X-59.4816 Y44.4375 
G01 X-59.5557 Y44.3267 
G01 X-59.6937 Y44.1887 
G01 X-59.8559 Y44.0803 
G01 X-60.0361 Y44.0057 
G01 X-60.2275 Y43.9676 
G01 X-60.4225 Y43.9676 
G01 X-60.6139 Y44.0057 
G01 X-60.7941 Y44.0803 
G01 X-60.9563 Y44.1887 
G01 X-61.0943 Y44.3267 
G01 X-61.2027 Y44.4889 
G01 X-61.2773 Y44.6691 
G01 X-61.3154 Y44.8605 
G01 X-61.3154 Y45.0555 
G01 X-61.2773 Y45.2469 
G01 X-61.2027 Y45.4271 
G01 X-61.0943 Y45.5893 
G01 X-60.9563 Y45.7273 
G01 X-60.7941 Y45.8357 
G01 X-60.6139 Y45.9103 
G01 X-60.4225 Y45.9484 
G01 X-60.2275 Y45.9484 
G01 X-60.0361 Y45.9103 
G01 X-59.8559 Y45.8357 
G01 X-59.6937 Y45.7273 
G01 X-59.5557 Y45.5893 
G01 X-59.4816 Y45.4785 
G01 X-55.8115 Y45.4785 
G01 X-55.6791 Y45.4430 
G01 X-55.6305 Y45.4150 
G01 X-55.4803 Y45.4150 
G01 X-54.9150 Y44.8497 
G01 X-54.9150 Y44.0503 
G01 X-55.4803 Y43.4850 
G01 X-56.2797 Y43.4850 
G01 X-56.8450 Y44.0503 
G00 Z3.0000 
G00 X-68.1940 Y10.7829 
G01 Z-0.0700 F80.00 
G01 X-68.1940 Y10.9571 F250.00 
G01 X-68.1600 Y11.1279 
G01 X-68.0934 Y11.2887 
G01 X-67.9966 Y11.4335 
G01 X-67.8735 Y11.5566 
G01 X-67.8305 Y11.5854 
G01 X-67.8305 Y26.4608 
G01 X-68.2750 Y26.9053 
G01 X-68.2750 Y27.7047 
G01 X-67.7097 Y28.2700 
G01 X-66.9103 Y28.2700 
G01 X-66.3450 Y27.7047 
G01 X-66.3450 Y26.9053 
G01 X-66.7895 Y26.4608 
G01 X-66.7895 Y11.5854 
G01 X-66.7465 Y11.5566 
G01 X-66.6234 Y11.4335 
G01 X-66.5266 Y11.2887 
G01 X-66.4600 Y11.1279 
G01 X-66.4260 Y10.9571 
G01 X-66.4260 Y10.7829 
G01 X-66.4600 Y10.6121 
G01 X-66.5266 Y10.4513 
G01 X-66.6234 Y10.3065 
G01 X-66.7465 Y10.1834 
G01 X-66.8913 Y10.0866 
G01 X-67.0521 Y10.0200 
G01 X-67.2229 Y9.9860 
G01 X-67.3971 Y9.9860 
G01 X-67.5679 Y10.0200 
G01 X-67.7287 Y10.0866 
G01 X-67.8735 Y10.1834 
G01 X-67.9966 Y10.3065 
G01 X-68.0934 Y10.4513 
G01 X-68.1600 Y10.6121 
G01 X-68.1940 Y10.7829 
G00 Z3.0000 
G00 X-12.8860 Y49.0993 
G01 Z-0.0700 F80.00 
G01 X-12.8860 Y47.4207 F250.00 
G01 X-12.9127 Y47.2522 
G01 X-12.9654 Y47.0899 
G01 X-13.0429 Y46.9379 
G01 X-13.1432 Y46.7998 
G01 X-13.2638 Y46.6792 
G01 X-13.4019 Y46.5789 
G01 X-13.5539 Y46.5014 
G01 X-13.7162 Y46.4487 
G01 X-13.8847 Y46.4220 
G01 X-14.0553 Y46.4220 
G01 X-14.2238 Y46.4487 
G01 X-14.3861 Y46.5014 
G01 X-14.5381 Y46.5789 
G01 X-14.6762 Y46.6792 
G01 X-14.7968 Y46.7998 
G01 X-14.8971 Y46.9379 
G01 X-14.9746 Y47.0899 
G01 X-15.0273 Y47.2522 
G01 X-15.0540 Y47.4207 
G01 X-15.0540 Y49.0993 
G01 X-15.0273 Y49.2678 
G01 X-14.9746 Y49.4301 
G01 X-14.8971 Y49.5821 
G01 X-14.7968 Y49.7202 
G01 X-14.6762 Y49.8408 
G01 X-14.5381 Y49.9411 
G01 X-14.3861 Y50.0186 
G01 X-14.2238 Y50.0713 
G01 X-14.0553 Y50.0980 
G01 X-13.8847 Y50.0980 
G01 X-13.7162 Y50.0713 
G01 X-13.5539 Y50.0186 
G01 X-13.4019 Y49.9411 
G01 X-13.2638 Y49.8408 
G01 X-13.1432 Y49.7202 
G01 X-13.0429 Y49.5821 
G01 X-12.9654 Y49.4301 
G01 X-12.9127 Y49.2678 
G01 X-12.8860 Y49.0993 
G00 Z3.0000 
G00 X-15.4260 Y49.0993 
G01 Z-0.0700 F80.00 
G01 X-15.4260 Y47.4207 F250.00 
G01 X-15.4527 Y47.2522 
G01 X-15.5054 Y47.0899 
G01 X-15.5829 Y46.9379 
G01 X-15.6832 Y46.7998 
G01 X-15.8038 Y46.6792 
G01 X-15.9419 Y46.5789 
G01 X-16.0939 Y46.5014 
G01 X-16.2562 Y46.4487 
G01 X-16.4247 Y46.4220 
G01 X-16.5953 Y46.4220 
G01 X-16.7638 Y46.4487 
G01 X-16.9261 Y46.5014 
G01 X-17.0781 Y46.5789 
G01 X-17.2162 Y46.6792 
G01 X-17.3368 Y46.7998 
G01 X-17.4371 Y46.9379 
G01 X-17.5146 Y47.0899 
G01 X-17.5673 Y47.2522 
G01 X-17.5940 Y47.4207 
G01 X-17.5940 Y49.0993 
G01 X-17.5673 Y49.2678 
G01 X-17.5146 Y49.4301 
G01 X-17.4371 Y49.5821 
G01 X-17.3368 Y49.7202 
G01 X-17.2162 Y49.8408 
G01 X-17.0781 Y49.9411 
G01 X-16.9261 Y50.0186 
G01 X-16.7638 Y50.0713 
G01 X-16.5953 Y50.0980 
G01 X-16.4247 Y50.0980 
G01 X-16.2562 Y50.0713 
G01 X-16.0939 Y50.0186 
G01 X-15.9419 Y49.9411 
G01 X-15.8038 Y49.8408 
G01 X-15.6832 Y49.7202 
G01 X-15.5829 Y49.5821 
G01 X-15.5054 Y49.4301 
G01 X-15.4527 Y49.2678 
G01 X-15.4260 Y49.0993 
G00 Z3.0000 
G00 X-37.3421 Y11.7096 
G01 Z-0.0700 F80.00 
G01 X-38.8579 Y11.7096 F250.00 
G01 X-39.0493 Y11.7477 
G01 X-39.2295 Y11.8223 
G01 X-39.3917 Y11.9307 
G01 X-39.5297 Y12.0687 
G01 X-39.6381 Y12.2309 
G01 X-39.7127 Y12.4111 
G01 X-39.7508 Y12.6025 
G01 X-39.7508 Y12.7975 
G01 X-39.7127 Y12.9889 
G01 X-39.6381 Y13.1691 
G01 X-39.5297 Y13.3313 
G01 X-39.4115 Y13.4495 
G01 X-41.6944 Y13.4495 
G01 X-44.3214 Y10.8225 
G01 X-44.2903 Y10.7913 
G01 X-44.1819 Y10.6291 
G01 X-44.1073 Y10.4489 
G01 X-44.0692 Y10.2575 
G01 X-44.0692 Y10.0625 
G01 X-44.1073 Y9.8711 
G01 X-44.1819 Y9.6909 
G01 X-44.2903 Y9.5287 
G01 X-44.4085 Y9.4105 
G01 X-39.4115 Y9.4105 
G01 X-39.5297 Y9.5287 
G01 X-39.6381 Y9.6909 
G01 X-39.7127 Y9.8711 
G01 X-39.7508 Y10.0625 
G01 X-39.7508 Y10.2575 
G01 X-39.7127 Y10.4489 
G01 X-39.6381 Y10.6291 
G01 X-39.5297 Y10.7913 
G01 X-39.3917 Y10.9293 
G01 X-39.2295 Y11.0377 
G01 X-39.0493 Y11.1123 
G01 X-38.8579 Y11.1504 
G01 X-37.3421 Y11.1504 
G01 X-37.1507 Y11.1123 
G01 X-36.9705 Y11.0377 
G01 X-36.8083 Y10.9293 
G01 X-36.6703 Y10.7913 
G01 X-36.5619 Y10.6291 
G01 X-36.4873 Y10.4489 
G01 X-36.4492 Y10.2575 
G01 X-36.4492 Y10.0625 
G01 X-36.4873 Y9.8711 
G01 X-36.5619 Y9.6909 
G01 X-36.6703 Y9.5287 
G01 X-36.7885 Y9.4105 
G01 X-31.0005 Y9.4105 
G01 X-31.0005 Y30.3624 
G01 X-31.0132 Y30.4098 
G01 X-31.0132 Y35.0268 
G01 X-36.6047 Y35.0268 
G01 X-36.6703 Y34.9287 
G01 X-36.8083 Y34.7907 
G01 X-36.9705 Y34.6823 
G01 X-37.1507 Y34.6077 
G01 X-37.3421 Y34.5696 
G01 X-38.8579 Y34.5696 
G01 X-39.0493 Y34.6077 
G01 X-39.2295 Y34.6823 
G01 X-39.3917 Y34.7907 
G01 X-39.5297 Y34.9287 
G01 X-39.6381 Y35.0909 
G01 X-39.7127 Y35.2711 
G01 X-39.7508 Y35.4625 
G01 X-39.7508 Y35.6575 
G01 X-39.7127 Y35.8489 
G01 X-39.6381 Y36.0291 
G01 X-39.5297 Y36.1913 
G01 X-39.3917 Y36.3293 
G01 X-39.2295 Y36.4377 
G01 X-39.0493 Y36.5123 
G01 X-38.8579 Y36.5504 
G01 X-37.3421 Y36.5504 
G01 X-37.1507 Y36.5123 
G01 X-36.9705 Y36.4377 
G01 X-36.8083 Y36.3293 
G01 X-36.6703 Y36.1913 
G01 X-36.6047 Y36.0932 
G01 X-30.4098 Y36.0932 
G01 X-30.2742 Y36.0569 
G01 X-30.1526 Y35.9867 
G01 X-30.0533 Y35.8874 
G01 X-29.9831 Y35.7658 
G01 X-29.9468 Y35.6302 
G01 X-29.9468 Y30.4098 
G01 X-29.9595 Y30.3624 
G01 X-29.9595 Y8.8215 
G01 X-29.9950 Y8.6891 
G01 X-30.0635 Y8.5704 
G01 X-30.1604 Y8.4735 
G01 X-30.2791 Y8.4050 
G01 X-30.4115 Y8.3695 
G01 X-36.7885 Y8.3695 
G01 X-36.6703 Y8.2513 
G01 X-36.5619 Y8.0891 
G01 X-36.4873 Y7.9089 
G01 X-36.4492 Y7.7175 
G01 X-36.4492 Y7.5225 
G01 X-36.4873 Y7.3311 
G01 X-36.5619 Y7.1509 
G01 X-36.6703 Y6.9887 
G01 X-36.8083 Y6.8507 
G01 X-36.9705 Y6.7423 
G01 X-37.1507 Y6.6677 
G01 X-37.3421 Y6.6296 
G01 X-38.8579 Y6.6296 
G01 X-39.0493 Y6.6677 
G01 X-39.2295 Y6.7423 
G01 X-39.3917 Y6.8507 
G01 X-39.5297 Y6.9887 
G01 X-39.6381 Y7.1509 
G01 X-39.7127 Y7.3311 
G01 X-39.7508 Y7.5225 
G01 X-39.7508 Y7.7175 
G01 X-39.7127 Y7.9089 
G01 X-39.6381 Y8.0891 
G01 X-39.5297 Y8.2513 
G01 X-39.4115 Y8.3695 
G01 X-44.4085 Y8.3695 
G01 X-44.2903 Y8.2513 
G01 X-44.1819 Y8.0891 
G01 X-44.1073 Y7.9089 
G01 X-44.0692 Y7.7175 
G01 X-44.0692 Y7.5225 
G01 X-44.1073 Y7.3311 
G01 X-44.1819 Y7.1509 
G01 X-44.2903 Y6.9887 
G01 X-44.4283 Y6.8507 
G01 X-44.5905 Y6.7423 
G01 X-44.7707 Y6.6677 
G01 X-44.9621 Y6.6296 
G01 X-46.4779 Y6.6296 
G01 X-46.6693 Y6.6677 
G01 X-46.8495 Y6.7423 
G01 X-47.0117 Y6.8507 
G01 X-47.1497 Y6.9887 
G01 X-47.2238 Y7.0995 
G01 X-56.9010 Y7.0995 
G01 X-57.0334 Y7.1350 
G01 X-57.1521 Y7.2035 
G01 X-59.0571 Y9.1085 
G01 X-59.1540 Y9.2054 
G01 X-59.2225 Y9.3241 
G01 X-59.2580 Y9.4565 
G01 X-59.2580 Y15.0244 
G01 X-60.6446 Y16.4110 
G01 X-60.7415 Y16.5079 
G01 X-60.8100 Y16.6266 
G01 X-60.8455 Y16.7590 
G01 X-60.8455 Y29.3234 
G01 X-60.8571 Y29.3118 
G01 X-61.0745 Y29.3118 
G01 X-61.0745 Y10.0915 
G01 X-61.1100 Y9.9591 
G01 X-61.1785 Y9.8404 
G01 X-61.2754 Y9.7435 
G01 X-66.4485 Y4.5704 
G01 X-66.4260 Y4.4571 
G01 X-66.4260 Y4.2829 
G01 X-66.4600 Y4.1121 
G01 X-66.5266 Y3.9513 
G01 X-66.6234 Y3.8065 
G01 X-66.7465 Y3.6834 
G01 X-66.8913 Y3.5866 
G01 X-67.0521 Y3.5200 
G01 X-67.2229 Y3.4860 
G01 X-67.3971 Y3.4860 
G01 X-67.5679 Y3.5200 
G01 X-67.7287 Y3.5866 
G01 X-67.8735 Y3.6834 
G01 X-67.9966 Y3.8065 
G01 X-68.0934 Y3.9513 
G01 X-68.1600 Y4.1121 
G01 X-68.1940 Y4.2829 
G01 X-68.1940 Y4.4571 
G01 X-68.1600 Y4.6279 
G01 X-68.0934 Y4.7887 
G01 X-67.9966 Y4.9335 
G01 X-67.8735 Y5.0566 
G01 X-67.7287 Y5.1534 
G01 X-67.5679 Y5.2200 
G01 X-67.3971 Y5.2540 
G01 X-67.2371 Y5.2540 
G01 X-62.1155 Y10.3756 
G01 X-62.1155 Y29.6024 
G01 X-62.4205 Y29.9074 
G01 X-63.0161 Y29.3118 
G01 X-63.9321 Y29.3118 
G01 X-64.7679 Y28.4760 
G01 X-64.8866 Y28.4075 
G01 X-65.0190 Y28.3720 
G01 X-66.1085 Y28.3720 
G01 X-66.2409 Y28.4075 
G01 X-66.3596 Y28.4760 
G01 X-66.4565 Y28.5729 
G01 X-67.9471 Y30.0635 
G01 X-68.0440 Y30.1604 
G01 X-70.2561 Y32.3725 
G01 X-70.8847 Y32.3725 
G01 X-71.4500 Y32.9378 
G01 X-71.4500 Y33.7372 
G01 X-70.8847 Y34.3025 
G01 X-70.0853 Y34.3025 
G01 X-69.5200 Y33.7372 
G01 X-69.5200 Y33.1086 
G01 X-67.6275 Y31.2161 
G01 X-62.8671 Y35.9765 
G01 X-62.7484 Y36.0450 
G01 X-62.6160 Y36.0805 
G01 X-47.2238 Y36.0805 
G01 X-47.1497 Y36.1913 
G01 X-47.0315 Y36.3095 
G01 X-70.9108 Y36.3095 
G01 X-71.3553 Y35.8650 
G01 X-72.1547 Y35.8650 
G01 X-72.7200 Y36.4303 
G01 X-72.7200 Y37.2297 
G01 X-72.3829 Y37.5668 
G01 X-73.7302 Y37.5668 
G01 X-73.8658 Y37.6031 
G01 X-73.9874 Y37.6733 
G01 X-74.0867 Y37.7726 
G01 X-79.8634 Y43.5494 
G01 X-79.9278 Y43.4850 
G01 X-80.7272 Y43.4850 
G01 X-81.2925 Y44.0503 
G01 X-81.2925 Y44.8497 
G01 X-80.7272 Y45.4150 
G01 X-79.9278 Y45.4150 
G01 X-79.3625 Y44.8497 
G01 X-79.3625 Y44.5566 
G01 X-73.4391 Y38.6332 
G01 X-47.2153 Y38.6332 
G01 X-47.1497 Y38.7313 
G01 X-47.0315 Y38.8495 
G01 X-59.7585 Y38.8495 
G01 X-59.8909 Y38.8850 
G01 X-60.0096 Y38.9535 
G01 X-60.1065 Y39.0504 
G01 X-60.2026 Y39.1465 
G01 X-60.2275 Y39.1416 
G01 X-60.4225 Y39.1416 
G01 X-60.6139 Y39.1797 
G01 X-60.7941 Y39.2543 
G01 X-60.9563 Y39.3627 
G01 X-61.0943 Y39.5007 
G01 X-61.2027 Y39.6629 
G01 X-61.2773 Y39.8431 
G01 X-61.3154 Y40.0344 
G01 X-61.3154 Y40.2295 
G01 X-61.2773 Y40.4209 
G01 X-61.2027 Y40.6011 
G01 X-61.0943 Y40.7633 
G01 X-60.9563 Y40.9013 
G01 X-60.7941 Y41.0097 
G01 X-60.6139 Y41.0843 
G01 X-60.4225 Y41.1224 
G01 X-60.2275 Y41.1224 
G01 X-60.0361 Y41.0843 
G01 X-59.8559 Y41.0097 
G01 X-59.6937 Y40.9013 
G01 X-59.5557 Y40.7633 
G01 X-59.4473 Y40.6011 
G01 X-59.3727 Y40.4209 
G01 X-59.3346 Y40.2295 
G01 X-59.3346 Y40.0344 
G01 X-59.3632 Y39.8905 
G01 X-47.0315 Y39.8905 
G01 X-47.1497 Y40.0087 
G01 X-47.2581 Y40.1709 
G01 X-47.3327 Y40.3511 
G01 X-47.3708 Y40.5425 
G01 X-47.3708 Y40.7375 
G01 X-47.3327 Y40.9289 
G01 X-47.2581 Y41.1091 
G01 X-47.1497 Y41.2713 
G01 X-47.0117 Y41.4093 
G01 X-46.8495 Y41.5177 
G01 X-46.6693 Y41.5923 
G01 X-46.4779 Y41.6304 
G01 X-46.2532 Y41.6304 
G01 X-46.2532 Y46.1077 
G01 X-46.2169 Y46.2433 
G01 X-46.1467 Y46.3649 
G01 X-46.0474 Y46.4642 
G01 X-45.9258 Y46.5344 
G01 X-45.7902 Y46.5707 
G01 X-32.3021 Y46.5707 
G01 X-32.3181 Y46.5789 
G01 X-32.4562 Y46.6792 
G01 X-32.5768 Y46.7998 
G01 X-32.6771 Y46.9379 
G01 X-32.7546 Y47.0899 
G01 X-32.8073 Y47.2522 
G01 X-32.8340 Y47.4207 
G01 X-32.8340 Y49.0993 
G01 X-32.8073 Y49.2678 
G01 X-32.7546 Y49.4301 
G01 X-32.6771 Y49.5821 
G01 X-32.5768 Y49.7202 
G01 X-32.4562 Y49.8408 
G01 X-32.3181 Y49.9411 
G01 X-32.1661 Y50.0186 
G01 X-32.0038 Y50.0713 
G01 X-31.8353 Y50.0980 
G01 X-31.6647 Y50.0980 
G01 X-31.4962 Y50.0713 
G01 X-31.3339 Y50.0186 
G01 X-31.1819 Y49.9411 
G01 X-31.0438 Y49.8408 
G01 X-30.9232 Y49.7202 
G01 X-30.8229 Y49.5821 
G01 X-30.7454 Y49.4301 
G01 X-30.6927 Y49.2678 
G01 X-30.6660 Y49.0993 
G01 X-30.6660 Y47.4207 
G01 X-30.6927 Y47.2522 
G01 X-30.7454 Y47.0899 
G01 X-30.8229 Y46.9379 
G01 X-30.9232 Y46.7998 
G01 X-31.0438 Y46.6792 
G01 X-31.1819 Y46.5789 
G01 X-31.1979 Y46.5707 
G01 X-29.7621 Y46.5707 
G01 X-29.7781 Y46.5789 
G01 X-29.9162 Y46.6792 
G01 X-30.0368 Y46.7998 
G01 X-30.1371 Y46.9379 
G01 X-30.2146 Y47.0899 
G01 X-30.2673 Y47.2522 
G01 X-30.2940 Y47.4207 
G01 X-30.2940 Y49.0993 
G01 X-30.2673 Y49.2678 
G01 X-30.2146 Y49.4301 
G01 X-30.1371 Y49.5821 
G01 X-30.0368 Y49.7202 
G01 X-29.9162 Y49.8408 
G01 X-29.7781 Y49.9411 
G01 X-29.6261 Y50.0186 
G01 X-29.4638 Y50.0713 
G01 X-29.2953 Y50.0980 
G01 X-29.1247 Y50.0980 
G01 X-28.9562 Y50.0713 
G01 X-28.7939 Y50.0186 
G01 X-28.6419 Y49.9411 
G01 X-28.5038 Y49.8408 
G01 X-28.3832 Y49.7202 
G01 X-28.2829 Y49.5821 
G01 X-28.2054 Y49.4301 
G01 X-28.1527 Y49.2678 
G01 X-28.1260 Y49.0993 
G01 X-28.1260 Y47.4207 
G01 X-28.1527 Y47.2522 
G01 X-28.2054 Y47.0899 
G01 X-28.2829 Y46.9379 
G01 X-28.3832 Y46.7998 
G01 X-28.5038 Y46.6792 
G01 X-28.6419 Y46.5789 
G01 X-28.6579 Y46.5707 
G01 X-27.2221 Y46.5707 
G01 X-27.2381 Y46.5789 
G01 X-27.3762 Y46.6792 
G01 X-27.4968 Y46.7998 
G01 X-27.5971 Y46.9379 
G01 X-27.6746 Y47.0899 
G01 X-27.7273 Y47.2522 
G01 X-27.7540 Y47.4207 
G01 X-27.7540 Y49.0993 
G01 X-27.7273 Y49.2678 
G01 X-27.6746 Y49.4301 
G01 X-27.5971 Y49.5821 
G01 X-27.4968 Y49.7202 
G01 X-27.3762 Y49.8408 
G01 X-27.2381 Y49.9411 
G01 X-27.0861 Y50.0186 
G01 X-26.9238 Y50.0713 
G01 X-26.7553 Y50.0980 
G01 X-26.5847 Y50.0980 
G01 X-26.4162 Y50.0713 
G01 X-26.2539 Y50.0186 
G01 X-26.1019 Y49.9411 
G01 X-25.9638 Y49.8408 
G01 X-25.8432 Y49.7202 
G01 X-25.7429 Y49.5821 
G01 X-25.6654 Y49.4301 
G01 X-25.6127 Y49.2678 
G01 X-25.5860 Y49.0993 
G01 X-25.5860 Y47.4207 
G01 X-25.6127 Y47.2522 
G01 X-25.6654 Y47.0899 
G01 X-25.7429 Y46.9379 
G01 X-25.8432 Y46.7998 
G01 X-25.9638 Y46.6792 
G01 X-26.1019 Y46.5789 
G01 X-26.1179 Y46.5707 
G01 X-24.6821 Y46.5707 
G01 X-24.6981 Y46.5789 
G01 X-24.8362 Y46.6792 
G01 X-24.9568 Y46.7998 
G01 X-25.0571 Y46.9379 
G01 X-25.1346 Y47.0899 
G01 X-25.1873 Y47.2522 
G01 X-25.2140 Y47.4207 
G01 X-25.2140 Y49.0993 
G01 X-25.1873 Y49.2678 
G01 X-25.1346 Y49.4301 
G01 X-25.0571 Y49.5821 
G01 X-24.9568 Y49.7202 
G01 X-24.8362 Y49.8408 
G01 X-24.6981 Y49.9411 
G01 X-24.5461 Y50.0186 
G01 X-24.3838 Y50.0713 
G01 X-24.2153 Y50.0980 
G01 X-24.0447 Y50.0980 
G01 X-23.8762 Y50.0713 
G01 X-23.7139 Y50.0186 
G01 X-23.5619 Y49.9411 
G01 X-23.4238 Y49.8408 
G01 X-23.3032 Y49.7202 
G01 X-23.2029 Y49.5821 
G01 X-23.1254 Y49.4301 
G01 X-23.0727 Y49.2678 
G01 X-23.0460 Y49.0993 
G01 X-23.0460 Y47.4207 
G01 X-23.0727 Y47.2522 
G01 X-23.1254 Y47.0899 
G01 X-23.2029 Y46.9379 
G01 X-23.3032 Y46.7998 
G01 X-23.4238 Y46.6792 
G01 X-23.5619 Y46.5789 
G01 X-23.5779 Y46.5707 
G01 X-22.1421 Y46.5707 
G01 X-22.1581 Y46.5789 
G01 X-22.2962 Y46.6792 
G01 X-22.4168 Y46.7998 
G01 X-22.5171 Y46.9379 
G01 X-22.5946 Y47.0899 
G01 X-22.6473 Y47.2522 
G01 X-22.6740 Y47.4207 
G01 X-22.6740 Y49.0993 
G01 X-22.6473 Y49.2678 
G01 X-22.5946 Y49.4301 
G01 X-22.5171 Y49.5821 
G01 X-22.4168 Y49.7202 
G01 X-22.2962 Y49.8408 
G01 X-22.1581 Y49.9411 
G01 X-22.0061 Y50.0186 
G01 X-21.8438 Y50.0713 
G01 X-21.6753 Y50.0980 
G01 X-21.5047 Y50.0980 
G01 X-21.3362 Y50.0713 
G01 X-21.1739 Y50.0186 
G01 X-21.0219 Y49.9411 
G01 X-20.8838 Y49.8408 
G01 X-20.7632 Y49.7202 
G01 X-20.6629 Y49.5821 
G01 X-20.5854 Y49.4301 
G01 X-20.5327 Y49.2678 
G01 X-20.5060 Y49.0993 
G01 X-20.5060 Y47.4207 
G01 X-20.5327 Y47.2522 
G01 X-20.5854 Y47.0899 
G01 X-20.6629 Y46.9379 
G01 X-20.7632 Y46.7998 
G01 X-20.8838 Y46.6792 
G01 X-21.0219 Y46.5789 
G01 X-21.0379 Y46.5707 
G01 X-19.6021 Y46.5707 
G01 X-19.6181 Y46.5789 
G01 X-19.7562 Y46.6792 
G01 X-19.8768 Y46.7998 
G01 X-19.9771 Y46.9379 
G01 X-20.0546 Y47.0899 
G01 X-20.1073 Y47.2522 
G01 X-20.1340 Y47.4207 
G01 X-20.1340 Y49.0993 
G01 X-20.1073 Y49.2678 
G01 X-20.0546 Y49.4301 
G01 X-19.9771 Y49.5821 
G01 X-19.8768 Y49.7202 
G01 X-19.7562 Y49.8408 
G01 X-19.6181 Y49.9411 
G01 X-19.4661 Y50.0186 
G01 X-19.3038 Y50.0713 
G01 X-19.1353 Y50.0980 
