(.../pcb-gcode-3.6.0.4/pcb-gcode.ulp)
(Copyright 2005 - 2012 by John Johnson)
(See readme.txt for licensing terms.)
(This file generated from the board:)
(.../projects/freezeTime/freezeTime.brd)
(Current profile is .../pcb-gcode-3.6.0.4/profiles/emc.pp  )
(This file generated 9.10.2014 22:11:32)
(Settings from pcb-machine.h)
(  Tool Size)
(0.3000 )
(Z Axis Settings)
(  High     Up        Down     Drill)
(12.0000 	3.0000 	-0.0700 	-1.8000 )
(spindle on time = 3.0000)
(milling depth = 0.8000)
(text depth = -0.1100)
(tool change at 0.0000 0.0000 30.0000 )
(feed rate xy = F250.00 )
(feed rate z  = F80.00 )
(Settings from pcb-defaults.h)
(isolate min = 0.0300)
(isolate max = 0.3000)
(isolate step = 0.1500)
(Generated top outlines, top drill, bottom outlines, bottom drill, )
(Unit of measure: mm)
(Metric Mode)
G21
(Absolute Coordinates)
G90
G00 X0.0000 Y0.0000 
M03
G04 P3.000000
G00 Z3.0000 
G00 X50.9800 Y12.3624 
G01 Z-0.0700 F80.00 
G01 X50.9800 Y13.0376 F250.00 
G01 X50.5026 Y13.5150 
G01 X49.8274 Y13.5150 
G01 X49.3500 Y13.0376 
G01 X49.3500 Y12.3624 
G01 X49.8274 Y11.8850 
G01 X49.8411 Y11.8850 
G01 X49.8685 Y11.8375 
G01 X54.3135 Y7.3925 
G01 X54.3825 Y7.3235 
G01 X54.4670 Y7.2748 
G01 X54.5612 Y7.2495 
G01 X88.9488 Y7.2495 
G01 X89.0430 Y7.2748 
G01 X89.1275 Y7.3235 
G01 X92.0875 Y10.2835 
G01 X92.1565 Y10.3525 
G01 X92.2052 Y10.4370 
G01 X92.2305 Y10.5312 
G01 X92.2305 Y25.5150 
G01 X92.3384 Y25.5150 
G01 X93.0150 Y26.1916 
G01 X93.0150 Y27.1484 
G01 X92.3384 Y27.8250 
G01 X91.3816 Y27.8250 
G01 X90.7050 Y27.1484 
G01 X90.7050 Y26.1916 
G01 X91.3816 Y25.5150 
G01 X91.4895 Y25.5150 
G01 X91.4895 Y10.7335 
G01 X88.7465 Y7.9905 
G01 X54.7635 Y7.9905 
G01 X50.6858 Y12.0682 
G01 X50.9800 Y12.3624 
G00 Z3.0000 
G00 X52.4900 Y45.3858 
G01 Z-0.0700 F80.00 
G01 X52.4900 Y43.5142 F250.00 
G01 X52.5174 Y43.4480 
G01 X52.5680 Y43.3974 
G01 X52.6342 Y43.3700 
G01 X53.2870 Y43.3700 
G01 X53.2870 Y35.0721 
G01 X52.8425 Y34.6276 
G01 X52.8425 Y33.9524 
G01 X53.3199 Y33.4750 
G01 X53.9951 Y33.4750 
G01 X54.4725 Y33.9524 
G01 X54.4725 Y34.6276 
G01 X54.0280 Y35.0721 
G01 X54.0280 Y43.3700 
G01 X54.3058 Y43.3700 
G01 X54.3720 Y43.3974 
G01 X54.4226 Y43.4480 
G01 X54.4500 Y43.5142 
G01 X54.4500 Y44.0795 
G01 X55.0979 Y44.0795 
G01 X55.5424 Y43.6350 
G01 X56.2176 Y43.6350 
G01 X56.6950 Y44.1124 
G01 X56.6950 Y44.7876 
G01 X56.2176 Y45.2650 
G01 X55.5424 Y45.2650 
G01 X55.0979 Y44.8205 
G01 X54.4500 Y44.8205 
G01 X54.4500 Y45.3858 
G01 X54.4226 Y45.4520 
G01 X54.3720 Y45.5026 
G01 X54.3058 Y45.5300 
G01 X52.6342 Y45.5300 
G01 X52.5680 Y45.5026 
G01 X52.5174 Y45.4520 
G01 X52.4900 Y45.3858 
G00 Z3.0000 
G00 X49.6900 Y45.3858 
G01 Z-0.0700 F80.00 
G01 X49.6900 Y43.5142 F250.00 
G01 X49.7174 Y43.4480 
G01 X49.7680 Y43.3974 
G01 X49.8342 Y43.3700 
G01 X50.4295 Y43.3700 
G01 X50.4295 Y40.4800 
G01 X49.8642 Y40.4800 
G01 X49.7980 Y40.4526 
G01 X49.7474 Y40.4020 
G01 X49.7200 Y40.3358 
G01 X49.7200 Y38.6642 
G01 X49.7474 Y38.5980 
G01 X49.7980 Y38.5474 
G01 X49.8642 Y38.5200 
G01 X51.1260 Y38.5200 
G01 X52.0170 Y37.6290 
G01 X52.0170 Y31.2621 
G01 X51.5725 Y30.8176 
G01 X51.5725 Y30.1890 
G01 X49.2335 Y27.8500 
G01 X49.1848 Y27.7655 
G01 X49.1595 Y27.6713 
G01 X49.1595 Y19.1971 
G01 X48.7150 Y18.7526 
G01 X48.7150 Y18.0774 
G01 X49.1924 Y17.6000 
G01 X49.8676 Y17.6000 
G01 X50.3450 Y18.0774 
G01 X50.3450 Y18.7526 
G01 X49.9005 Y19.1971 
G01 X49.9005 Y27.4690 
G01 X52.0965 Y29.6650 
G01 X52.7251 Y29.6650 
G01 X53.2025 Y30.1424 
G01 X53.2025 Y30.8176 
G01 X52.7580 Y31.2621 
G01 X52.7580 Y37.8313 
G01 X52.7327 Y37.9255 
G01 X52.6840 Y38.0100 
G01 X52.6150 Y38.0790 
G01 X51.8800 Y38.8140 
G01 X51.8800 Y40.3358 
G01 X51.8526 Y40.4020 
G01 X51.8020 Y40.4526 
G01 X51.7358 Y40.4800 
G01 X51.1705 Y40.4800 
G01 X51.1705 Y43.3700 
G01 X51.5058 Y43.3700 
G01 X51.5720 Y43.3974 
G01 X51.6226 Y43.4480 
G01 X51.6500 Y43.5142 
G01 X51.6500 Y45.3858 
G01 X51.6226 Y45.4520 
G01 X51.5720 Y45.5026 
G01 X51.5058 Y45.5300 
G01 X50.5355 Y45.5300 
G01 X50.5355 Y54.0238 
G01 X50.5102 Y54.1180 
G01 X50.4615 Y54.2025 
G01 X49.7300 Y54.9340 
G01 X49.7300 Y57.1658 
G01 X49.7026 Y57.2320 
G01 X49.6520 Y57.2826 
G01 X49.5858 Y57.3100 
G01 X48.6305 Y57.3100 
G01 X48.6305 Y57.4145 
G01 X68.2095 Y57.4145 
G01 X68.2095 Y57.0120 
G01 X67.6427 Y57.0120 
G01 X67.5765 Y56.9846 
G01 X67.5259 Y56.9340 
G01 X67.4985 Y56.8678 
G01 X67.4985 Y55.3225 
G01 X66.6960 Y54.5200 
G01 X66.6472 Y54.4355 
G01 X66.6220 Y54.3413 
G01 X66.6220 Y47.2587 
G01 X66.6472 Y47.1645 
G01 X66.6960 Y47.0800 
G01 X66.7650 Y47.0110 
G01 X67.1500 Y46.6260 
G01 X67.1500 Y44.3942 
G01 X67.1774 Y44.3280 
G01 X67.2280 Y44.2774 
G01 X67.2942 Y44.2500 
G01 X69.8658 Y44.2500 
G01 X69.9320 Y44.2774 
G01 X69.9826 Y44.3280 
G01 X70.0100 Y44.3942 
G01 X70.0100 Y47.0158 
G01 X69.9826 Y47.0820 
G01 X69.9320 Y47.1326 
G01 X69.8658 Y47.1600 
G01 X67.6640 Y47.1600 
G01 X67.3630 Y47.4610 
G01 X67.3630 Y54.1390 
G01 X68.2760 Y55.0520 
G01 X69.5173 Y55.0520 
G01 X69.5835 Y55.0794 
G01 X69.6341 Y55.1300 
G01 X69.6615 Y55.1962 
G01 X69.6615 Y55.5095 
G01 X74.9027 Y55.5095 
G01 X74.8426 Y55.4789 
G01 X74.7057 Y55.3794 
G01 X74.5860 Y55.2597 
G01 X74.4865 Y55.1228 
G01 X74.4097 Y54.9720 
G01 X74.3574 Y54.8110 
G01 X74.3309 Y54.6438 
G01 X74.3309 Y54.4746 
G01 X74.3574 Y54.3074 
G01 X74.4097 Y54.1464 
G01 X74.4865 Y53.9956 
G01 X74.5860 Y53.8587 
G01 X74.7057 Y53.7390 
G01 X74.8426 Y53.6395 
G01 X74.9935 Y53.5626 
G01 X75.1544 Y53.5103 
G01 X75.3216 Y53.4839 
G01 X76.8022 Y53.4839 
G01 X78.3695 Y51.9165 
G01 X78.3695 Y21.1712 
G01 X78.3948 Y21.0770 
G01 X78.4435 Y20.9925 
G01 X81.4713 Y17.9647 
G01 X81.3950 Y17.8884 
G01 X81.3950 Y16.9316 
G01 X82.0716 Y16.2550 
G01 X83.0284 Y16.2550 
G01 X83.7050 Y16.9316 
G01 X83.7050 Y17.8884 
G01 X83.0284 Y18.5650 
G01 X82.0716 Y18.5650 
G01 X81.9953 Y18.4887 
G01 X79.1105 Y21.3735 
G01 X79.1105 Y52.1188 
G01 X79.0852 Y52.2130 
G01 X79.0365 Y52.2975 
G01 X77.7168 Y53.6172 
G01 X77.7606 Y53.6395 
G01 X77.8975 Y53.7390 
G01 X78.0172 Y53.8587 
G01 X78.1167 Y53.9956 
G01 X78.1935 Y54.1464 
G01 X78.2458 Y54.3074 
G01 X78.2723 Y54.4746 
G01 X78.2723 Y54.6438 
G01 X78.2458 Y54.8110 
G01 X78.1935 Y54.9720 
G01 X78.1167 Y55.1228 
G01 X78.0172 Y55.2597 
G01 X77.8975 Y55.3794 
G01 X77.7606 Y55.4789 
G01 X77.6097 Y55.5558 
G01 X77.4488 Y55.6081 
G01 X77.2816 Y55.6345 
G01 X76.5705 Y55.6345 
G01 X76.5705 Y55.9288 
G01 X76.5452 Y56.0230 
G01 X76.4965 Y56.1075 
G01 X76.4275 Y56.1765 
G01 X76.3430 Y56.2252 
G01 X76.2488 Y56.2505 
G01 X69.6615 Y56.2505 
G01 X69.6615 Y56.8678 
G01 X69.6341 Y56.9340 
G01 X69.5835 Y56.9846 
G01 X69.5173 Y57.0120 
G01 X68.9505 Y57.0120 
G01 X68.9505 Y57.8338 
G01 X68.9252 Y57.9280 
G01 X68.8765 Y58.0125 
G01 X68.8075 Y58.0815 
G01 X68.7230 Y58.1302 
G01 X68.6288 Y58.1555 
G01 X48.2112 Y58.1555 
G01 X48.1170 Y58.1302 
G01 X48.0325 Y58.0815 
G01 X47.9635 Y58.0125 
G01 X47.9148 Y57.9280 
G01 X47.8895 Y57.8338 
G01 X47.8895 Y57.3100 
G01 X46.9642 Y57.3100 
G01 X46.8980 Y57.2826 
G01 X46.8474 Y57.2320 
G01 X46.8200 Y57.1658 
G01 X46.8200 Y56.8855 
G01 X42.3675 Y56.8855 
G01 X42.3420 Y56.9472 
G01 X42.2914 Y56.9978 
G01 X42.2252 Y57.0252 
G01 X40.3363 Y57.0252 
G01 X40.0620 Y57.2995 
G01 X40.1216 Y57.2748 
G01 X42.2252 Y57.2748 
G01 X42.2914 Y57.3022 
G01 X42.3420 Y57.3528 
G01 X42.3694 Y57.4190 
G01 X42.3694 Y58.1510 
G01 X42.3420 Y58.2172 
G01 X42.2914 Y58.2678 
G01 X42.2252 Y58.2952 
G01 X40.1216 Y58.2952 
G01 X40.0554 Y58.2678 
G01 X40.0048 Y58.2172 
G01 X39.9774 Y58.1510 
G01 X39.9774 Y57.4190 
G01 X40.0021 Y57.3594 
G01 X39.2800 Y58.0815 
G01 X39.1955 Y58.1302 
G01 X39.1013 Y58.1555 
G01 X36.2207 Y58.1555 
G01 X36.1952 Y58.2172 
G01 X36.1446 Y58.2678 
G01 X36.0784 Y58.2952 
G01 X35.3971 Y58.2952 
G01 X35.3971 Y59.6445 
G01 X35.7400 Y59.9874 
G01 X35.7400 Y60.6626 
G01 X35.2626 Y61.1400 
G01 X34.5874 Y61.1400 
G01 X34.1100 Y60.6626 
G01 X34.1100 Y59.9874 
G01 X34.5874 Y59.5100 
G01 X34.6561 Y59.5100 
G01 X34.6561 Y58.2952 
G01 X33.9748 Y58.2952 
G01 X33.9086 Y58.2678 
G01 X33.8580 Y58.2172 
G01 X33.8306 Y58.1510 
G01 X33.8306 Y57.4190 
G01 X33.8580 Y57.3528 
G01 X33.9086 Y57.3022 
G01 X33.9748 Y57.2748 
G01 X36.0784 Y57.2748 
G01 X36.1446 Y57.3022 
G01 X36.1952 Y57.3528 
G01 X36.2207 Y57.4145 
G01 X38.8990 Y57.4145 
G01 X39.9774 Y56.3361 
G01 X39.9774 Y56.1490 
G01 X40.0048 Y56.0828 
G01 X40.0554 Y56.0322 
G01 X40.1216 Y56.0048 
G01 X42.2252 Y56.0048 
G01 X42.2914 Y56.0322 
G01 X42.3420 Y56.0828 
G01 X42.3675 Y56.1445 
G01 X46.8200 Y56.1445 
G01 X46.8200 Y54.5942 
G01 X46.8474 Y54.5280 
G01 X46.8980 Y54.4774 
G01 X46.9642 Y54.4500 
G01 X49.1660 Y54.4500 
G01 X49.7945 Y53.8215 
G01 X49.7945 Y45.5136 
G01 X49.7680 Y45.5026 
G01 X49.7174 Y45.4520 
G01 X49.6900 Y45.3858 
G00 Z3.0000 
G00 X44.9768 Y6.7796 
G01 Z-0.0700 F80.00 
G01 X46.4632 Y6.7796 F250.00 
G01 X46.6255 Y6.8119 
G01 X46.7785 Y6.8752 
G01 X46.9161 Y6.9672 
G01 X47.0332 Y7.0843 
G01 X47.1252 Y7.2219 
G01 X47.1885 Y7.3749 
G01 X47.2208 Y7.5372 
G01 X47.2208 Y7.7028 
G01 X47.1885 Y7.8651 
G01 X47.1252 Y8.0181 
G01 X47.0332 Y8.1557 
G01 X46.9161 Y8.2728 
G01 X46.7785 Y8.3648 
G01 X46.6255 Y8.4281 
G01 X46.4632 Y8.4604 
G01 X44.9768 Y8.4604 
G01 X44.8145 Y8.4281 
G01 X44.6615 Y8.3648 
G01 X44.5239 Y8.2728 
G01 X44.4068 Y8.1557 
G01 X44.3148 Y8.0181 
G01 X44.2515 Y7.8651 
G01 X44.2192 Y7.7028 
G01 X44.2192 Y7.5372 
G01 X44.2515 Y7.3749 
G01 X44.3148 Y7.2219 
G01 X44.4068 Y7.0843 
G01 X44.5239 Y6.9672 
G01 X44.6615 Y6.8752 
G01 X44.8145 Y6.8119 
G01 X44.9768 Y6.7796 
G00 Z3.0000 
G00 X44.9768 Y9.3196 
G01 Z-0.0700 F80.00 
G01 X46.4632 Y9.3196 F250.00 
G01 X46.6255 Y9.3519 
G01 X46.7785 Y9.4152 
G01 X46.9161 Y9.5072 
G01 X47.0332 Y9.6243 
G01 X47.1252 Y9.7619 
G01 X47.1885 Y9.9149 
G01 X47.2208 Y10.0772 
G01 X47.2208 Y10.2428 
G01 X47.1885 Y10.4051 
G01 X47.1252 Y10.5581 
G01 X47.0332 Y10.6957 
G01 X46.9161 Y10.8128 
G01 X46.7785 Y10.9047 
G01 X46.6255 Y10.9681 
G01 X46.4632 Y11.0004 
G01 X44.9768 Y11.0004 
G01 X44.8145 Y10.9681 
G01 X44.6615 Y10.9047 
G01 X44.5239 Y10.8128 
G01 X44.4068 Y10.6957 
G01 X44.3148 Y10.5581 
G01 X44.2515 Y10.4051 
G01 X44.2192 Y10.2428 
G01 X44.2192 Y10.0772 
G01 X44.2515 Y9.9149 
G01 X44.3148 Y9.7619 
G01 X44.4068 Y9.6243 
G01 X44.5239 Y9.5072 
G01 X44.6615 Y9.4152 
G01 X44.8145 Y9.3519 
G01 X44.9768 Y9.3196 
G00 Z3.0000 
G00 X44.9768 Y11.8596 
G01 Z-0.0700 F80.00 
G01 X46.4632 Y11.8596 F250.00 
G01 X46.6255 Y11.8919 
G01 X46.7785 Y11.9552 
G01 X46.9161 Y12.0472 
G01 X47.0332 Y12.1643 
G01 X47.1252 Y12.3019 
G01 X47.1885 Y12.4549 
G01 X47.2208 Y12.6172 
G01 X47.2208 Y12.7828 
G01 X47.1885 Y12.9451 
G01 X47.1252 Y13.0981 
G01 X47.0332 Y13.2357 
G01 X46.9161 Y13.3528 
G01 X46.7785 Y13.4448 
G01 X46.6255 Y13.5081 
G01 X46.4632 Y13.5404 
G01 X44.9768 Y13.5404 
G01 X44.8145 Y13.5081 
G01 X44.6615 Y13.4448 
G01 X44.5239 Y13.3528 
G01 X44.4068 Y13.2357 
G01 X44.3148 Y13.0981 
G01 X44.2515 Y12.9451 
G01 X44.2192 Y12.7828 
G01 X44.2192 Y12.6172 
G01 X44.2515 Y12.4549 
G01 X44.3148 Y12.3019 
G01 X44.4068 Y12.1643 
G01 X44.5239 Y12.0472 
G01 X44.6615 Y11.9552 
G01 X44.8145 Y11.8919 
G01 X44.9768 Y11.8596 
G00 Z3.0000 
G00 X44.9768 Y14.3996 
G01 Z-0.0700 F80.00 
G01 X46.4632 Y14.3996 F250.00 
G01 X46.6255 Y14.4319 
G01 X46.7785 Y14.4952 
G01 X46.9161 Y14.5872 
G01 X47.0332 Y14.7043 
G01 X47.1252 Y14.8419 
G01 X47.1885 Y14.9949 
G01 X47.2208 Y15.1572 
G01 X47.2208 Y15.3228 
G01 X47.1885 Y15.4851 
G01 X47.1252 Y15.6381 
G01 X47.0332 Y15.7757 
G01 X46.9161 Y15.8928 
G01 X46.7785 Y15.9848 
G01 X46.6255 Y16.0481 
G01 X46.4632 Y16.0804 
G01 X44.9768 Y16.0804 
G01 X44.8145 Y16.0481 
G01 X44.6615 Y15.9848 
G01 X44.5239 Y15.8928 
G01 X44.4068 Y15.7757 
G01 X44.3148 Y15.6381 
G01 X44.2515 Y15.4851 
G01 X44.2192 Y15.3228 
G01 X44.2192 Y15.1572 
G01 X44.2515 Y14.9949 
G01 X44.3148 Y14.8419 
G01 X44.4068 Y14.7043 
G01 X44.5239 Y14.5872 
G01 X44.6615 Y14.4952 
G01 X44.8145 Y14.4319 
G01 X44.9768 Y14.3996 
G00 Z3.0000 
G00 X44.9768 Y16.9396 
G01 Z-0.0700 F80.00 
G01 X46.4632 Y16.9396 F250.00 
G01 X46.6255 Y16.9719 
G01 X46.7785 Y17.0352 
G01 X46.9161 Y17.1272 
G01 X47.0332 Y17.2443 
G01 X47.1252 Y17.3819 
G01 X47.1885 Y17.5349 
G01 X47.2208 Y17.6972 
G01 X47.2208 Y17.8628 
G01 X47.1885 Y18.0251 
G01 X47.1252 Y18.1781 
G01 X47.0332 Y18.3157 
G01 X46.9161 Y18.4328 
G01 X46.7785 Y18.5248 
G01 X46.6255 Y18.5881 
G01 X46.4632 Y18.6204 
G01 X44.9768 Y18.6204 
G01 X44.8145 Y18.5881 
G01 X44.6615 Y18.5248 
G01 X44.5239 Y18.4328 
G01 X44.4068 Y18.3157 
G01 X44.3148 Y18.1781 
G01 X44.2515 Y18.0251 
G01 X44.2192 Y17.8628 
G01 X44.2192 Y17.6972 
G01 X44.2515 Y17.5349 
G01 X44.3148 Y17.3819 
G01 X44.4068 Y17.2443 
G01 X44.5239 Y17.1272 
G01 X44.6615 Y17.0352 
G01 X44.8145 Y16.9719 
G01 X44.9768 Y16.9396 
G00 Z3.0000 
G00 X44.9768 Y19.4796 
G01 Z-0.0700 F80.00 
G01 X46.4632 Y19.4796 F250.00 
G01 X46.6255 Y19.5119 
G01 X46.7785 Y19.5752 
G01 X46.9161 Y19.6672 
G01 X47.0332 Y19.7843 
G01 X47.1252 Y19.9219 
G01 X47.1885 Y20.0749 
G01 X47.2208 Y20.2372 
G01 X47.2208 Y20.4028 
G01 X47.1885 Y20.5651 
G01 X47.1252 Y20.7181 
G01 X47.0332 Y20.8557 
G01 X46.9161 Y20.9728 
G01 X46.7785 Y21.0648 
G01 X46.6255 Y21.1281 
G01 X46.4632 Y21.1604 
G01 X44.9768 Y21.1604 
G01 X44.8145 Y21.1281 
G01 X44.6615 Y21.0648 
G01 X44.5239 Y20.9728 
G01 X44.4068 Y20.8557 
G01 X44.3148 Y20.7181 
G01 X44.2515 Y20.5651 
G01 X44.2192 Y20.4028 
G01 X44.2192 Y20.2372 
G01 X44.2515 Y20.0749 
G01 X44.3148 Y19.9219 
G01 X44.4068 Y19.7843 
G01 X44.5239 Y19.6672 
G01 X44.6615 Y19.5752 
G01 X44.8145 Y19.5119 
G01 X44.9768 Y19.4796 
G00 Z3.0000 
G00 X44.9768 Y22.0196 
G01 Z-0.0700 F80.00 
G01 X46.4632 Y22.0196 F250.00 
G01 X46.6255 Y22.0519 
G01 X46.7785 Y22.1152 
G01 X46.9161 Y22.2072 
G01 X47.0332 Y22.3243 
G01 X47.1252 Y22.4619 
G01 X47.1885 Y22.6149 
G01 X47.2208 Y22.7772 
G01 X47.2208 Y22.9428 
G01 X47.1885 Y23.1051 
G01 X47.1252 Y23.2581 
G01 X47.0332 Y23.3957 
G01 X46.9161 Y23.5128 
G01 X46.7785 Y23.6048 
G01 X46.6255 Y23.6681 
G01 X46.4632 Y23.7004 
G01 X44.9768 Y23.7004 
G01 X44.8145 Y23.6681 
G01 X44.6615 Y23.6048 
G01 X44.5239 Y23.5128 
G01 X44.4068 Y23.3957 
G01 X44.3148 Y23.2581 
G01 X44.2515 Y23.1051 
G01 X44.2192 Y22.9428 
G01 X44.2192 Y22.7772 
G01 X44.2515 Y22.6149 
G01 X44.3148 Y22.4619 
G01 X44.4068 Y22.3243 
G01 X44.5239 Y22.2072 
G01 X44.6615 Y22.1152 
G01 X44.8145 Y22.0519 
G01 X44.9768 Y22.0196 
G00 Z3.0000 
G00 X44.9768 Y24.5596 
G01 Z-0.0700 F80.00 
G01 X46.4632 Y24.5596 F250.00 
G01 X46.6255 Y24.5919 
G01 X46.7785 Y24.6552 
G01 X46.9161 Y24.7472 
G01 X47.0332 Y24.8643 
G01 X47.1252 Y25.0019 
G01 X47.1885 Y25.1549 
G01 X47.2208 Y25.3172 
G01 X47.2208 Y25.4828 
G01 X47.1885 Y25.6451 
G01 X47.1252 Y25.7981 
G01 X47.0332 Y25.9357 
G01 X46.9161 Y26.0528 
G01 X46.7785 Y26.1448 
G01 X46.6255 Y26.2081 
G01 X46.4632 Y26.2404 
G01 X44.9768 Y26.2404 
G01 X44.8145 Y26.2081 
G01 X44.6615 Y26.1448 
G01 X44.5239 Y26.0528 
G01 X44.4068 Y25.9357 
G01 X44.3148 Y25.7981 
G01 X44.2515 Y25.6451 
G01 X44.2192 Y25.4828 
G01 X44.2192 Y25.3172 
G01 X44.2515 Y25.1549 
G01 X44.3148 Y25.0019 
G01 X44.4068 Y24.8643 
G01 X44.5239 Y24.7472 
G01 X44.6615 Y24.6552 
G01 X44.8145 Y24.5919 
G01 X44.9768 Y24.5596 
G00 Z3.0000 
G00 X44.9768 Y27.0996 
G01 Z-0.0700 F80.00 
G01 X46.4632 Y27.0996 F250.00 
G01 X46.6255 Y27.1319 
G01 X46.7785 Y27.1952 
G01 X46.9161 Y27.2872 
G01 X47.0332 Y27.4043 
G01 X47.1252 Y27.5419 
G01 X47.1885 Y27.6949 
G01 X47.2208 Y27.8572 
G01 X47.2208 Y28.0228 
G01 X47.1885 Y28.1851 
G01 X47.1252 Y28.3381 
G01 X47.0332 Y28.4757 
G01 X46.9161 Y28.5928 
G01 X46.7785 Y28.6848 
G01 X46.6255 Y28.7481 
G01 X46.4632 Y28.7804 
G01 X44.9768 Y28.7804 
G01 X44.8145 Y28.7481 
G01 X44.6615 Y28.6848 
G01 X44.5239 Y28.5928 
G01 X44.4068 Y28.4757 
G01 X44.3148 Y28.3381 
G01 X44.2515 Y28.1851 
G01 X44.2192 Y28.0228 
G01 X44.2192 Y27.8572 
G01 X44.2515 Y27.6949 
G01 X44.3148 Y27.5419 
G01 X44.4068 Y27.4043 
G01 X44.5239 Y27.2872 
G01 X44.6615 Y27.1952 
G01 X44.8145 Y27.1319 
G01 X44.9768 Y27.0996 
G00 Z3.0000 
G00 X44.9768 Y29.6396 
G01 Z-0.0700 F80.00 
G01 X46.4632 Y29.6396 F250.00 
G01 X46.6255 Y29.6719 
G01 X46.7785 Y29.7352 
G01 X46.9161 Y29.8272 
G01 X47.0332 Y29.9443 
G01 X47.1252 Y30.0819 
G01 X47.1885 Y30.2349 
G01 X47.2208 Y30.3972 
G01 X47.2208 Y30.5628 
G01 X47.1885 Y30.7251 
G01 X47.1252 Y30.8781 
G01 X47.0332 Y31.0157 
G01 X46.9161 Y31.1328 
G01 X46.7785 Y31.2248 
G01 X46.6255 Y31.2881 
G01 X46.4632 Y31.3204 
G01 X44.9768 Y31.3204 
G01 X44.8145 Y31.2881 
G01 X44.6615 Y31.2248 
G01 X44.5239 Y31.1328 
G01 X44.4068 Y31.0157 
G01 X44.3148 Y30.8781 
G01 X44.2515 Y30.7251 
G01 X44.2192 Y30.5628 
G01 X44.2192 Y30.3972 
G01 X44.2515 Y30.2349 
G01 X44.3148 Y30.0819 
G01 X44.4068 Y29.9443 
G01 X44.5239 Y29.8272 
G01 X44.6615 Y29.7352 
G01 X44.8145 Y29.6719 
G01 X44.9768 Y29.6396 
G00 Z3.0000 
G00 X44.9768 Y32.1796 
G01 Z-0.0700 F80.00 
G01 X46.4632 Y32.1796 F250.00 
G01 X46.6255 Y32.2119 
G01 X46.7785 Y32.2752 
G01 X46.9161 Y32.3672 
G01 X47.0332 Y32.4843 
G01 X47.1252 Y32.6219 
G01 X47.1885 Y32.7749 
G01 X47.2208 Y32.9372 
G01 X47.2208 Y33.1028 
G01 X47.1885 Y33.2651 
G01 X47.1252 Y33.4181 
G01 X47.0332 Y33.5557 
G01 X46.9161 Y33.6728 
G01 X46.7785 Y33.7647 
G01 X46.6255 Y33.8281 
G01 X46.4632 Y33.8604 
G01 X44.9768 Y33.8604 
G01 X44.8145 Y33.8281 
G01 X44.6615 Y33.7647 
G01 X44.5239 Y33.6728 
G01 X44.4068 Y33.5557 
G01 X44.3148 Y33.4181 
G01 X44.2515 Y33.2651 
G01 X44.2192 Y33.1028 
G01 X44.2192 Y32.9372 
G01 X44.2515 Y32.7749 
G01 X44.3148 Y32.6219 
G01 X44.4068 Y32.4843 
G01 X44.5239 Y32.3672 
G01 X44.6615 Y32.2752 
G01 X44.8145 Y32.2119 
G01 X44.9768 Y32.1796 
G00 Z3.0000 
G00 X44.9768 Y34.7196 
G01 Z-0.0700 F80.00 
G01 X46.4632 Y34.7196 F250.00 
G01 X46.6255 Y34.7519 
G01 X46.7785 Y34.8152 
G01 X46.9161 Y34.9072 
G01 X47.0332 Y35.0243 
G01 X47.1252 Y35.1619 
G01 X47.1885 Y35.3149 
G01 X47.2208 Y35.4772 
G01 X47.2208 Y35.6428 
G01 X47.1885 Y35.8051 
G01 X47.1252 Y35.9581 
G01 X47.0332 Y36.0957 
G01 X46.9161 Y36.2128 
G01 X46.7785 Y36.3047 
G01 X46.6255 Y36.3681 
G01 X46.4632 Y36.4004 
G01 X44.9768 Y36.4004 
G01 X44.8145 Y36.3681 
G01 X44.6615 Y36.3047 
G01 X44.5239 Y36.2128 
G01 X44.4068 Y36.0957 
G01 X44.3148 Y35.9581 
G01 X44.2515 Y35.8051 
G01 X44.2192 Y35.6428 
G01 X44.2192 Y35.4772 
G01 X44.2515 Y35.3149 
G01 X44.3148 Y35.1619 
G01 X44.4068 Y35.0243 
G01 X44.5239 Y34.9072 
G01 X44.6615 Y34.8152 
G01 X44.8145 Y34.7519 
G01 X44.9768 Y34.7196 
G00 Z3.0000 
G00 X44.9768 Y37.2596 
G01 Z-0.0700 F80.00 
G01 X46.4632 Y37.2596 F250.00 
G01 X46.6255 Y37.2919 
G01 X46.7785 Y37.3552 
G01 X46.9161 Y37.4472 
G01 X47.0332 Y37.5643 
G01 X47.1252 Y37.7019 
G01 X47.1885 Y37.8549 
G01 X47.2208 Y38.0172 
G01 X47.2208 Y38.1828 
G01 X47.1885 Y38.3451 
G01 X47.1252 Y38.4981 
G01 X47.0332 Y38.6357 
G01 X46.9161 Y38.7528 
G01 X46.7785 Y38.8448 
G01 X46.6255 Y38.9081 
G01 X46.4632 Y38.9404 
G01 X44.9768 Y38.9404 
G01 X44.8145 Y38.9081 
G01 X44.6615 Y38.8448 
G01 X44.5239 Y38.7528 
G01 X44.4068 Y38.6357 
G01 X44.3148 Y38.4981 
G01 X44.2515 Y38.3451 
G01 X44.2192 Y38.1828 
G01 X44.2192 Y38.0172 
G01 X44.2515 Y37.8549 
G01 X44.3148 Y37.7019 
G01 X44.4068 Y37.5643 
G01 X44.5239 Y37.4472 
G01 X44.6615 Y37.3552 
G01 X44.8145 Y37.2919 
G01 X44.9768 Y37.2596 
G00 Z3.0000 
G00 X44.9768 Y39.7996 
G01 Z-0.0700 F80.00 
G01 X46.4632 Y39.7996 F250.00 
G01 X46.6255 Y39.8319 
G01 X46.7785 Y39.8952 
G01 X46.9161 Y39.9872 
G01 X47.0332 Y40.1043 
G01 X47.1252 Y40.2419 
G01 X47.1885 Y40.3949 
G01 X47.2208 Y40.5572 
G01 X47.2208 Y40.7228 
G01 X47.1885 Y40.8851 
G01 X47.1252 Y41.0381 
G01 X47.0332 Y41.1757 
G01 X46.9161 Y41.2928 
G01 X46.7785 Y41.3848 
G01 X46.6255 Y41.4481 
G01 X46.4632 Y41.4804 
G01 X44.9768 Y41.4804 
G01 X44.8145 Y41.4481 
G01 X44.6615 Y41.3848 
G01 X44.5239 Y41.2928 
G01 X44.4068 Y41.1757 
G01 X44.3148 Y41.0381 
G01 X44.2515 Y40.8851 
G01 X44.2192 Y40.7228 
G01 X44.2192 Y40.5572 
G01 X44.2515 Y40.3949 
G01 X44.3148 Y40.2419 
G01 X44.4068 Y40.1043 
G01 X44.5239 Y39.9872 
G01 X44.6615 Y39.8952 
G01 X44.8145 Y39.8319 
G01 X44.9768 Y39.7996 
G00 Z3.0000 
G00 X37.3568 Y39.7996 
G01 Z-0.0700 F80.00 
G01 X38.8432 Y39.7996 F250.00 
G01 X39.0055 Y39.8319 
G01 X39.1585 Y39.8952 
G01 X39.2961 Y39.9872 
G01 X39.4132 Y40.1043 
G01 X39.5052 Y40.2419 
G01 X39.5685 Y40.3949 
G01 X39.6008 Y40.5572 
G01 X39.6008 Y40.7228 
G01 X39.5685 Y40.8851 
G01 X39.5052 Y41.0381 
G01 X39.4132 Y41.1757 
G01 X39.2961 Y41.2928 
G01 X39.1585 Y41.3848 
G01 X39.0055 Y41.4481 
G01 X38.8432 Y41.4804 
G01 X37.3568 Y41.4804 
G01 X37.1945 Y41.4481 
G01 X37.0415 Y41.3848 
G01 X36.9039 Y41.2928 
G01 X36.7868 Y41.1757 
G01 X36.6948 Y41.0381 
G01 X36.6315 Y40.8851 
G01 X36.5992 Y40.7228 
G01 X36.5992 Y40.5572 
G01 X36.6315 Y40.3949 
G01 X36.6948 Y40.2419 
G01 X36.7868 Y40.1043 
G01 X36.9039 Y39.9872 
G01 X37.0415 Y39.8952 
G01 X37.1945 Y39.8319 
G01 X37.3568 Y39.7996 
G00 Z3.0000 
G00 X37.3568 Y37.2596 
G01 Z-0.0700 F80.00 
G01 X38.8432 Y37.2596 F250.00 
G01 X39.0055 Y37.2919 
G01 X39.1585 Y37.3552 
G01 X39.2961 Y37.4472 
G01 X39.4132 Y37.5643 
G01 X39.5052 Y37.7019 
G01 X39.5685 Y37.8549 
G01 X39.6008 Y38.0172 
G01 X39.6008 Y38.1828 
G01 X39.5685 Y38.3451 
G01 X39.5052 Y38.4981 
G01 X39.4132 Y38.6357 
G01 X39.2961 Y38.7528 
G01 X39.1585 Y38.8448 
G01 X39.0055 Y38.9081 
G01 X38.8432 Y38.9404 
G01 X37.3568 Y38.9404 
G01 X37.1945 Y38.9081 
G01 X37.0415 Y38.8448 
G01 X36.9039 Y38.7528 
G01 X36.7868 Y38.6357 
G01 X36.6948 Y38.4981 
G01 X36.6315 Y38.3451 
G01 X36.5992 Y38.1828 
G01 X36.5992 Y38.0172 
G01 X36.6315 Y37.8549 
G01 X36.6948 Y37.7019 
G01 X36.7868 Y37.5643 
G01 X36.9039 Y37.4472 
G01 X37.0415 Y37.3552 
G01 X37.1945 Y37.2919 
G01 X37.3568 Y37.2596 
G00 Z3.0000 
G00 X37.3568 Y34.7196 
G01 Z-0.0700 F80.00 
G01 X38.8432 Y34.7196 F250.00 
G01 X39.0055 Y34.7519 
G01 X39.1585 Y34.8152 
G01 X39.2961 Y34.9072 
G01 X39.4132 Y35.0243 
G01 X39.5052 Y35.1619 
G01 X39.5685 Y35.3149 
G01 X39.6008 Y35.4772 
G01 X39.6008 Y35.6428 
G01 X39.5685 Y35.8051 
G01 X39.5052 Y35.9581 
G01 X39.4132 Y36.0957 
G01 X39.2961 Y36.2128 
G01 X39.1585 Y36.3047 
G01 X39.0055 Y36.3681 
G01 X38.8432 Y36.4004 
G01 X37.3568 Y36.4004 
G01 X37.1945 Y36.3681 
G01 X37.0415 Y36.3047 
G01 X36.9039 Y36.2128 
G01 X36.7868 Y36.0957 
G01 X36.6948 Y35.9581 
G01 X36.6315 Y35.8051 
G01 X36.5992 Y35.6428 
G01 X36.5992 Y35.4772 
G01 X36.6315 Y35.3149 
G01 X36.6948 Y35.1619 
G01 X36.7868 Y35.0243 
G01 X36.9039 Y34.9072 
G01 X37.0415 Y34.8152 
G01 X37.1945 Y34.7519 
G01 X37.3568 Y34.7196 
G00 Z3.0000 
G00 X37.3568 Y32.1796 
G01 Z-0.0700 F80.00 
G01 X38.8432 Y32.1796 F250.00 
G01 X39.0055 Y32.2119 
G01 X39.1585 Y32.2752 
G01 X39.2961 Y32.3672 
G01 X39.4132 Y32.4843 
G01 X39.5052 Y32.6219 
G01 X39.5685 Y32.7749 
G01 X39.6008 Y32.9372 
G01 X39.6008 Y33.1028 
G01 X39.5685 Y33.2651 
G01 X39.5052 Y33.4181 
G01 X39.4132 Y33.5557 
G01 X39.2961 Y33.6728 
G01 X39.1585 Y33.7647 
G01 X39.0055 Y33.8281 
G01 X38.8432 Y33.8604 
G01 X37.3568 Y33.8604 
G01 X37.1945 Y33.8281 
G01 X37.0415 Y33.7647 
G01 X36.9039 Y33.6728 
G01 X36.7868 Y33.5557 
G01 X36.6948 Y33.4181 
G01 X36.6315 Y33.2651 
G01 X36.5992 Y33.1028 
G01 X36.5992 Y32.9372 
G01 X36.6315 Y32.7749 
G01 X36.6948 Y32.6219 
G01 X36.7868 Y32.4843 
G01 X36.9039 Y32.3672 
G01 X37.0415 Y32.2752 
G01 X37.1945 Y32.2119 
G01 X37.3568 Y32.1796 
G00 Z3.0000 
G00 X37.3568 Y29.6396 
G01 Z-0.0700 F80.00 
G01 X38.8432 Y29.6396 F250.00 
G01 X39.0055 Y29.6719 
G01 X39.1585 Y29.7352 
G01 X39.2961 Y29.8272 
G01 X39.4132 Y29.9443 
G01 X39.5052 Y30.0819 
G01 X39.5685 Y30.2349 
G01 X39.6008 Y30.3972 
G01 X39.6008 Y30.5628 
G01 X39.5685 Y30.7251 
G01 X39.5052 Y30.8781 
G01 X39.4132 Y31.0157 
G01 X39.2961 Y31.1328 
G01 X39.1585 Y31.2248 
G01 X39.0055 Y31.2881 
G01 X38.8432 Y31.3204 
G01 X37.3568 Y31.3204 
G01 X37.1945 Y31.2881 
G01 X37.0415 Y31.2248 
G01 X36.9039 Y31.1328 
G01 X36.7868 Y31.0157 
G01 X36.6948 Y30.8781 
G01 X36.6315 Y30.7251 
G01 X36.5992 Y30.5628 
G01 X36.5992 Y30.3972 
G01 X36.6315 Y30.2349 
G01 X36.6948 Y30.0819 
G01 X36.7868 Y29.9443 
G01 X36.9039 Y29.8272 
G01 X37.0415 Y29.7352 
G01 X37.1945 Y29.6719 
G01 X37.3568 Y29.6396 
G00 Z3.0000 
G00 X37.3568 Y27.0996 
G01 Z-0.0700 F80.00 
G01 X38.8432 Y27.0996 F250.00 
G01 X39.0055 Y27.1319 
G01 X39.1585 Y27.1952 
G01 X39.2961 Y27.2872 
G01 X39.4132 Y27.4043 
G01 X39.5052 Y27.5419 
G01 X39.5685 Y27.6949 
G01 X39.6008 Y27.8572 
G01 X39.6008 Y28.0228 
G01 X39.5685 Y28.1851 
G01 X39.5052 Y28.3381 
G01 X39.4132 Y28.4757 
G01 X39.2961 Y28.5928 
G01 X39.1585 Y28.6848 
G01 X39.0055 Y28.7481 
G01 X38.8432 Y28.7804 
G01 X37.3568 Y28.7804 
G01 X37.1945 Y28.7481 
G01 X37.0415 Y28.6848 
G01 X36.9039 Y28.5928 
G01 X36.7868 Y28.4757 
G01 X36.6948 Y28.3381 
G01 X36.6315 Y28.1851 
G01 X36.5992 Y28.0228 
G01 X36.5992 Y27.8572 
G01 X36.6315 Y27.6949 
G01 X36.6948 Y27.5419 
G01 X36.7868 Y27.4043 
G01 X36.9039 Y27.2872 
G01 X37.0415 Y27.1952 
G01 X37.1945 Y27.1319 
G01 X37.3568 Y27.0996 
G00 Z3.0000 
G00 X37.3568 Y24.5596 
G01 Z-0.0700 F80.00 
G01 X38.8432 Y24.5596 F250.00 
G01 X39.0055 Y24.5919 
G01 X39.1585 Y24.6552 
G01 X39.2961 Y24.7472 
G01 X39.4132 Y24.8643 
G01 X39.5052 Y25.0019 
G01 X39.5685 Y25.1549 
G01 X39.6008 Y25.3172 
G01 X39.6008 Y25.4828 
G01 X39.5685 Y25.6451 
G01 X39.5052 Y25.7981 
G01 X39.4132 Y25.9357 
G01 X39.2961 Y26.0528 
G01 X39.1585 Y26.1448 
G01 X39.0055 Y26.2081 
G01 X38.8432 Y26.2404 
G01 X37.3568 Y26.2404 
G01 X37.1945 Y26.2081 
G01 X37.0415 Y26.1448 
G01 X36.9039 Y26.0528 
G01 X36.7868 Y25.9357 
G01 X36.6948 Y25.7981 
G01 X36.6315 Y25.6451 
G01 X36.5992 Y25.4828 
G01 X36.5992 Y25.3172 
G01 X36.6315 Y25.1549 
G01 X36.6948 Y25.0019 
G01 X36.7868 Y24.8643 
G01 X36.9039 Y24.7472 
G01 X37.0415 Y24.6552 
G01 X37.1945 Y24.5919 
G01 X37.3568 Y24.5596 
G00 Z3.0000 
G00 X37.3568 Y22.0196 
G01 Z-0.0700 F80.00 
G01 X38.8432 Y22.0196 F250.00 
G01 X39.0055 Y22.0519 
G01 X39.1585 Y22.1152 
G01 X39.2961 Y22.2072 
G01 X39.4132 Y22.3243 
G01 X39.5052 Y22.4619 
G01 X39.5685 Y22.6149 
G01 X39.6008 Y22.7772 
G01 X39.6008 Y22.9428 
G01 X39.5685 Y23.1051 
G01 X39.5052 Y23.2581 
G01 X39.4132 Y23.3957 
G01 X39.2961 Y23.5128 
G01 X39.1585 Y23.6048 
G01 X39.0055 Y23.6681 
G01 X38.8432 Y23.7004 
G01 X37.3568 Y23.7004 
G01 X37.1945 Y23.6681 
G01 X37.0415 Y23.6048 
G01 X36.9039 Y23.5128 
G01 X36.7868 Y23.3957 
G01 X36.6948 Y23.2581 
G01 X36.6315 Y23.1051 
G01 X36.5992 Y22.9428 
G01 X36.5992 Y22.7772 
G01 X36.6315 Y22.6149 
G01 X36.6948 Y22.4619 
G01 X36.7868 Y22.3243 
G01 X36.9039 Y22.2072 
G01 X37.0415 Y22.1152 
G01 X37.1945 Y22.0519 
G01 X37.3568 Y22.0196 
G00 Z3.0000 
G00 X37.3568 Y19.4796 
G01 Z-0.0700 F80.00 
G01 X38.8432 Y19.4796 F250.00 
G01 X39.0055 Y19.5119 
G01 X39.1585 Y19.5752 
G01 X39.2961 Y19.6672 
G01 X39.4132 Y19.7843 
G01 X39.5052 Y19.9219 
G01 X39.5685 Y20.0749 
G01 X39.6008 Y20.2372 
G01 X39.6008 Y20.4028 
G01 X39.5685 Y20.5651 
G01 X39.5052 Y20.7181 
G01 X39.4132 Y20.8557 
G01 X39.2961 Y20.9728 
G01 X39.1585 Y21.0648 
G01 X39.0055 Y21.1281 
G01 X38.8432 Y21.1604 
G01 X37.3568 Y21.1604 
G01 X37.1945 Y21.1281 
G01 X37.0415 Y21.0648 
G01 X36.9039 Y20.9728 
G01 X36.7868 Y20.8557 
G01 X36.6948 Y20.7181 
G01 X36.6315 Y20.5651 
G01 X36.5992 Y20.4028 
G01 X36.5992 Y20.2372 
G01 X36.6315 Y20.0749 
G01 X36.6948 Y19.9219 
G01 X36.7868 Y19.7843 
G01 X36.9039 Y19.6672 
G01 X37.0415 Y19.5752 
G01 X37.1945 Y19.5119 
G01 X37.3568 Y19.4796 
G00 Z3.0000 
G00 X37.3568 Y16.9396 
G01 Z-0.0700 F80.00 
G01 X38.8432 Y16.9396 F250.00 
G01 X39.0055 Y16.9719 
G01 X39.1585 Y17.0352 
G01 X39.2961 Y17.1272 
G01 X39.4132 Y17.2443 
G01 X39.5052 Y17.3819 
G01 X39.5685 Y17.5349 
G01 X39.6008 Y17.6972 
G01 X39.6008 Y17.8628 
G01 X39.5685 Y18.0251 
G01 X39.5052 Y18.1781 
G01 X39.4132 Y18.3157 
G01 X39.2961 Y18.4328 
G01 X39.1585 Y18.5248 
G01 X39.0055 Y18.5881 
G01 X38.8432 Y18.6204 
G01 X37.3568 Y18.6204 
G01 X37.1945 Y18.5881 
G01 X37.0415 Y18.5248 
G01 X36.9039 Y18.4328 
G01 X36.7868 Y18.3157 
G01 X36.6948 Y18.1781 
G01 X36.6315 Y18.0251 
G01 X36.5992 Y17.8628 
G01 X36.5992 Y17.6972 
G01 X36.6315 Y17.5349 
G01 X36.6948 Y17.3819 
G01 X36.7868 Y17.2443 
G01 X36.9039 Y17.1272 
G01 X37.0415 Y17.0352 
G01 X37.1945 Y16.9719 
G01 X37.3568 Y16.9396 
G00 Z3.0000 
G00 X37.3568 Y14.3996 
G01 Z-0.0700 F80.00 
G01 X38.8432 Y14.3996 F250.00 
G01 X39.0055 Y14.4319 
G01 X39.1585 Y14.4952 
G01 X39.2961 Y14.5872 
G01 X39.4132 Y14.7043 
G01 X39.5052 Y14.8419 
G01 X39.5685 Y14.9949 
G01 X39.6008 Y15.1572 
G01 X39.6008 Y15.3228 
G01 X39.5685 Y15.4851 
G01 X39.5052 Y15.6381 
G01 X39.4132 Y15.7757 
G01 X39.2961 Y15.8928 
G01 X39.1585 Y15.9848 
G01 X39.0055 Y16.0481 
G01 X38.8432 Y16.0804 
G01 X37.3568 Y16.0804 
G01 X37.1945 Y16.0481 
G01 X37.0415 Y15.9848 
G01 X36.9039 Y15.8928 
G01 X36.7868 Y15.7757 
G01 X36.6948 Y15.6381 
G01 X36.6315 Y15.4851 
G01 X36.5992 Y15.3228 
G01 X36.5992 Y15.1572 
G01 X36.6315 Y14.9949 
G01 X36.6948 Y14.8419 
G01 X36.7868 Y14.7043 
G01 X36.9039 Y14.5872 
G01 X37.0415 Y14.4952 
G01 X37.1945 Y14.4319 
G01 X37.3568 Y14.3996 
G00 Z3.0000 
G00 X37.3568 Y11.8596 
G01 Z-0.0700 F80.00 
G01 X38.8432 Y11.8596 F250.00 
G01 X39.0055 Y11.8919 
G01 X39.1585 Y11.9552 
G01 X39.2961 Y12.0472 
G01 X39.4132 Y12.1643 
G01 X39.5052 Y12.3019 
G01 X39.5685 Y12.4549 
G01 X39.6008 Y12.6172 
G01 X39.6008 Y12.7828 
G01 X39.5685 Y12.9451 
G01 X39.5052 Y13.0981 
G01 X39.4132 Y13.2357 
G01 X39.2961 Y13.3528 
G01 X39.1585 Y13.4448 
G01 X39.0055 Y13.5081 
G01 X38.8432 Y13.5404 
G01 X37.3568 Y13.5404 
G01 X37.1945 Y13.5081 
G01 X37.0415 Y13.4448 
G01 X36.9039 Y13.3528 
G01 X36.7868 Y13.2357 
G01 X36.6948 Y13.0981 
G01 X36.6315 Y12.9451 
G01 X36.5992 Y12.7828 
G01 X36.5992 Y12.6172 
G01 X36.6315 Y12.4549 
G01 X36.6948 Y12.3019 
G01 X36.7868 Y12.1643 
G01 X36.9039 Y12.0472 
G01 X37.0415 Y11.9552 
G01 X37.1945 Y11.8919 
G01 X37.3568 Y11.8596 
G00 Z3.0000 
G00 X37.3568 Y9.3196 
G01 Z-0.0700 F80.00 
G01 X38.8432 Y9.3196 F250.00 
G01 X39.0055 Y9.3519 
G01 X39.1585 Y9.4152 
G01 X39.2961 Y9.5072 
G01 X39.4132 Y9.6243 
G01 X39.5052 Y9.7619 
G01 X39.5685 Y9.9149 
G01 X39.6008 Y10.0772 
G01 X39.6008 Y10.2428 
G01 X39.5685 Y10.4051 
G01 X39.5052 Y10.5581 
G01 X39.4132 Y10.6957 
G01 X39.2961 Y10.8128 
G01 X39.1585 Y10.9047 
G01 X39.0055 Y10.9681 
G01 X38.8432 Y11.0004 
G01 X37.3568 Y11.0004 
G01 X37.1945 Y10.9681 
G01 X37.0415 Y10.9047 
G01 X36.9039 Y10.8128 
G01 X36.7868 Y10.6957 
G01 X36.6948 Y10.5581 
G01 X36.6315 Y10.4051 
G01 X36.5992 Y10.2428 
G01 X36.5992 Y10.0772 
G01 X36.6315 Y9.9149 
G01 X36.6948 Y9.7619 
G01 X36.7868 Y9.6243 
G01 X36.9039 Y9.5072 
G01 X37.0415 Y9.4152 
G01 X37.1945 Y9.3519 
G01 X37.3568 Y9.3196 
G00 Z3.0000 
G00 X37.3568 Y6.7796 
G01 Z-0.0700 F80.00 
G01 X38.8432 Y6.7796 F250.00 
G01 X39.0055 Y6.8119 
G01 X39.1585 Y6.8752 
G01 X39.2961 Y6.9672 
G01 X39.4132 Y7.0843 
G01 X39.5052 Y7.2219 
G01 X39.5685 Y7.3749 
G01 X39.6008 Y7.5372 
G01 X39.6008 Y7.7028 
G01 X39.5685 Y7.8651 
G01 X39.5052 Y8.0181 
G01 X39.4132 Y8.1557 
G01 X39.2961 Y8.2728 
G01 X39.1585 Y8.3648 
G01 X39.0055 Y8.4281 
G01 X38.8432 Y8.4604 
G01 X37.3568 Y8.4604 
G01 X37.1945 Y8.4281 
G01 X37.0415 Y8.3648 
G01 X36.9039 Y8.2728 
G01 X36.7868 Y8.1557 
G01 X36.6948 Y8.0181 
G01 X36.6315 Y7.8651 
G01 X36.5992 Y7.7028 
G01 X36.5992 Y7.5372 
G01 X36.6315 Y7.3749 
G01 X36.6948 Y7.2219 
G01 X36.7868 Y7.0843 
G01 X36.9039 Y6.9672 
G01 X37.0415 Y6.8752 
G01 X37.1945 Y6.8119 
G01 X37.3568 Y6.7796 
G00 Z3.0000 
G00 X61.1654 Y44.8752 
G01 Z-0.0700 F80.00 
G01 X61.1654 Y45.0408 F250.00 
G01 X61.1331 Y45.2031 
G01 X61.0698 Y45.3561 
G01 X60.9778 Y45.4937 
G01 X60.8607 Y45.6108 
G01 X60.7231 Y45.7028 
G01 X60.5701 Y45.7661 
G01 X60.4078 Y45.7984 
G01 X60.2422 Y45.7984 
G01 X60.0799 Y45.7661 
G01 X59.9269 Y45.7028 
G01 X59.7893 Y45.6108 
G01 X59.6722 Y45.4937 
G01 X59.5802 Y45.3561 
G01 X59.5169 Y45.2031 
G01 X59.4846 Y45.0408 
G01 X59.4846 Y44.8752 
G01 X59.5169 Y44.7129 
G01 X59.5802 Y44.5599 
G01 X59.6722 Y44.4223 
G01 X59.7893 Y44.3052 
G01 X59.9269 Y44.2132 
G01 X60.0799 Y44.1499 
G01 X60.2422 Y44.1176 
G01 X60.4078 Y44.1176 
G01 X60.5701 Y44.1499 
G01 X60.7231 Y44.2132 
G01 X60.8607 Y44.3052 
G01 X60.9778 Y44.4223 
G01 X61.0698 Y44.5599 
G01 X61.1331 Y44.7129 
G01 X61.1654 Y44.8752 
G00 Z3.0000 
G00 X61.1654 Y40.0492 
G01 Z-0.0700 F80.00 
G01 X61.1654 Y40.2148 F250.00 
G01 X61.1331 Y40.3771 
G01 X61.0698 Y40.5301 
G01 X60.9778 Y40.6677 
G01 X60.8607 Y40.7848 
G01 X60.7231 Y40.8768 
G01 X60.5701 Y40.9401 
G01 X60.4078 Y40.9724 
G01 X60.2422 Y40.9724 
G01 X60.0799 Y40.9401 
G01 X59.9269 Y40.8768 
G01 X59.7893 Y40.7848 
G01 X59.6722 Y40.6677 
G01 X59.5802 Y40.5301 
G01 X59.5169 Y40.3771 
G01 X59.4846 Y40.2148 
G01 X59.4846 Y40.0492 
G01 X59.5169 Y39.8869 
G01 X59.5802 Y39.7339 
G01 X59.6722 Y39.5963 
G01 X59.7893 Y39.4792 
G01 X59.9269 Y39.3872 
G01 X60.0799 Y39.3239 
G01 X60.2422 Y39.2916 
G01 X60.4078 Y39.2916 
G01 X60.5701 Y39.3239 
G01 X60.7231 Y39.3872 
G01 X60.8607 Y39.4792 
G01 X60.9778 Y39.5963 
G01 X61.0698 Y39.7339 
G01 X61.1331 Y39.8869 
G01 X61.1654 Y40.0492 
G00 Z3.0000 
G00 X83.7050 Y35.4516 
G01 Z-0.0700 F80.00 
G01 X83.7050 Y36.4084 F250.00 
G01 X83.0284 Y37.0850 
G01 X82.0716 Y37.0850 
G01 X81.3950 Y36.4084 
G01 X81.3950 Y35.4516 
G01 X82.0716 Y34.7750 
G01 X83.0284 Y34.7750 
G01 X83.1047 Y34.8513 
G01 X84.4020 Y33.5540 
G01 X84.4020 Y14.3405 
G01 X80.1635 Y14.3405 
G01 X72.0515 Y22.4525 
G01 X71.9825 Y22.5215 
G01 X71.8980 Y22.5702 
G01 X71.8038 Y22.5955 
G01 X52.6562 Y22.5955 
G01 X52.5620 Y22.5702 
G01 X52.4775 Y22.5215 
G01 X52.4085 Y22.4525 
G01 X52.3598 Y22.3680 
G01 X52.3345 Y22.2738 
G01 X52.3345 Y14.6580 
G01 X48.2275 Y14.6580 
G01 X47.9100 Y14.9755 
G01 X47.3400 Y14.9755 
G01 X46.9370 Y14.5725 
G01 X46.9370 Y14.0025 
G01 X47.3400 Y13.5995 
G01 X47.9100 Y13.5995 
G01 X48.2275 Y13.9170 
G01 X52.7538 Y13.9170 
G01 X52.8480 Y13.9423 
G01 X52.9325 Y13.9910 
G01 X53.0015 Y14.0600 
G01 X53.0502 Y14.1445 
G01 X53.0755 Y14.2387 
G01 X53.0755 Y21.8545 
G01 X71.6015 Y21.8545 
G01 X79.7135 Y13.7425 
G01 X79.7825 Y13.6735 
G01 X79.8670 Y13.6248 
G01 X79.9612 Y13.5995 
G01 X84.8213 Y13.5995 
G01 X84.9155 Y13.6248 
G01 X85.0000 Y13.6735 
G01 X85.0690 Y13.7425 
G01 X85.1177 Y13.8270 
G01 X85.1430 Y13.9212 
G01 X85.1430 Y33.7563 
G01 X85.1177 Y33.8505 
G01 X85.0690 Y33.9350 
G01 X83.6287 Y35.3753 
G01 X83.7050 Y35.4516 
G00 Z3.0000 
G00 X82.1850 Y26.1916 
G01 Z-0.0700 F80.00 
G01 X82.1850 Y27.1484 F250.00 
G01 X81.5084 Y27.8250 
G01 X80.6980 Y27.8250 
G01 X80.6980 Y43.6679 
G01 X81.1425 Y44.1124 
G01 X81.1425 Y44.7876 
G01 X80.6651 Y45.2650 
G01 X79.9899 Y45.2650 
G01 X79.5125 Y44.7876 
G01 X79.5125 Y44.1124 
G01 X79.9570 Y43.6679 
G01 X79.9570 Y27.2562 
G01 X79.9625 Y27.2359 
G01 X79.8750 Y27.1484 
G01 X79.8750 Y26.1916 
G01 X80.5516 Y25.5150 
G01 X81.5084 Y25.5150 
G01 X82.1850 Y26.1916 
G00 Z3.0000 
G00 X87.8184 Y48.5055 
G01 Z-0.0700 F80.00 
G01 X89.7784 Y48.5055 F250.00 
G01 X89.9456 Y48.5319 
G01 X90.1065 Y48.5842 
G01 X90.2574 Y48.6611 
G01 X90.3943 Y48.7606 
G01 X90.5140 Y48.8803 
G01 X90.6135 Y49.0172 
G01 X90.6903 Y49.1680 
G01 X90.7426 Y49.3290 
G01 X90.7691 Y49.4962 
G01 X90.7691 Y49.6654 
G01 X90.7426 Y49.8326 
G01 X90.6903 Y49.9936 
G01 X90.6135 Y50.1444 
G01 X90.5140 Y50.2813 
G01 X90.3943 Y50.4010 
G01 X90.2574 Y50.5005 
G01 X90.1065 Y50.5774 
G01 X89.9456 Y50.6297 
G01 X89.7784 Y50.6561 
G01 X87.8184 Y50.6561 
G01 X87.6512 Y50.6297 
G01 X87.4903 Y50.5774 
G01 X87.3394 Y50.5005 
G01 X87.2025 Y50.4010 
G01 X87.0828 Y50.2813 
G01 X86.9833 Y50.1444 
G01 X86.9065 Y49.9936 
G01 X86.8542 Y49.8326 
G01 X86.8277 Y49.6654 
G01 X86.8277 Y49.4962 
G01 X86.8542 Y49.3290 
G01 X86.9065 Y49.1680 
G01 X86.9833 Y49.0172 
G01 X87.0828 Y48.8803 
G01 X87.2025 Y48.7606 
G01 X87.3394 Y48.6611 
G01 X87.4903 Y48.5842 
G01 X87.6512 Y48.5319 
G01 X87.8184 Y48.5055 
G00 Z3.0000 
G00 X87.8184 Y53.4839 
G01 Z-0.0700 F80.00 
G01 X89.7784 Y53.4839 F250.00 
G01 X89.9456 Y53.5103 
G01 X90.1065 Y53.5626 
G01 X90.2574 Y53.6395 
G01 X90.3943 Y53.7390 
G01 X90.5140 Y53.8587 
G01 X90.6135 Y53.9956 
G01 X90.6903 Y54.1464 
G01 X90.7426 Y54.3074 
G01 X90.7691 Y54.4746 
G01 X90.7691 Y54.6438 
G01 X90.7426 Y54.8110 
G01 X90.6903 Y54.9720 
G01 X90.6135 Y55.1228 
G01 X90.5140 Y55.2597 
G01 X90.3943 Y55.3794 
G01 X90.2574 Y55.4789 
G01 X90.1065 Y55.5558 
G01 X89.9456 Y55.6081 
G01 X89.7784 Y55.6345 
G01 X87.8184 Y55.6345 
G01 X87.6512 Y55.6081 
G01 X87.4903 Y55.5558 
G01 X87.3394 Y55.4789 
G01 X87.2025 Y55.3794 
G01 X87.0828 Y55.2597 
G01 X86.9833 Y55.1228 
G01 X86.9065 Y54.9720 
G01 X86.8542 Y54.8110 
G01 X86.8277 Y54.6438 
G01 X86.8277 Y54.4746 
G01 X86.8542 Y54.3074 
G01 X86.9065 Y54.1464 
G01 X86.9833 Y53.9956 
G01 X87.0828 Y53.8587 
G01 X87.2025 Y53.7390 
G01 X87.3394 Y53.6395 
G01 X87.4903 Y53.5626 
G01 X87.6512 Y53.5103 
G01 X87.8184 Y53.4839 
G00 Z3.0000 
G00 X58.2952 Y10.0699 
G01 Z-0.0700 F80.00 
G01 X58.2952 Y10.2501 F250.00 
G01 X58.2670 Y10.4282 
G01 X58.2113 Y10.5996 
G01 X58.1295 Y10.7602 
G01 X58.0235 Y10.9060 
G01 X57.8960 Y11.0335 
G01 X57.7502 Y11.1395 
G01 X57.5896 Y11.2213 
G01 X57.4182 Y11.2770 
G01 X57.2401 Y11.3052 
G01 X57.0599 Y11.3052 
G01 X56.8818 Y11.2770 
G01 X56.7104 Y11.2213 
G01 X56.5498 Y11.1395 
G01 X56.4040 Y11.0335 
G01 X56.2765 Y10.9060 
G01 X56.1705 Y10.7602 
G01 X56.0887 Y10.5996 
G01 X56.0330 Y10.4282 
G01 X56.0048 Y10.2501 
G01 X56.0048 Y10.0699 
G01 X56.0330 Y9.8918 
G01 X56.0887 Y9.7204 
G01 X56.1705 Y9.5598 
G01 X56.2765 Y9.4139 
G01 X56.4040 Y9.2865 
G01 X56.5498 Y9.1805 
G01 X56.7104 Y9.0987 
G01 X56.8818 Y9.0430 
G01 X57.0599 Y9.0148 
G01 X57.2401 Y9.0148 
G01 X57.4182 Y9.0430 
G01 X57.5896 Y9.0987 
G01 X57.7502 Y9.1805 
G01 X57.8960 Y9.2865 
G01 X58.0235 Y9.4139 
G01 X58.1295 Y9.5598 
G01 X58.2113 Y9.7204 
G01 X58.2670 Y9.8918 
G01 X58.2952 Y10.0699 
G00 Z3.0000 
G00 X55.7552 Y10.0699 
G01 Z-0.0700 F80.00 
G01 X55.7552 Y10.2501 F250.00 
G01 X55.7270 Y10.4282 
G01 X55.6713 Y10.5996 
G01 X55.5895 Y10.7602 
G01 X55.4835 Y10.9060 
G01 X55.3560 Y11.0335 
G01 X55.2102 Y11.1395 
G01 X55.0496 Y11.2213 
G01 X54.8782 Y11.2770 
G01 X54.7001 Y11.3052 
G01 X54.5199 Y11.3052 
G01 X54.3418 Y11.2770 
G01 X54.1704 Y11.2213 
G01 X54.0098 Y11.1395 
G01 X53.8640 Y11.0335 
G01 X53.7365 Y10.9060 
G01 X53.6305 Y10.7602 
G01 X53.5487 Y10.5996 
G01 X53.4930 Y10.4282 
G01 X53.4648 Y10.2501 
G01 X53.4648 Y10.0699 
G01 X53.4930 Y9.8918 
G01 X53.5487 Y9.7204 
G01 X53.6305 Y9.5598 
G01 X53.7365 Y9.4139 
G01 X53.8640 Y9.2865 
G01 X54.0098 Y9.1805 
G01 X54.1704 Y9.0987 
G01 X54.3418 Y9.0430 
G01 X54.5199 Y9.0148 
G01 X54.7001 Y9.0148 
G01 X54.8782 Y9.0430 
G01 X55.0496 Y9.0987 
G01 X55.2102 Y9.1805 
G01 X55.3560 Y9.2865 
G01 X55.4835 Y9.4139 
G01 X55.5895 Y9.5598 
G01 X55.6713 Y9.7204 
G01 X55.7270 Y9.8918 
G01 X55.7552 Y10.0699 
G00 Z3.0000 
G00 X58.2952 Y12.6099 
G01 Z-0.0700 F80.00 
G01 X58.2952 Y12.7901 F250.00 
G01 X58.2670 Y12.9682 
G01 X58.2113 Y13.1396 
G01 X58.1295 Y13.3002 
G01 X58.0235 Y13.4460 
G01 X57.8960 Y13.5735 
G01 X57.7502 Y13.6795 
G01 X57.5896 Y13.7613 
G01 X57.4182 Y13.8170 
G01 X57.2401 Y13.8452 
G01 X57.0599 Y13.8452 
G01 X56.8818 Y13.8170 
G01 X56.7104 Y13.7613 
G01 X56.5498 Y13.6795 
G01 X56.4040 Y13.5735 
G01 X56.2765 Y13.4460 
G01 X56.1705 Y13.3002 
G01 X56.0887 Y13.1396 
G01 X56.0330 Y12.9682 
G01 X56.0048 Y12.7901 
G01 X56.0048 Y12.6099 
G01 X56.0330 Y12.4318 
G01 X56.0887 Y12.2604 
G01 X56.1705 Y12.0998 
G01 X56.2765 Y11.9540 
G01 X56.4040 Y11.8265 
G01 X56.5498 Y11.7205 
G01 X56.7104 Y11.6387 
G01 X56.8818 Y11.5830 
G01 X57.0599 Y11.5548 
G01 X57.2401 Y11.5548 
G01 X57.4182 Y11.5830 
G01 X57.5896 Y11.6387 
G01 X57.7502 Y11.7205 
G01 X57.8960 Y11.8265 
G01 X58.0235 Y11.9540 
G01 X58.1295 Y12.0998 
G01 X58.2113 Y12.2604 
G01 X58.2670 Y12.4318 
G01 X58.2952 Y12.6099 
G00 Z3.0000 
G00 X55.7552 Y12.6099 
G01 Z-0.0700 F80.00 
G01 X55.7552 Y12.7901 F250.00 
G01 X55.7270 Y12.9682 
G01 X55.6713 Y13.1396 
G01 X55.5895 Y13.3002 
G01 X55.4835 Y13.4460 
G01 X55.3560 Y13.5735 
G01 X55.2102 Y13.6795 
G01 X55.0496 Y13.7613 
G01 X54.8782 Y13.8170 
G01 X54.7001 Y13.8452 
G01 X54.5199 Y13.8452 
G01 X54.3418 Y13.8170 
G01 X54.1704 Y13.7613 
G01 X54.0098 Y13.6795 
G01 X53.8640 Y13.5735 
G01 X53.7365 Y13.4460 
G01 X53.6305 Y13.3002 
G01 X53.5487 Y13.1396 
G01 X53.4930 Y12.9682 
G01 X53.4648 Y12.7901 
G01 X53.4648 Y12.6099 
G01 X53.4930 Y12.4318 
G01 X53.5487 Y12.2604 
G01 X53.6305 Y12.0998 
G01 X53.7365 Y11.9540 
G01 X53.8640 Y11.8265 
G01 X54.0098 Y11.7205 
G01 X54.1704 Y11.6387 
G01 X54.3418 Y11.5830 
G01 X54.5199 Y11.5548 
G01 X54.7001 Y11.5548 
G01 X54.8782 Y11.5830 
G01 X55.0496 Y11.6387 
G01 X55.2102 Y11.7205 
G01 X55.3560 Y11.8265 
G01 X55.4835 Y11.9540 
G01 X55.5895 Y12.0998 
G01 X55.6713 Y12.2604 
G01 X55.7270 Y12.4318 
G01 X55.7552 Y12.6099 
G00 Z3.0000 
G00 X58.2952 Y15.1499 
G01 Z-0.0700 F80.00 
G01 X58.2952 Y15.3301 F250.00 
G01 X58.2670 Y15.5082 
G01 X58.2113 Y15.6796 
G01 X58.1295 Y15.8402 
G01 X58.0235 Y15.9860 
G01 X57.8960 Y16.1135 
G01 X57.7502 Y16.2195 
G01 X57.5896 Y16.3013 
G01 X57.4182 Y16.3570 
G01 X57.2401 Y16.3852 
G01 X57.0599 Y16.3852 
G01 X56.8818 Y16.3570 
G01 X56.7104 Y16.3013 
G01 X56.5498 Y16.2195 
G01 X56.4040 Y16.1135 
G01 X56.2765 Y15.9860 
G01 X56.1705 Y15.8402 
G01 X56.0887 Y15.6796 
G01 X56.0330 Y15.5082 
G01 X56.0048 Y15.3301 
G01 X56.0048 Y15.1499 
G01 X56.0330 Y14.9718 
G01 X56.0887 Y14.8004 
G01 X56.1705 Y14.6398 
G01 X56.2765 Y14.4939 
G01 X56.4040 Y14.3665 
G01 X56.5498 Y14.2605 
G01 X56.7104 Y14.1787 
G01 X56.8818 Y14.1230 
G01 X57.0599 Y14.0948 
G01 X57.2401 Y14.0948 
G01 X57.4182 Y14.1230 
G01 X57.5896 Y14.1787 
G01 X57.7502 Y14.2605 
G01 X57.8960 Y14.3665 
G01 X58.0235 Y14.4939 
G01 X58.1295 Y14.6398 
G01 X58.2113 Y14.8004 
G01 X58.2670 Y14.9718 
G01 X58.2952 Y15.1499 
G00 Z3.0000 
G00 X55.7552 Y15.1499 
G01 Z-0.0700 F80.00 
G01 X55.7552 Y15.3301 F250.00 
G01 X55.7270 Y15.5082 
G01 X55.6713 Y15.6796 
G01 X55.5895 Y15.8402 
G01 X55.4835 Y15.9860 
G01 X55.3560 Y16.1135 
G01 X55.2102 Y16.2195 
G01 X55.0496 Y16.3013 
G01 X54.8782 Y16.3570 
G01 X54.7001 Y16.3852 
G01 X54.5199 Y16.3852 
G01 X54.3418 Y16.3570 
G01 X54.1704 Y16.3013 
G01 X54.0098 Y16.2195 
G01 X53.8640 Y16.1135 
G01 X53.7365 Y15.9860 
G01 X53.6305 Y15.8402 
G01 X53.5487 Y15.6796 
G01 X53.4930 Y15.5082 
G01 X53.4648 Y15.3301 
G01 X53.4648 Y15.1499 
G01 X53.4930 Y14.9718 
G01 X53.5487 Y14.8004 
G01 X53.6305 Y14.6398 
G01 X53.7365 Y14.4939 
G01 X53.8640 Y14.3665 
G01 X54.0098 Y14.2605 
G01 X54.1704 Y14.1787 
G01 X54.3418 Y14.1230 
G01 X54.5199 Y14.0948 
G01 X54.7001 Y14.0948 
G01 X54.8782 Y14.1230 
G01 X55.0496 Y14.1787 
G01 X55.2102 Y14.2605 
G01 X55.3560 Y14.3665 
G01 X55.4835 Y14.4939 
G01 X55.5895 Y14.6398 
G01 X55.6713 Y14.8004 
G01 X55.7270 Y14.9718 
G01 X55.7552 Y15.1499 
G00 Z3.0000 
G00 X58.2952 Y17.6899 
G01 Z-0.0700 F80.00 
G01 X58.2952 Y17.8701 F250.00 
G01 X58.2670 Y18.0482 
G01 X58.2113 Y18.2196 
G01 X58.1295 Y18.3802 
G01 X58.0235 Y18.5260 
G01 X57.8960 Y18.6535 
G01 X57.7502 Y18.7595 
G01 X57.5896 Y18.8413 
G01 X57.4182 Y18.8970 
G01 X57.2401 Y18.9252 
G01 X57.0599 Y18.9252 
G01 X56.8818 Y18.8970 
G01 X56.7104 Y18.8413 
G01 X56.5498 Y18.7595 
G01 X56.4040 Y18.6535 
G01 X56.2765 Y18.5260 
G01 X56.1705 Y18.3802 
G01 X56.0887 Y18.2196 
G01 X56.0330 Y18.0482 
G01 X56.0048 Y17.8701 
G01 X56.0048 Y17.6899 
G01 X56.0330 Y17.5118 
G01 X56.0887 Y17.3404 
G01 X56.1705 Y17.1798 
G01 X56.2765 Y17.0340 
G01 X56.4040 Y16.9065 
G01 X56.5498 Y16.8005 
G01 X56.7104 Y16.7187 
G01 X56.8818 Y16.6630 
G01 X57.0599 Y16.6348 
G01 X57.2401 Y16.6348 
G01 X57.4182 Y16.6630 
G01 X57.5896 Y16.7187 
G01 X57.7502 Y16.8005 
G01 X57.8960 Y16.9065 
G01 X58.0235 Y17.0340 
G01 X58.1295 Y17.1798 
G01 X58.2113 Y17.3404 
G01 X58.2670 Y17.5118 
G01 X58.2952 Y17.6899 
G00 Z3.0000 
G00 X55.7552 Y17.6899 
G01 Z-0.0700 F80.00 
G01 X55.7552 Y17.8701 F250.00 
G01 X55.7270 Y18.0482 
G01 X55.6713 Y18.2196 
G01 X55.5895 Y18.3802 
G01 X55.4835 Y18.5260 
G01 X55.3560 Y18.6535 
G01 X55.2102 Y18.7595 
G01 X55.0496 Y18.8413 
G01 X54.8782 Y18.8970 
G01 X54.7001 Y18.9252 
G01 X54.5199 Y18.9252 
G01 X54.3418 Y18.8970 
G01 X54.1704 Y18.8413 
G01 X54.0098 Y18.7595 
G01 X53.8640 Y18.6535 
G01 X53.7365 Y18.5260 
G01 X53.6305 Y18.3802 
G01 X53.5487 Y18.2196 
G01 X53.4930 Y18.0482 
G01 X53.4648 Y17.8701 
G01 X53.4648 Y17.6899 
G01 X53.4930 Y17.5118 
G01 X53.5487 Y17.3404 
G01 X53.6305 Y17.1798 
G01 X53.7365 Y17.0340 
G01 X53.8640 Y16.9065 
G01 X54.0098 Y16.8005 
G01 X54.1704 Y16.7187 
G01 X54.3418 Y16.6630 
G01 X54.5199 Y16.6348 
G01 X54.7001 Y16.6348 
G01 X54.8782 Y16.6630 
G01 X55.0496 Y16.7187 
G01 X55.2102 Y16.8005 
G01 X55.3560 Y16.9065 
G01 X55.4835 Y17.0340 
G01 X55.5895 Y17.1798 
G01 X55.6713 Y17.3404 
G01 X55.7270 Y17.5118 
G01 X55.7552 Y17.6899 
G00 Z3.0000 
G00 X58.2952 Y20.2299 
G01 Z-0.0700 F80.00 
G01 X58.2952 Y20.4101 F250.00 
G01 X58.2670 Y20.5882 
G01 X58.2113 Y20.7596 
G01 X58.1295 Y20.9202 
G01 X58.0235 Y21.0660 
G01 X57.8960 Y21.1935 
G01 X57.7502 Y21.2995 
G01 X57.5896 Y21.3813 
G01 X57.4182 Y21.4370 
G01 X57.2401 Y21.4652 
G01 X57.0599 Y21.4652 
G01 X56.8818 Y21.4370 
G01 X56.7104 Y21.3813 
G01 X56.5498 Y21.2995 
G01 X56.4040 Y21.1935 
G01 X56.2765 Y21.0660 
G01 X56.1705 Y20.9202 
G01 X56.0887 Y20.7596 
G01 X56.0330 Y20.5882 
G01 X56.0048 Y20.4101 
G01 X56.0048 Y20.2299 
G01 X56.0330 Y20.0518 
G01 X56.0887 Y19.8804 
G01 X56.1705 Y19.7198 
G01 X56.2765 Y19.5739 
G01 X56.4040 Y19.4465 
G01 X56.5498 Y19.3405 
G01 X56.7104 Y19.2587 
G01 X56.8818 Y19.2030 
G01 X57.0599 Y19.1748 
G01 X57.2401 Y19.1748 
G01 X57.4182 Y19.2030 
G01 X57.5896 Y19.2587 
G01 X57.7502 Y19.3405 
G01 X57.8960 Y19.4465 
G01 X58.0235 Y19.5739 
G01 X58.1295 Y19.7198 
G01 X58.2113 Y19.8804 
G01 X58.2670 Y20.0518 
G01 X58.2952 Y20.2299 
G00 Z3.0000 
G00 X55.7552 Y20.2299 
G01 Z-0.0700 F80.00 
G01 X55.7552 Y20.4101 F250.00 
G01 X55.7270 Y20.5882 
G01 X55.6713 Y20.7596 
G01 X55.5895 Y20.9202 
G01 X55.4835 Y21.0660 
G01 X55.3560 Y21.1935 
G01 X55.2102 Y21.2995 
G01 X55.0496 Y21.3813 
G01 X54.8782 Y21.4370 
G01 X54.7001 Y21.4652 
G01 X54.5199 Y21.4652 
G01 X54.3418 Y21.4370 
G01 X54.1704 Y21.3813 
G01 X54.0098 Y21.2995 
G01 X53.8640 Y21.1935 
G01 X53.7365 Y21.0660 
G01 X53.6305 Y20.9202 
G01 X53.5487 Y20.7596 
G01 X53.4930 Y20.5882 
G01 X53.4648 Y20.4101 
G01 X53.4648 Y20.2299 
G01 X53.4930 Y20.0518 
G01 X53.5487 Y19.8804 
G01 X53.6305 Y19.7198 
G01 X53.7365 Y19.5739 
G01 X53.8640 Y19.4465 
G01 X54.0098 Y19.3405 
G01 X54.1704 Y19.2587 
G01 X54.3418 Y19.2030 
G01 X54.5199 Y19.1748 
G01 X54.7001 Y19.1748 
G01 X54.8782 Y19.2030 
G01 X55.0496 Y19.2587 
G01 X55.2102 Y19.3405 
G01 X55.3560 Y19.4465 
G01 X55.4835 Y19.5739 
G01 X55.5895 Y19.7198 
G01 X55.6713 Y19.8804 
G01 X55.7270 Y20.0518 
G01 X55.7552 Y20.2299 
G00 Z3.0000 
G00 X51.7358 Y37.6800 
G01 Z-0.0700 F80.00 
G01 X49.8642 Y37.6800 F250.00 
G01 X49.7980 Y37.6526 
G01 X49.7474 Y37.6020 
G01 X49.7200 Y37.5358 
G01 X49.7200 Y35.9565 
G01 X47.7150 Y33.9515 
G01 X47.6460 Y33.8825 
G01 X47.5973 Y33.7980 
G01 X47.5720 Y33.7038 
G01 X47.5720 Y30.3096 
G01 X47.1275 Y29.8651 
G01 X47.1275 Y29.1899 
G01 X47.6049 Y28.7125 
G01 X48.2801 Y28.7125 
G01 X48.7575 Y29.1899 
G01 X48.7575 Y29.8651 
G01 X48.3130 Y30.3096 
G01 X48.3130 Y33.5015 
G01 X50.5315 Y35.7200 
G01 X51.7358 Y35.7200 
G01 X51.8020 Y35.7474 
G01 X51.8526 Y35.7980 
G01 X51.8800 Y35.8642 
G01 X51.8800 Y37.5358 
G01 X51.8526 Y37.6020 
G01 X51.8020 Y37.6526 
G01 X51.7358 Y37.6800 
G00 Z3.0000 
G00 X61.2927 Y55.0520 
G01 Z-0.0700 F80.00 
G01 X63.1673 Y55.0520 F250.00 
G01 X63.2335 Y55.0794 
G01 X63.2841 Y55.1300 
G01 X63.3115 Y55.1962 
G01 X63.3115 Y56.8678 
G01 X63.2841 Y56.9340 
G01 X63.2335 Y56.9846 
G01 X63.1673 Y57.0120 
G01 X61.2927 Y57.0120 
G01 X61.2265 Y56.9846 
G01 X61.1759 Y56.9340 
G01 X61.1485 Y56.8678 
G01 X61.1485 Y56.2505 
G01 X54.7800 Y56.2505 
G01 X54.7800 Y57.1658 
G01 X54.7526 Y57.2320 
G01 X54.7020 Y57.2826 
G01 X54.6358 Y57.3100 
G01 X52.0142 Y57.3100 
G01 X51.9480 Y57.2826 
G01 X51.8974 Y57.2320 
G01 X51.8700 Y57.1658 
G01 X51.8700 Y55.2515 
G01 X51.1385 Y54.5200 
G01 X51.0898 Y54.4355 
G01 X51.0645 Y54.3413 
G01 X51.0645 Y53.4378 
G01 X51.0518 Y53.3905 
G01 X51.0518 Y53.1569 
G01 X50.9375 Y53.0426 
G01 X50.9375 Y52.3674 
G01 X51.0645 Y52.2404 
G01 X51.0645 Y47.5762 
G01 X51.0898 Y47.4820 
G01 X51.1385 Y47.3975 
G01 X51.2075 Y47.3285 
G01 X51.2920 Y47.2797 
G01 X51.3862 Y47.2545 
G01 X57.5188 Y47.2545 
G01 X57.6130 Y47.2797 
G01 X57.6975 Y47.3285 
G01 X57.7665 Y47.3975 
G01 X57.8152 Y47.4820 
G01 X57.8405 Y47.5762 
G01 X57.8405 Y50.0900 
G01 X58.0058 Y50.0900 
G01 X58.0720 Y50.1174 
G01 X58.1226 Y50.1680 
G01 X58.1500 Y50.2342 
G01 X58.1500 Y51.7058 
G01 X58.1226 Y51.7720 
G01 X58.0720 Y51.8226 
G01 X58.0058 Y51.8500 
G01 X56.9342 Y51.8500 
G01 X56.8680 Y51.8226 
G01 X56.8174 Y51.7720 
G01 X56.7900 Y51.7058 
G01 X56.7900 Y50.2342 
G01 X56.8174 Y50.1680 
G01 X56.8680 Y50.1174 
G01 X56.9342 Y50.0900 
G01 X57.0995 Y50.0900 
G01 X57.0995 Y47.9955 
G01 X51.8055 Y47.9955 
G01 X51.8055 Y51.8900 
G01 X52.0901 Y51.8900 
G01 X52.5675 Y52.3674 
G01 X52.5675 Y53.0426 
G01 X52.0901 Y53.5200 
G01 X51.8055 Y53.5200 
G01 X51.8055 Y54.1390 
G01 X52.1165 Y54.4500 
G01 X54.6358 Y54.4500 
G01 X54.7020 Y54.4774 
G01 X54.7526 Y54.5280 
G01 X54.7800 Y54.5942 
G01 X54.7800 Y55.5095 
G01 X61.1485 Y55.5095 
G01 X61.1485 Y55.1962 
G01 X61.1759 Y55.1300 
G01 X61.2265 Y55.0794 
G01 X61.2927 Y55.0520 
G00 Z3.0000 
G00 X55.5012 Y29.6810 
G01 Z-0.0700 F80.00 
G01 X55.5012 Y31.2790 F250.00 
G01 X55.4670 Y31.4512 
G01 X55.3998 Y31.6133 
G01 X55.3022 Y31.7593 
G01 X55.1781 Y31.8834 
G01 X55.0321 Y31.9810 
G01 X54.8700 Y32.0481 
G01 X54.6978 Y32.0824 
G01 X54.5222 Y32.0824 
G01 X54.3500 Y32.0481 
G01 X54.1879 Y31.9810 
G01 X54.0419 Y31.8834 
G01 X53.9178 Y31.7593 
G01 X53.8202 Y31.6133 
G01 X53.7530 Y31.4512 
G01 X53.7188 Y31.2790 
G01 X53.7188 Y29.6810 
G01 X53.7530 Y29.5088 
G01 X53.8202 Y29.3467 
G01 X53.9178 Y29.2007 
G01 X54.0419 Y29.0766 
G01 X54.1879 Y28.9790 
G01 X54.3500 Y28.9118 
G01 X54.5222 Y28.8776 
G01 X54.6978 Y28.8776 
G01 X54.8700 Y28.9118 
G01 X55.0321 Y28.9790 
G01 X55.1781 Y29.0766 
G01 X55.3022 Y29.2007 
G01 X55.3998 Y29.3467 
G01 X55.4670 Y29.5088 
G01 X55.5012 Y29.6810 
G00 Z3.0000 
G00 X58.0412 Y29.6810 
G01 Z-0.0700 F80.00 
G01 X58.0412 Y31.2790 F250.00 
G01 X58.0070 Y31.4512 
G01 X57.9398 Y31.6133 
G01 X57.8422 Y31.7593 
G01 X57.7181 Y31.8834 
G01 X57.5721 Y31.9810 
G01 X57.4100 Y32.0481 
G01 X57.2378 Y32.0824 
G01 X57.0622 Y32.0824 
G01 X56.8900 Y32.0481 
G01 X56.7279 Y31.9810 
G01 X56.5819 Y31.8834 
G01 X56.4578 Y31.7593 
G01 X56.3602 Y31.6133 
G01 X56.2930 Y31.4512 
G01 X56.2588 Y31.2790 
G01 X56.2588 Y29.6810 
G01 X56.2930 Y29.5088 
G01 X56.3602 Y29.3467 
G01 X56.4578 Y29.2007 
G01 X56.5819 Y29.0766 
G01 X56.7279 Y28.9790 
G01 X56.8900 Y28.9118 
G01 X57.0622 Y28.8776 
G01 X57.2378 Y28.8776 
G01 X57.4100 Y28.9118 
G01 X57.5721 Y28.9790 
G01 X57.7181 Y29.0766 
G01 X57.8422 Y29.2007 
G01 X57.9398 Y29.3467 
G01 X58.0070 Y29.5088 
G01 X58.0412 Y29.6810 
G00 Z3.0000 
G00 X30.8160 Y49.1060 
G01 Z-0.0700 F80.00 
G01 X30.8160 Y47.4140 F250.00 
G01 X30.8519 Y47.2336 
G01 X30.9223 Y47.0636 
G01 X31.0245 Y46.9106 
G01 X31.1546 Y46.7805 
G01 X31.3076 Y46.6783 
G01 X31.3795 Y46.6485 
G01 X31.3795 Y26.7678 
G01 X31.3668 Y26.7204 
G01 X31.3668 Y21.5395 
G01 X31.3929 Y21.4421 
G01 X31.4434 Y21.3547 
G01 X31.5147 Y21.2834 
G01 X31.6021 Y21.2329 
G01 X31.6995 Y21.2068 
G01 X34.4731 Y21.2068 
G01 X34.9049 Y20.7750 
G01 X35.5801 Y20.7750 
G01 X36.0575 Y21.2524 
G01 X36.0575 Y21.9276 
G01 X35.5801 Y22.4050 
G01 X34.9049 Y22.4050 
G01 X34.4731 Y21.9732 
G01 X32.1332 Y21.9732 
G01 X32.1332 Y26.7204 
G01 X32.1205 Y26.7678 
G01 X32.1205 Y46.6485 
G01 X32.1924 Y46.6783 
G01 X32.3454 Y46.7805 
G01 X32.4755 Y46.9106 
G01 X32.5777 Y47.0636 
G01 X32.6481 Y47.2336 
G01 X32.6840 Y47.4140 
G01 X32.6840 Y49.1060 
G01 X32.6481 Y49.2864 
G01 X32.5777 Y49.4564 
G01 X32.4755 Y49.6094 
G01 X32.3454 Y49.7395 
G01 X32.1924 Y49.8417 
G01 X32.0224 Y49.9121 
G01 X31.8420 Y49.9480 
G01 X31.6580 Y49.9480 
G01 X31.4776 Y49.9121 
G01 X31.3076 Y49.8417 
G01 X31.1546 Y49.7395 
G01 X31.0245 Y49.6094 
G01 X30.9223 Y49.4564 
G01 X30.8519 Y49.2864 
G01 X30.8160 Y49.1060 
G00 Z3.0000 
G00 X28.2760 Y49.1060 
G01 Z-0.0700 F80.00 
G01 X28.2760 Y47.4140 F250.00 
G01 X28.3119 Y47.2336 
G01 X28.3823 Y47.0636 
G01 X28.4845 Y46.9106 
G01 X28.6146 Y46.7805 
G01 X28.7676 Y46.6783 
G01 X28.8395 Y46.6485 
G01 X28.8395 Y21.6878 
G01 X28.8268 Y21.6405 
G01 X28.8268 Y21.5395 
G01 X28.8529 Y21.4421 
G01 X28.9034 Y21.3547 
G01 X33.9068 Y16.3513 
G01 X33.9068 Y14.4219 
G01 X33.7925 Y14.3076 
G01 X33.7925 Y13.6324 
G01 X34.2699 Y13.1550 
G01 X34.9451 Y13.1550 
G01 X35.4225 Y13.6324 
G01 X35.4225 Y14.3076 
G01 X34.9451 Y14.7850 
G01 X34.6732 Y14.7850 
G01 X34.6732 Y16.5604 
G01 X34.6471 Y16.6579 
G01 X34.5966 Y16.7453 
G01 X29.5805 Y21.7614 
G01 X29.5805 Y46.6485 
G01 X29.6524 Y46.6783 
G01 X29.8054 Y46.7805 
G01 X29.9355 Y46.9106 
G01 X30.0377 Y47.0636 
G01 X30.1081 Y47.2336 
G01 X30.1440 Y47.4140 
G01 X30.1440 Y49.1060 
G01 X30.1081 Y49.2864 
G01 X30.0377 Y49.4564 
G01 X29.9355 Y49.6094 
G01 X29.8054 Y49.7395 
G01 X29.6524 Y49.8417 
G01 X29.4824 Y49.9121 
G01 X29.3020 Y49.9480 
G01 X29.1180 Y49.9480 
G01 X28.9376 Y49.9121 
G01 X28.7676 Y49.8417 
G01 X28.6146 Y49.7395 
G01 X28.4845 Y49.6094 
G01 X28.3823 Y49.4564 
G01 X28.3119 Y49.2864 
G01 X28.2760 Y49.1060 
G00 Z3.0000 
G00 X25.7360 Y49.1060 
G01 Z-0.0700 F80.00 
G01 X25.7360 Y47.4140 F250.00 
G01 X25.7719 Y47.2336 
G01 X25.8423 Y47.0636 
G01 X25.9445 Y46.9106 
G01 X26.0746 Y46.7805 
G01 X26.2276 Y46.6783 
G01 X26.2868 Y46.6538 
G01 X26.2868 Y16.4595 
G01 X26.3129 Y16.3621 
G01 X26.3634 Y16.2747 
G01 X26.4347 Y16.2034 
G01 X26.5221 Y16.1529 
G01 X26.6195 Y16.1268 
G01 X31.6156 Y16.1268 
G01 X32.0474 Y15.6950 
G01 X32.7226 Y15.6950 
G01 X33.2000 Y16.1724 
G01 X33.2000 Y16.8476 
G01 X32.7226 Y17.3250 
G01 X32.0474 Y17.3250 
G01 X31.6156 Y16.8932 
G01 X27.0532 Y16.8932 
G01 X27.0532 Y46.6538 
G01 X27.1124 Y46.6783 
G01 X27.2654 Y46.7805 
G01 X27.3955 Y46.9106 
G01 X27.4977 Y47.0636 
G01 X27.5681 Y47.2336 
G01 X27.6040 Y47.4140 
G01 X27.6040 Y49.1060 
G01 X27.5681 Y49.2864 
G01 X27.4977 Y49.4564 
G01 X27.3955 Y49.6094 
G01 X27.2654 Y49.7395 
G01 X27.1124 Y49.8417 
G01 X26.9424 Y49.9121 
G01 X26.7620 Y49.9480 
G01 X26.5780 Y49.9480 
G01 X26.3976 Y49.9121 
G01 X26.2276 Y49.8417 
G01 X26.0746 Y49.7395 
G01 X25.9445 Y49.6094 
G01 X25.8423 Y49.4564 
G01 X25.7719 Y49.2864 
G01 X25.7360 Y49.1060 
G00 Z3.0000 
G00 X23.1960 Y49.1060 
G01 Z-0.0700 F80.00 
G01 X23.1960 Y47.4140 F250.00 
G01 X23.2319 Y47.2336 
G01 X23.3023 Y47.0636 
G01 X23.4045 Y46.9106 
G01 X23.5346 Y46.7805 
G01 X23.6876 Y46.6783 
G01 X23.7595 Y46.6485 
G01 X23.7595 Y44.2796 
G01 X23.3150 Y43.8351 
G01 X23.3150 Y43.1599 
G01 X23.7924 Y42.6825 
G01 X24.4676 Y42.6825 
G01 X24.9450 Y43.1599 
G01 X24.9450 Y43.8351 
G01 X24.5005 Y44.2796 
G01 X24.5005 Y46.6485 
G01 X24.5724 Y46.6783 
G01 X24.7254 Y46.7805 
G01 X24.8555 Y46.9106 
G01 X24.9577 Y47.0636 
G01 X25.0281 Y47.2336 
G01 X25.0640 Y47.4140 
G01 X25.0640 Y49.1060 
G01 X25.0281 Y49.2864 
G01 X24.9577 Y49.4564 
G01 X24.8555 Y49.6094 
G01 X24.7254 Y49.7395 
G01 X24.5724 Y49.8417 
G01 X24.4024 Y49.9121 
G01 X24.2220 Y49.9480 
G01 X24.0380 Y49.9480 
G01 X23.8576 Y49.9121 
G01 X23.6876 Y49.8417 
G01 X23.5346 Y49.7395 
G01 X23.4045 Y49.6094 
G01 X23.3023 Y49.4564 
G01 X23.2319 Y49.2864 
G01 X23.1960 Y49.1060 
G00 Z3.0000 
G00 X20.6560 Y49.1060 
G01 Z-0.0700 F80.00 
G01 X20.6560 Y47.4140 F250.00 
G01 X20.6919 Y47.2336 
G01 X20.7623 Y47.0636 
G01 X20.8645 Y46.9106 
G01 X20.9946 Y46.7805 
G01 X21.1476 Y46.6783 
G01 X21.2195 Y46.6485 
G01 X21.2195 Y45.5496 
G01 X20.7750 Y45.1051 
G01 X20.7750 Y44.4299 
G01 X21.2524 Y43.9525 
G01 X21.9276 Y43.9525 
G01 X22.4050 Y44.4299 
G01 X22.4050 Y45.1051 
G01 X21.9605 Y45.5496 
G01 X21.9605 Y46.6485 
G01 X22.0324 Y46.6783 
G01 X22.1854 Y46.7805 
G01 X22.3155 Y46.9106 
G01 X22.4177 Y47.0636 
G01 X22.4881 Y47.2336 
G01 X22.5240 Y47.4140 
G01 X22.5240 Y49.1060 
G01 X22.4881 Y49.2864 
G01 X22.4177 Y49.4564 
G01 X22.3155 Y49.6094 
G01 X22.1854 Y49.7395 
G01 X22.0324 Y49.8417 
G01 X21.8624 Y49.9121 
G01 X21.6820 Y49.9480 
G01 X21.4980 Y49.9480 
G01 X21.3176 Y49.9121 
G01 X21.1476 Y49.8417 
G01 X20.9946 Y49.7395 
G01 X20.8645 Y49.6094 
G01 X20.7623 Y49.4564 
G01 X20.6919 Y49.2864 
G01 X20.6560 Y49.1060 
G00 Z3.0000 
G00 X18.1160 Y49.1060 
G01 Z-0.0700 F80.00 
G01 X18.1160 Y47.4140 F250.00 
G01 X18.1519 Y47.2336 
G01 X18.2223 Y47.0636 
G01 X18.3245 Y46.9106 
G01 X18.4546 Y46.7805 
G01 X18.6076 Y46.6783 
G01 X18.6795 Y46.6485 
G01 X18.6795 Y45.5496 
G01 X18.2350 Y45.1051 
G01 X18.2350 Y44.4299 
G01 X18.7124 Y43.9525 
G01 X19.3876 Y43.9525 
G01 X19.8650 Y44.4299 
G01 X19.8650 Y45.1051 
G01 X19.4205 Y45.5496 
G01 X19.4205 Y46.6485 
G01 X19.4924 Y46.6783 
G01 X19.6454 Y46.7805 
G01 X19.7755 Y46.9106 
G01 X19.8777 Y47.0636 
G01 X19.9481 Y47.2336 
G01 X19.9840 Y47.4140 
G01 X19.9840 Y49.1060 
G01 X19.9481 Y49.2864 
G01 X19.8777 Y49.4564 
G01 X19.7755 Y49.6094 
G01 X19.6454 Y49.7395 
G01 X19.4924 Y49.8417 
G01 X19.3224 Y49.9121 
G01 X19.1420 Y49.9480 
G01 X18.9580 Y49.9480 
G01 X18.7776 Y49.9121 
G01 X18.6076 Y49.8417 
G01 X18.4546 Y49.7395 
G01 X18.3245 Y49.6094 
G01 X18.2223 Y49.4564 
G01 X18.1519 Y49.2864 
G01 X18.1160 Y49.1060 
G00 Z3.0000 
G00 X15.5760 Y49.1060 
G01 Z-0.0700 F80.00 
G01 X15.5760 Y47.4140 F250.00 
G01 X15.6119 Y47.2336 
G01 X15.6823 Y47.0636 
G01 X15.7845 Y46.9106 
G01 X15.9146 Y46.7805 
G01 X16.0676 Y46.6783 
G01 X16.1268 Y46.6538 
G01 X16.1268 Y46.1032 
G01 X11.8132 Y46.1032 
G01 X11.8132 Y58.3513 
G01 X14.9159 Y61.4540 
G01 X15.0784 Y61.3712 
G01 X15.2955 Y61.3007 
G01 X15.5209 Y61.2650 
G01 X15.7491 Y61.2650 
G01 X15.9745 Y61.3007 
G01 X16.1916 Y61.3712 
G01 X16.3950 Y61.4748 
G01 X16.5796 Y61.6090 
G01 X16.7410 Y61.7704 
G01 X16.8752 Y61.9550 
G01 X16.9788 Y62.1584 
G01 X17.0493 Y62.3755 
G01 X17.0850 Y62.6009 
G01 X17.0850 Y62.8291 
G01 X17.0493 Y63.0545 
G01 X16.9788 Y63.2716 
G01 X16.8752 Y63.4750 
G01 X16.7410 Y63.6596 
G01 X16.5796 Y63.8210 
G01 X16.3950 Y63.9552 
G01 X16.1916 Y64.0588 
G01 X15.9745 Y64.1293 
G01 X15.7491 Y64.1650 
G01 X15.5209 Y64.1650 
G01 X15.2955 Y64.1293 
G01 X15.0784 Y64.0588 
G01 X14.8750 Y63.9552 
G01 X14.6904 Y63.8210 
G01 X14.5290 Y63.6596 
G01 X14.3948 Y63.4750 
G01 X14.2912 Y63.2716 
G01 X14.2207 Y63.0545 
G01 X14.1850 Y62.8291 
G01 X14.1850 Y62.6009 
G01 X14.2207 Y62.3755 
G01 X14.2912 Y62.1584 
G01 X14.3740 Y61.9959 
G01 X11.1947 Y58.8166 
G01 X11.1234 Y58.7453 
G01 X11.0729 Y58.6579 
G01 X11.0468 Y58.5605 
G01 X11.0468 Y45.6695 
G01 X11.0729 Y45.5721 
G01 X11.1234 Y45.4847 
G01 X11.1947 Y45.4134 
G01 X11.2821 Y45.3629 
G01 X11.3795 Y45.3368 
G01 X16.5604 Y45.3368 
G01 X16.6579 Y45.3629 
G01 X16.7453 Y45.4134 
G01 X16.8166 Y45.4847 
G01 X16.8671 Y45.5721 
G01 X16.8932 Y45.6695 
G01 X16.8932 Y46.6538 
G01 X16.9524 Y46.6783 
G01 X17.1054 Y46.7805 
G01 X17.2355 Y46.9106 
G01 X17.3377 Y47.0636 
G01 X17.4081 Y47.2336 
G01 X17.4440 Y47.4140 
G01 X17.4440 Y49.1060 
G01 X17.4081 Y49.2864 
G01 X17.3377 Y49.4564 
G01 X17.2355 Y49.6094 
G01 X17.1054 Y49.7395 
G01 X16.9524 Y49.8417 
G01 X16.7824 Y49.9121 
G01 X16.6020 Y49.9480 
G01 X16.4180 Y49.9480 
G01 X16.2376 Y49.9121 
G01 X16.0676 Y49.8417 
G01 X15.9146 Y49.7395 
G01 X15.7845 Y49.6094 
G01 X15.6823 Y49.4564 
G01 X15.6119 Y49.2864 
G01 X15.5760 Y49.1060 
G00 Z3.0000 
G00 X13.0360 Y49.1060 
G01 Z-0.0700 F80.00 
G01 X13.0360 Y47.4140 F250.00 
G01 X13.0719 Y47.2336 
G01 X13.1423 Y47.0636 
G01 X13.2445 Y46.9106 
G01 X13.3746 Y46.7805 
G01 X13.5276 Y46.6783 
G01 X13.6976 Y46.6079 
G01 X13.8780 Y46.5720 
G01 X14.0620 Y46.5720 
G01 X14.2424 Y46.6079 
G01 X14.4124 Y46.6783 
G01 X14.5654 Y46.7805 
G01 X14.6955 Y46.9106 
G01 X14.7977 Y47.0636 
G01 X14.8681 Y47.2336 
G01 X14.9040 Y47.4140 
G01 X14.9040 Y49.1060 
G01 X14.8681 Y49.2864 
G01 X14.7977 Y49.4564 
G01 X14.6955 Y49.6094 
G01 X14.5654 Y49.7395 
G01 X14.4124 Y49.8417 
G01 X14.3532 Y49.8662 
G01 X14.3532 Y53.5918 
G01 X22.2754 Y53.5918 
G01 X22.3228 Y53.6045 
G01 X33.8325 Y53.6045 
G01 X33.8580 Y53.5428 
G01 X33.9086 Y53.4922 
G01 X33.9748 Y53.4648 
G01 X34.8720 Y53.4648 
G01 X34.8720 Y27.4521 
G01 X34.4275 Y27.0076 
G01 X34.4275 Y26.3324 
G01 X34.9049 Y25.8550 
G01 X35.5801 Y25.8550 
G01 X36.0246 Y26.2995 
G01 X39.6345 Y26.2995 
G01 X39.6345 Y11.3812 
G01 X39.6598 Y11.2870 
G01 X39.7085 Y11.2025 
G01 X39.7775 Y11.1335 
G01 X39.8620 Y11.0847 
G01 X39.9562 Y11.0595 
G01 X46.8922 Y11.0595 
G01 X46.9395 Y11.0468 
G01 X48.1013 Y11.0468 
G01 X48.3975 Y10.7506 
G01 X48.3975 Y10.1399 
G01 X48.8749 Y9.6625 
G01 X49.5501 Y9.6625 
G01 X50.0275 Y10.1399 
G01 X50.0275 Y10.8151 
G01 X49.5501 Y11.2925 
G01 X48.9394 Y11.2925 
G01 X48.4953 Y11.7366 
G01 X48.4079 Y11.7871 
G01 X48.3105 Y11.8132 
G01 X46.9395 Y11.8132 
G01 X46.8922 Y11.8005 
G01 X40.3755 Y11.8005 
G01 X40.3755 Y26.7188 
G01 X40.3502 Y26.8130 
G01 X40.3015 Y26.8975 
G01 X40.2325 Y26.9665 
G01 X40.1480 Y27.0152 
G01 X40.0538 Y27.0405 
G01 X36.0246 Y27.0405 
G01 X35.6130 Y27.4521 
G01 X35.6130 Y53.4648 
G01 X36.0784 Y53.4648 
G01 X36.1446 Y53.4922 
G01 X36.1952 Y53.5428 
G01 X36.2226 Y53.6090 
G01 X36.2226 Y54.3410 
G01 X36.1952 Y54.4072 
G01 X36.1446 Y54.4578 
G01 X36.0784 Y54.4852 
G01 X33.9748 Y54.4852 
G01 X33.9086 Y54.4578 
G01 X33.8580 Y54.4072 
G01 X33.8325 Y54.3455 
G01 X22.5955 Y54.3455 
G01 X22.5955 Y61.4063 
G01 X22.7300 Y61.4748 
G01 X22.9146 Y61.6090 
G01 X23.0760 Y61.7704 
G01 X23.2102 Y61.9550 
G01 X23.3138 Y62.1584 
G01 X23.3843 Y62.3755 
G01 X23.4200 Y62.6009 
G01 X23.4200 Y62.8291 
G01 X23.3843 Y63.0545 
G01 X23.3138 Y63.2716 
G01 X23.2102 Y63.4750 
G01 X23.0760 Y63.6596 
G01 X22.9146 Y63.8210 
G01 X22.7300 Y63.9552 
G01 X22.5266 Y64.0588 
G01 X22.3095 Y64.1293 
G01 X22.0841 Y64.1650 
G01 X21.8559 Y64.1650 
G01 X21.6305 Y64.1293 
G01 X21.4134 Y64.0588 
G01 X21.2100 Y63.9552 
G01 X21.0254 Y63.8210 
G01 X20.8640 Y63.6596 
G01 X20.7298 Y63.4750 
G01 X20.6262 Y63.2716 
G01 X20.5557 Y63.0545 
G01 X20.5200 Y62.8291 
G01 X20.5200 Y62.6009 
G01 X20.5557 Y62.3755 
G01 X20.6262 Y62.1584 
G01 X20.7298 Y61.9550 
G01 X20.8640 Y61.7704 
G01 X21.0254 Y61.6090 
G01 X21.2100 Y61.4748 
G01 X21.4134 Y61.3712 
G01 X21.6305 Y61.3007 
G01 X21.8545 Y61.2652 
G01 X21.8545 Y54.3582 
G01 X13.9195 Y54.3582 
G01 X13.8221 Y54.3321 
G01 X13.7347 Y54.2816 
G01 X13.6634 Y54.2103 
G01 X13.6129 Y54.1229 
G01 X13.5868 Y54.0254 
G01 X13.5868 Y49.8662 
G01 X13.5276 Y49.8417 
G01 X13.3746 Y49.7395 
G01 X13.2445 Y49.6094 
G01 X13.1423 Y49.4564 
G01 X13.0719 Y49.2864 
G01 X13.0360 Y49.1060 
G00 Z3.0000 
G00 X68.0440 Y10.7977 
G01 Z-0.0700 F80.00 
G01 X68.0440 Y10.9423 F250.00 
G01 X68.0158 Y11.0841 
G01 X67.9605 Y11.2177 
G01 X67.8801 Y11.3379 
G01 X67.7779 Y11.4401 
G01 X67.6577 Y11.5205 
G01 X67.5241 Y11.5758 
G01 X67.3823 Y11.6040 
G01 X67.2377 Y11.6040 
G01 X67.0959 Y11.5758 
G01 X66.9623 Y11.5205 
G01 X66.8421 Y11.4401 
G01 X66.7399 Y11.3379 
G01 X66.6595 Y11.2177 
G01 X66.6042 Y11.0841 
G01 X66.5760 Y10.9423 
G01 X66.5760 Y10.7977 
G01 X66.6042 Y10.6559 
G01 X66.6595 Y10.5223 
G01 X66.7399 Y10.4021 
G01 X66.8421 Y10.2999 
G01 X66.9623 Y10.2195 
G01 X67.0959 Y10.1642 
G01 X67.2377 Y10.1360 
G01 X67.3823 Y10.1360 
G01 X67.5241 Y10.1642 
G01 X67.6577 Y10.2195 
G01 X67.7779 Y10.2999 
G01 X67.8801 Y10.4021 
G01 X67.9605 Y10.5223 
G01 X68.0158 Y10.6559 
G01 X68.0440 Y10.7977 
G00 Z3.0000 
G00 X68.0440 Y4.2977 
G01 Z-0.0700 F80.00 
G01 X68.0440 Y4.4423 F250.00 
G01 X68.0158 Y4.5841 
G01 X67.9605 Y4.7177 
G01 X67.8801 Y4.8379 
G01 X67.7779 Y4.9401 
G01 X67.6577 Y5.0205 
G01 X67.5241 Y5.0758 
G01 X67.3823 Y5.1040 
G01 X67.2377 Y5.1040 
G01 X67.0959 Y5.0758 
G01 X66.9623 Y5.0205 
G01 X66.8421 Y4.9401 
G01 X66.7399 Y4.8379 
G01 X66.6595 Y4.7177 
G01 X66.6042 Y4.5841 
G01 X66.5760 Y4.4423 
G01 X66.5760 Y4.2977 
G01 X66.6042 Y4.1559 
G01 X66.6595 Y4.0223 
G01 X66.7399 Y3.9021 
G01 X66.8421 Y3.7999 
G01 X66.9623 Y3.7195 
G01 X67.0959 Y3.6642 
G01 X67.2377 Y3.6360 
G01 X67.3823 Y3.6360 
G01 X67.5241 Y3.6642 
G01 X67.6577 Y3.7195 
G01 X67.7779 Y3.7999 
G01 X67.8801 Y3.9021 
G01 X67.9605 Y4.0223 
G01 X68.0158 Y4.1559 
G01 X68.0440 Y4.2977 
G00 Z3.0000 
G00 X42.2252 Y54.4852 
G01 Z-0.0700 F80.00 
G01 X40.1216 Y54.4852 F250.00 
G01 X40.0554 Y54.4578 
G01 X40.0048 Y54.4072 
G01 X39.9774 Y54.3410 
G01 X39.9774 Y53.6090 
G01 X40.0048 Y53.5428 
G01 X40.0554 Y53.4922 
G01 X40.1216 Y53.4648 
G01 X42.2252 Y53.4648 
G01 X42.2914 Y53.4922 
G01 X42.3420 Y53.5428 
G01 X42.3694 Y53.6090 
G01 X42.3694 Y54.3410 
G01 X42.3420 Y54.4072 
G01 X42.2914 Y54.4578 
G01 X42.2252 Y54.4852 
G00 Z3.0000 
G00 X36.0784 Y55.7552 
G01 Z-0.0700 F80.00 
G01 X33.9748 Y55.7552 F250.00 
G01 X33.9086 Y55.7278 
G01 X33.8580 Y55.6772 
G01 X33.8306 Y55.6110 
G01 X33.8306 Y54.8790 
G01 X33.8580 Y54.8128 
G01 X33.9086 Y54.7622 
G01 X33.9748 Y54.7348 
G01 X36.0784 Y54.7348 
G01 X36.1446 Y54.7622 
G01 X36.1952 Y54.8128 
G01 X36.2226 Y54.8790 
G01 X36.2226 Y55.6110 
G01 X36.1952 Y55.6772 
G01 X36.1446 Y55.7278 
G01 X36.0784 Y55.7552 
G00 Z3.0000 
G00 X36.0784 Y57.0252 
G01 Z-0.0700 F80.00 
G01 X33.9748 Y57.0252 F250.00 
G01 X33.9086 Y56.9978 
G01 X33.8580 Y56.9472 
G01 X33.8306 Y56.8810 
G01 X33.8306 Y56.1490 
G01 X33.8580 Y56.0828 
G01 X33.9086 Y56.0322 
G01 X33.9748 Y56.0048 
G01 X36.0784 Y56.0048 
G01 X36.1446 Y56.0322 
G01 X36.1952 Y56.0828 
G01 X36.2226 Y56.1490 
G01 X36.2226 Y56.8810 
G01 X36.1952 Y56.9472 
G01 X36.1446 Y56.9978 
G01 X36.0784 Y57.0252 
G00 Z3.0000 
G00 X49.7300 Y48.2442 
G01 Z-0.0700 F80.00 
G01 X49.7300 Y50.8158 F250.00 
G01 X49.7026 Y50.8820 
G01 X49.6520 Y50.9326 
G01 X49.5858 Y50.9600 
G01 X47.3540 Y50.9600 
G01 X46.7255 Y51.5885 
G01 X46.7255 Y55.2938 
G01 X46.7002 Y55.3880 
G01 X46.6515 Y55.4725 
G01 X46.5825 Y55.5415 
G01 X46.4980 Y55.5902 
G01 X46.4038 Y55.6155 
G01 X42.3675 Y55.6155 
G01 X42.3420 Y55.6772 
G01 X42.2914 Y55.7278 
G01 X42.2252 Y55.7552 
G01 X40.1216 Y55.7552 
G01 X40.0554 Y55.7278 
G01 X40.0048 Y55.6772 
G01 X39.9774 Y55.6110 
G01 X39.9774 Y54.8790 
G01 X40.0048 Y54.8128 
G01 X40.0554 Y54.7622 
G01 X40.1216 Y54.7348 
G01 X42.2252 Y54.7348 
G01 X42.2914 Y54.7622 
G01 X42.3420 Y54.8128 
G01 X42.3675 Y54.8745 
G01 X45.9845 Y54.8745 
G01 X45.9845 Y51.3862 
G01 X46.0098 Y51.2920 
G01 X46.0585 Y51.2075 
G01 X46.8200 Y50.4460 
G01 X46.8200 Y48.2442 
G01 X46.8474 Y48.1780 
G01 X46.8980 Y48.1274 
G01 X46.9642 Y48.1000 
G01 X49.5858 Y48.1000 
G01 X49.6520 Y48.1274 
G01 X49.7026 Y48.1780 
G01 X49.7300 Y48.2442 
G00 Z3.0000 
G00 X59.1000 Y52.4342 
G01 Z-0.0700 F80.00 
G01 X59.1000 Y53.9058 F250.00 
G01 X59.0726 Y53.9720 
G01 X59.0220 Y54.0226 
G01 X58.9558 Y54.0500 
G01 X57.8842 Y54.0500 
G01 X57.8180 Y54.0226 
G01 X57.7674 Y53.9720 
G01 X57.7400 Y53.9058 
G01 X57.7400 Y53.3930 
G01 X53.2912 Y53.3930 
G01 X53.1970 Y53.3677 
G01 X53.1125 Y53.3190 
G01 X53.0435 Y53.2500 
G01 X52.9948 Y53.1655 
G01 X52.9695 Y53.0713 
G01 X52.9695 Y50.9600 
G01 X52.0142 Y50.9600 
G01 X51.9480 Y50.9326 
G01 X51.8974 Y50.8820 
G01 X51.8700 Y50.8158 
G01 X51.8700 Y48.2442 
G01 X51.8974 Y48.1780 
G01 X51.9480 Y48.1274 
G01 X52.0142 Y48.1000 
G01 X54.6358 Y48.1000 
G01 X54.7020 Y48.1274 
G01 X54.7526 Y48.1780 
G01 X54.7800 Y48.2442 
G01 X54.7800 Y50.8158 
G01 X54.7526 Y50.8820 
G01 X54.7020 Y50.9326 
G01 X54.6358 Y50.9600 
G01 X53.7105 Y50.9600 
G01 X53.7105 Y52.6520 
G01 X57.7400 Y52.6520 
G01 X57.7400 Y52.4342 
G01 X57.7674 Y52.3680 
G01 X57.8180 Y52.3174 
G01 X57.8842 Y52.2900 
G01 X58.9558 Y52.2900 
G01 X59.0220 Y52.3174 
G01 X59.0726 Y52.3680 
G01 X59.1000 Y52.4342 
G00 Z3.0000 
G00 X60.0500 Y50.2342 
G01 Z-0.0700 F80.00 
G01 X60.0500 Y50.5995 F250.00 
G01 X60.3738 Y50.5995 
G01 X60.4680 Y50.6248 
G01 X60.5525 Y50.6735 
G01 X60.6215 Y50.7425 
G01 X60.6702 Y50.8270 
G01 X60.6955 Y50.9212 
G01 X60.6955 Y54.2395 
G01 X65.6695 Y54.2395 
G01 X65.6695 Y43.4487 
G01 X65.6947 Y43.3545 
G01 X65.7435 Y43.2700 
G01 X67.1500 Y41.8635 
G01 X67.1500 Y39.3442 
G01 X67.1774 Y39.2780 
G01 X67.2280 Y39.2274 
G01 X67.2942 Y39.2000 
G01 X68.2095 Y39.2000 
G01 X68.2095 Y29.9428 
G01 X68.1968 Y29.8955 
G01 X68.1968 Y28.7337 
G01 X67.5831 Y28.1200 
G01 X66.9724 Y28.1200 
G01 X66.4950 Y27.6426 
G01 X66.4950 Y26.9674 
G01 X66.9724 Y26.4900 
G01 X67.6476 Y26.4900 
G01 X68.1250 Y26.9674 
G01 X68.1250 Y27.5781 
G01 X68.8866 Y28.3397 
G01 X68.9371 Y28.4271 
G01 X68.9632 Y28.5245 
G01 X68.9632 Y29.8955 
G01 X68.9505 Y29.9428 
G01 X68.9505 Y39.2000 
G01 X69.8658 Y39.2000 
G01 X69.9320 Y39.2274 
G01 X69.9826 Y39.2780 
G01 X70.0100 Y39.3442 
G01 X70.0100 Y41.9658 
G01 X69.9826 Y42.0320 
G01 X69.9320 Y42.0826 
G01 X69.8658 Y42.1100 
G01 X67.9515 Y42.1100 
G01 X66.4105 Y43.6510 
G01 X66.4105 Y54.6588 
G01 X66.3852 Y54.7530 
G01 X66.3365 Y54.8375 
G01 X66.2675 Y54.9065 
G01 X66.1830 Y54.9552 
G01 X66.0888 Y54.9805 
G01 X60.2762 Y54.9805 
G01 X60.1820 Y54.9552 
G01 X60.0975 Y54.9065 
G01 X60.0285 Y54.8375 
G01 X59.9798 Y54.7530 
G01 X59.9545 Y54.6588 
G01 X59.9545 Y51.8298 
G01 X59.9058 Y51.8500 
G01 X58.8342 Y51.8500 
G01 X58.7680 Y51.8226 
G01 X58.7174 Y51.7720 
G01 X58.6900 Y51.7058 
G01 X58.6900 Y50.2342 
G01 X58.7174 Y50.1680 
G01 X58.7680 Y50.1174 
G01 X58.8342 Y50.0900 
G01 X59.9058 Y50.0900 
G01 X59.9720 Y50.1174 
G01 X60.0226 Y50.1680 
G01 X60.0500 Y50.2342 
G00 Z3.0000 
G00 X62.3592 Y30.0582 
G01 Z-0.0700 F80.00 
G01 X62.3592 Y30.9017 F250.00 
G01 X61.7628 Y31.4982 
G01 X60.9192 Y31.4982 
G01 X60.3228 Y30.9017 
G01 X60.3228 Y30.0582 
G01 X60.9192 Y29.4618 
G01 X61.7628 Y29.4618 
G01 X62.3592 Y30.0582 
G00 Z3.0000 
G00 X64.5182 Y30.0582 
G01 Z-0.0700 F80.00 
G01 X64.5182 Y30.9017 F250.00 
G01 X63.9218 Y31.4982 
G01 X63.0782 Y31.4982 
G01 X62.4818 Y30.9017 
G01 X62.4818 Y30.0582 
G01 X63.0782 Y29.4618 
G01 X63.9218 Y29.4618 
G01 X64.5182 Y30.0582 
G00 Z3.0000 
G00 X66.6772 Y30.0582 
G01 Z-0.0700 F80.00 
G01 X66.6772 Y30.9017 F250.00 
G01 X66.0808 Y31.4982 
G01 X65.2372 Y31.4982 
G01 X64.6408 Y30.9017 
G01 X64.6408 Y30.0582 
G01 X65.2372 Y29.4618 
G01 X66.0808 Y29.4618 
G01 X66.6772 Y30.0582 
G00 Z3.0000 
G00 X69.5173 Y54.1680 
G01 Z-0.0700 F80.00 
G01 X67.6427 Y54.1680 F250.00 
G01 X67.5765 Y54.1406 
G01 X67.5259 Y54.0900 
G01 X67.4985 Y54.0238 
G01 X67.4985 Y52.3522 
G01 X67.5259 Y52.2860 
G01 X67.5765 Y52.2354 
G01 X67.6427 Y52.2080 
G01 X68.8705 Y52.2080 
G01 X70.1145 Y50.9640 
G01 X70.1145 Y34.1196 
G01 X69.6700 Y33.6751 
G01 X69.6700 Y32.9999 
G01 X70.1474 Y32.5225 
G01 X70.8226 Y32.5225 
G01 X71.3000 Y32.9999 
G01 X71.3000 Y33.6751 
G01 X70.8555 Y34.1196 
G01 X70.8555 Y51.1663 
G01 X70.8302 Y51.2605 
G01 X70.7815 Y51.3450 
G01 X70.7125 Y51.4140 
G01 X69.6615 Y52.4650 
G01 X69.6615 Y54.0238 
G01 X69.6341 Y54.0900 
G01 X69.5835 Y54.1406 
G01 X69.5173 Y54.1680 
G00 Z3.0000 
G00 X59.7101 Y32.8825 
G01 Z-0.0700 F80.00 
G01 X59.0349 Y32.8825 F250.00 
G01 X58.5575 Y32.4051 
G01 X58.5575 Y31.7299 
G01 X59.0349 Y31.2525 
G01 X59.7101 Y31.2525 
G01 X60.1546 Y31.6970 
G01 X64.1838 Y31.6970 
G01 X64.2780 Y31.7223 
G01 X64.3625 Y31.7710 
G01 X64.4315 Y31.8400 
G01 X64.4802 Y31.9245 
G01 X64.5055 Y32.0187 
G01 X64.5055 Y51.1663 
G01 X64.4802 Y51.2605 
G01 X64.4315 Y51.3450 
G01 X63.3115 Y52.4650 
G01 X63.3115 Y54.0238 
G01 X63.2841 Y54.0900 
G01 X63.2335 Y54.1406 
G01 X63.1673 Y54.1680 
G01 X61.2927 Y54.1680 
G01 X61.2265 Y54.1406 
G01 X61.1759 Y54.0900 
G01 X61.1485 Y54.0238 
G01 X61.1485 Y52.3522 
G01 X61.1759 Y52.2860 
G01 X61.2265 Y52.2354 
G01 X61.2927 Y52.2080 
G01 X62.5205 Y52.2080 
G01 X63.7645 Y50.9640 
G01 X63.7645 Y32.4380 
G01 X60.1546 Y32.4380 
G01 X59.7101 Y32.8825 
G00 Z3.0000 
G00 X76.4275 Y40.9785 
G01 Z-0.0700 F80.00 
G01 X76.4965 Y41.0475 F250.00 
G01 X76.5452 Y41.1320 
G01 X76.5705 Y41.2262 
G01 X76.5705 Y48.5055 
G01 X77.2816 Y48.5055 
G01 X77.4488 Y48.5319 
G01 X77.6097 Y48.5842 
G01 X77.7606 Y48.6611 
G01 X77.8975 Y48.7606 
G01 X78.0172 Y48.8803 
G01 X78.1167 Y49.0172 
G01 X78.1935 Y49.1680 
G01 X78.2458 Y49.3290 
G01 X78.2723 Y49.4962 
G01 X78.2723 Y49.6654 
G01 X78.2458 Y49.8326 
G01 X78.1935 Y49.9936 
G01 X78.1167 Y50.1444 
G01 X78.0172 Y50.2813 
G01 X77.8975 Y50.4010 
G01 X77.7606 Y50.5005 
G01 X77.6097 Y50.5774 
G01 X77.4488 Y50.6297 
G01 X77.2816 Y50.6561 
G01 X75.3216 Y50.6561 
G01 X75.1544 Y50.6297 
G01 X74.9935 Y50.5774 
G01 X74.8426 Y50.5005 
G01 X74.7057 Y50.4010 
G01 X74.5860 Y50.2813 
G01 X74.4865 Y50.1444 
G01 X74.4097 Y49.9936 
G01 X74.3574 Y49.8326 
G01 X74.3309 Y49.6654 
G01 X74.3309 Y49.4962 
G01 X74.3574 Y49.3290 
G01 X74.4097 Y49.1680 
G01 X74.4865 Y49.0172 
G01 X74.5860 Y48.8803 
G01 X74.7057 Y48.7606 
G01 X74.8426 Y48.6611 
G01 X74.9935 Y48.5842 
G01 X75.1544 Y48.5319 
G01 X75.3216 Y48.5055 
G01 X75.8295 Y48.5055 
G01 X75.8295 Y41.4285 
G01 X72.0460 Y37.6450 
G01 X71.4174 Y37.6450 
G01 X70.9400 Y37.1676 
G01 X70.9400 Y36.4924 
G01 X71.4174 Y36.0150 
G01 X72.0926 Y36.0150 
G01 X72.5700 Y36.4924 
G01 X72.5700 Y37.1210 
G01 X76.4275 Y40.9785 
G00 Z3.0000 
G00 X66.5605 Y47.0148 
G01 Z-0.0700 F80.00 
G01 X66.5760 Y46.9879 F250.00 
G01 X66.6729 Y46.8910 
G01 X67.0000 Y46.5639 
G01 X67.0000 Y44.3866 
G01 X67.0225 Y44.3026 
G01 X67.0659 Y44.2274 
G01 X67.1274 Y44.1659 
G01 X67.2026 Y44.1225 
G01 X67.2866 Y44.1000 
G01 X69.8734 Y44.1000 
G01 X69.9574 Y44.1225 
G01 X69.9645 Y44.1266 
G01 X69.9645 Y42.2334 
G01 X69.9574 Y42.2375 
G01 X69.8734 Y42.2600 
G01 X68.0136 Y42.2600 
G01 X66.5605 Y43.7131 
G01 X66.5605 Y47.0148 
G00 Z3.0000 
G00 X63.4615 Y55.1886 
G01 Z-0.0700 F80.00 
G01 X63.4615 Y56.8754 F250.00 
G01 X63.4390 Y56.9594 
G01 X63.3956 Y57.0346 
G01 X63.3341 Y57.0961 
G01 X63.2589 Y57.1395 
G01 X63.1749 Y57.1620 
G01 X61.2851 Y57.1620 
G01 X61.2011 Y57.1395 
G01 X61.1259 Y57.0961 
G01 X61.0644 Y57.0346 
G01 X61.0210 Y56.9594 
G01 X60.9985 Y56.8754 
G01 X60.9985 Y56.4005 
G01 X54.9300 Y56.4005 
G01 X54.9300 Y57.1734 
G01 X54.9075 Y57.2574 
G01 X54.9034 Y57.2645 
G01 X68.0595 Y57.2645 
G01 X68.0595 Y57.1620 
G01 X67.6351 Y57.1620 
G01 X67.5511 Y57.1395 
G01 X67.4759 Y57.0961 
G01 X67.4144 Y57.0346 
G01 X67.3710 Y56.9594 
G01 X67.3485 Y56.8754 
G01 X67.3485 Y55.3846 
G01 X66.5760 Y54.6121 
G01 X66.5605 Y54.5852 
G01 X66.5605 Y54.6785 
G01 X66.5250 Y54.8109 
G01 X66.4565 Y54.9296 
G01 X66.3596 Y55.0265 
G01 X66.2409 Y55.0950 
G01 X66.1085 Y55.1305 
G01 X63.4459 Y55.1305 
G01 X63.4615 Y55.1886 
G00 Z3.0000 
G00 X62.4205 Y31.0526 
G01 Z-0.0700 F80.00 
G01 X61.9261 Y31.5470 F250.00 
G01 X62.9149 Y31.5470 
G01 X62.4205 Y31.0526 
G00 Z3.0000 
G00 X55.8867 Y20.0167 
G01 Z-0.0700 F80.00 
G01 X55.9497 Y19.8228 F250.00 
G01 X56.0422 Y19.6412 
G01 X56.1621 Y19.4762 
G01 X56.3062 Y19.3321 
G01 X56.4712 Y19.2122 
G01 X56.6528 Y19.1197 
G01 X56.8467 Y19.0567 
G01 X56.8890 Y19.0500 
G01 X56.8467 Y19.0433 
G01 X56.6528 Y18.9803 
G01 X56.4712 Y18.8878 
G01 X56.3062 Y18.7679 
G01 X56.1621 Y18.6238 
G01 X56.0422 Y18.4588 
G01 X55.9497 Y18.2772 
G01 X55.8867 Y18.0833 
G01 X55.8800 Y18.0410 
G01 X55.8733 Y18.0833 
G01 X55.8103 Y18.2772 
G01 X55.7178 Y18.4588 
G01 X55.5979 Y18.6238 
G01 X55.4538 Y18.7679 
G01 X55.2888 Y18.8878 
G01 X55.1072 Y18.9803 
G01 X54.9133 Y19.0433 
G01 X54.8710 Y19.0500 
G01 X54.9133 Y19.0567 
G01 X55.1072 Y19.1197 
G01 X55.2888 Y19.2122 
G01 X55.4538 Y19.3321 
G01 X55.5979 Y19.4762 
G01 X55.7178 Y19.6412 
G01 X55.8103 Y19.8228 
G01 X55.8733 Y20.0167 
G01 X55.8800 Y20.0590 
G01 X55.8867 Y20.0167 
G00 Z3.0000 
G00 X55.8867 Y17.4767 
G01 Z-0.0700 F80.00 
G01 X55.9497 Y17.2828 F250.00 
G01 X56.0422 Y17.1012 
G01 X56.1621 Y16.9362 
G01 X56.3062 Y16.7921 
G01 X56.4712 Y16.6722 
G01 X56.6528 Y16.5797 
G01 X56.8467 Y16.5167 
G01 X56.8890 Y16.5100 
G01 X56.8467 Y16.5033 
G01 X56.6528 Y16.4403 
G01 X56.4712 Y16.3478 
G01 X56.3062 Y16.2279 
G01 X56.1621 Y16.0838 
G01 X56.0422 Y15.9188 
G01 X55.9497 Y15.7372 
G01 X55.8867 Y15.5433 
G01 X55.8800 Y15.5010 
G01 X55.8733 Y15.5433 
G01 X55.8103 Y15.7372 
G01 X55.7178 Y15.9188 
G01 X55.5979 Y16.0838 
G01 X55.4538 Y16.2279 
G01 X55.2888 Y16.3478 
G01 X55.1072 Y16.4403 
G01 X54.9133 Y16.5033 
G01 X54.8710 Y16.5100 
G01 X54.9133 Y16.5167 
G01 X55.1072 Y16.5797 
G01 X55.2888 Y16.6722 
G01 X55.4538 Y16.7921 
G01 X55.5979 Y16.9362 
G01 X55.7178 Y17.1012 
G01 X55.8103 Y17.2828 
G01 X55.8733 Y17.4767 
G01 X55.8800 Y17.5190 
G01 X55.8867 Y17.4767 
G00 Z3.0000 
G00 X55.8867 Y14.9367 
G01 Z-0.0700 F80.00 
G01 X55.9497 Y14.7428 F250.00 
G01 X56.0422 Y14.5612 
G01 X56.1621 Y14.3962 
G01 X56.3062 Y14.2521 
G01 X56.4712 Y14.1322 
G01 X56.6528 Y14.0397 
G01 X56.8467 Y13.9767 
G01 X56.8890 Y13.9700 
G01 X56.8467 Y13.9633 
G01 X56.6528 Y13.9003 
G01 X56.4712 Y13.8078 
G01 X56.3062 Y13.6879 
G01 X56.1621 Y13.5438 
G01 X56.0422 Y13.3788 
G01 X55.9497 Y13.1972 
G01 X55.8867 Y13.0033 
G01 X55.8800 Y12.9610 
G01 X55.8733 Y13.0033 
G01 X55.8103 Y13.1972 
G01 X55.7178 Y13.3788 
G01 X55.5979 Y13.5438 
G01 X55.4538 Y13.6879 
G01 X55.2888 Y13.8078 
G01 X55.1072 Y13.9003 
G01 X54.9133 Y13.9633 
G01 X54.8710 Y13.9700 
G01 X54.9133 Y13.9767 
G01 X55.1072 Y14.0397 
G01 X55.2888 Y14.1322 
G01 X55.4538 Y14.2521 
G01 X55.5979 Y14.3962 
G01 X55.7178 Y14.5612 
G01 X55.8103 Y14.7428 
G01 X55.8733 Y14.9367 
G01 X55.8800 Y14.9790 
G01 X55.8867 Y14.9367 
G00 Z3.0000 
G00 X55.8867 Y12.3967 
G01 Z-0.0700 F80.00 
G01 X55.9497 Y12.2028 F250.00 
G01 X56.0422 Y12.0212 
G01 X56.1621 Y11.8562 
G01 X56.3062 Y11.7121 
G01 X56.4712 Y11.5922 
G01 X56.6528 Y11.4997 
G01 X56.8467 Y11.4367 
G01 X56.8890 Y11.4300 
G01 X56.8467 Y11.4233 
G01 X56.6528 Y11.3603 
G01 X56.4712 Y11.2678 
G01 X56.3062 Y11.1479 
G01 X56.1621 Y11.0038 
G01 X56.0422 Y10.8388 
G01 X55.9497 Y10.6572 
G01 X55.8867 Y10.4633 
G01 X55.8800 Y10.4210 
G01 X55.8733 Y10.4633 
G01 X55.8103 Y10.6572 
G01 X55.7178 Y10.8388 
G01 X55.5979 Y11.0038 
G01 X55.4538 Y11.1479 
G01 X55.2888 Y11.2678 
G01 X55.1072 Y11.3603 
G01 X54.9133 Y11.4233 
G01 X54.8710 Y11.4300 
G01 X54.9133 Y11.4367 
G01 X55.1072 Y11.4997 
G01 X55.2888 Y11.5922 
G01 X55.4538 Y11.7121 
G01 X55.5979 Y11.8562 
G01 X55.7178 Y12.0212 
G01 X55.8103 Y12.2028 
G01 X55.8733 Y12.3967 
G01 X55.8800 Y12.4390 
G01 X55.8867 Y12.3967 
G00 Z3.0000 
G00 X39.4845 Y26.0765 
G01 Z-0.0700 F80.00 
G01 X39.4115 Y26.1495 F250.00 
G01 X39.4845 Y26.1495 
G01 X39.4845 Y26.0765 
G00 Z3.0000 
G00 X69.8115 Y52.5271 
G01 Z-0.0700 F80.00 
G01 X69.8115 Y54.0314 F250.00 
G01 X69.7890 Y54.1154 
G01 X69.7456 Y54.1906 
G01 X69.6841 Y54.2521 
G01 X69.6089 Y54.2955 
G01 X69.5249 Y54.3180 
G01 X67.7541 Y54.3180 
G01 X68.3381 Y54.9020 
G01 X69.5249 Y54.9020 
G01 X69.6089 Y54.9245 
G01 X69.6841 Y54.9679 
G01 X69.7456 Y55.0294 
G01 X69.7890 Y55.1046 
G01 X69.8115 Y55.1886 
G01 X69.8115 Y55.3595 
G01 X74.4736 Y55.3595 
G01 X74.3582 Y55.2014 
G01 X74.2707 Y55.0296 
G01 X74.2111 Y54.8461 
G01 X74.1809 Y54.6556 
G01 X74.1809 Y54.4628 
G01 X74.2111 Y54.2723 
G01 X74.2707 Y54.0888 
G01 X74.3582 Y53.9170 
G01 X74.4716 Y53.7609 
G01 X74.6080 Y53.6246 
G01 X74.7640 Y53.5112 
G01 X74.9359 Y53.4236 
G01 X75.1193 Y53.3640 
G01 X75.3098 Y53.3339 
G01 X76.7401 Y53.3339 
G01 X78.2195 Y51.8544 
G01 X78.2195 Y50.2581 
G01 X78.1316 Y50.3791 
G01 X77.9952 Y50.5154 
G01 X77.8392 Y50.6288 
G01 X77.6673 Y50.7164 
G01 X77.4839 Y50.7760 
G01 X77.2934 Y50.8061 
G01 X75.3098 Y50.8061 
G01 X75.1193 Y50.7760 
G01 X74.9359 Y50.7164 
G01 X74.7640 Y50.6288 
G01 X74.6080 Y50.5154 
G01 X74.4716 Y50.3791 
G01 X74.3582 Y50.2230 
G01 X74.2707 Y50.0512 
G01 X74.2111 Y49.8677 
G01 X74.1809 Y49.6772 
G01 X74.1809 Y49.4844 
G01 X74.2111 Y49.2939 
G01 X74.2707 Y49.1104 
G01 X74.3582 Y48.9386 
G01 X74.4716 Y48.7825 
G01 X74.6080 Y48.6462 
G01 X74.7640 Y48.5328 
G01 X74.9359 Y48.4452 
G01 X75.1193 Y48.3856 
G01 X75.3098 Y48.3555 
G01 X75.6795 Y48.3555 
G01 X75.6795 Y41.4906 
G01 X71.9839 Y37.7950 
G01 X71.3553 Y37.7950 
G01 X71.0055 Y37.4452 
G01 X71.0055 Y51.1860 
G01 X70.9700 Y51.3184 
G01 X70.9015 Y51.4371 
G01 X70.8046 Y51.5340 
G01 X69.8115 Y52.5271 
G00 Z3.0000 
G00 X69.9574 Y47.2875 
G01 Z-0.0700 F80.00 
G01 X69.8734 Y47.3100 F250.00 
G01 X67.7261 Y47.3100 
G01 X67.5130 Y47.5231 
G01 X67.5130 Y52.1025 
G01 X67.5511 Y52.0805 
G01 X67.6351 Y52.0580 
G01 X68.8084 Y52.0580 
G01 X69.9645 Y50.9019 
G01 X69.9645 Y47.2834 
G01 X69.9574 Y47.2875 
G00 Z3.0000 
G00 X42.4535 Y55.7778 
G01 Z-0.0700 F80.00 
G01 X42.3920 Y55.8393 F250.00 
G01 X42.3215 Y55.8800 
G01 X42.3920 Y55.9207 
G01 X42.4535 Y55.9822 
G01 X42.4606 Y55.9945 
G01 X46.6700 Y55.9945 
G01 X46.6700 Y55.6641 
G01 X46.5559 Y55.7300 
G01 X46.4235 Y55.7655 
G01 X42.4606 Y55.7655 
G01 X42.4535 Y55.7778 
G00 Z3.0000 
G00 X46.8755 Y54.3217 
G01 Z-0.0700 F80.00 
G01 X46.9566 Y54.3000 F250.00 
G01 X49.1039 Y54.3000 
G01 X49.6445 Y53.7594 
G01 X49.6445 Y51.0963 
G01 X49.5934 Y51.1100 
G01 X47.4161 Y51.1100 
G01 X46.8755 Y51.6506 
G01 X46.8755 Y54.3217 
G00 Z3.0000 
G00 X68.1940 Y4.2829 
G01 Z-0.0700 F80.00 
G01 X68.1940 Y4.4571 F250.00 
G01 X68.1600 Y4.6279 
G01 X68.0934 Y4.7887 
G01 X67.9966 Y4.9335 
G01 X67.8735 Y5.0566 
G01 X67.7287 Y5.1534 
G01 X67.5679 Y5.2200 
G01 X67.3971 Y5.2540 
G01 X67.2229 Y5.2540 
G01 X67.0521 Y5.2200 
G01 X66.8913 Y5.1534 
G01 X66.7465 Y5.0566 
G01 X66.6234 Y4.9335 
G01 X66.5266 Y4.7887 
G01 X66.4600 Y4.6279 
G01 X66.4260 Y4.4571 
G01 X66.4260 Y4.2829 
G01 X66.4600 Y4.1121 
G01 X66.5266 Y3.9513 
G01 X66.6234 Y3.8065 
G01 X66.7465 Y3.6834 
G01 X66.8913 Y3.5866 
G01 X67.0521 Y3.5200 
G01 X67.2229 Y3.4860 
G01 X67.3971 Y3.4860 
G01 X67.5679 Y3.5200 
G01 X67.7287 Y3.5866 
G01 X67.8735 Y3.6834 
G01 X67.9966 Y3.8065 
G01 X68.0934 Y3.9513 
G01 X68.1600 Y4.1121 
G01 X68.1940 Y4.2829 
G00 Z3.0000 
G00 X68.1940 Y10.7829 
G01 Z-0.0700 F80.00 
G01 X68.1940 Y10.9571 F250.00 
G01 X68.1600 Y11.1279 
G01 X68.0934 Y11.2887 
G01 X67.9966 Y11.4335 
G01 X67.8735 Y11.5566 
G01 X67.7287 Y11.6534 
G01 X67.5679 Y11.7200 
G01 X67.3971 Y11.7540 
G01 X67.2229 Y11.7540 
G01 X67.0521 Y11.7200 
G01 X66.8913 Y11.6534 
G01 X66.7465 Y11.5566 
G01 X66.6234 Y11.4335 
G01 X66.5266 Y11.2887 
G01 X66.4600 Y11.1279 
G01 X66.4260 Y10.9571 
G01 X66.4260 Y10.7829 
G01 X66.4600 Y10.6121 
G01 X66.5266 Y10.4513 
G01 X66.6234 Y10.3065 
G01 X66.7465 Y10.1834 
G01 X66.8913 Y10.0866 
G01 X67.0521 Y10.0200 
G01 X67.2229 Y9.9860 
G01 X67.3971 Y9.9860 
G01 X67.5679 Y10.0200 
G01 X67.7287 Y10.0866 
G01 X67.8735 Y10.1834 
G01 X67.9966 Y10.3065 
G01 X68.0934 Y10.4513 
G01 X68.1600 Y10.6121 
G01 X68.1940 Y10.7829 
G00 Z3.0000 
G00 X15.4260 Y49.0993 
G01 Z-0.0700 F80.00 
G01 X15.4260 Y47.4207 F250.00 
G01 X15.4527 Y47.2522 
G01 X15.5054 Y47.0899 
G01 X15.5829 Y46.9379 
G01 X15.6832 Y46.7998 
G01 X15.8038 Y46.6792 
G01 X15.9419 Y46.5789 
G01 X15.9768 Y46.5611 
G01 X15.9768 Y46.2532 
G01 X11.9632 Y46.2532 
G01 X11.9632 Y58.2891 
G01 X14.9449 Y61.2709 
G01 X15.0208 Y61.2322 
G01 X15.2603 Y61.1544 
G01 X15.5091 Y61.1150 
G01 X15.7609 Y61.1150 
G01 X16.0097 Y61.1544 
G01 X16.2492 Y61.2322 
G01 X16.4736 Y61.3466 
G01 X16.6773 Y61.4946 
G01 X16.8554 Y61.6727 
G01 X17.0034 Y61.8764 
G01 X17.1178 Y62.1008 
G01 X17.1956 Y62.3403 
G01 X17.2350 Y62.5891 
G01 X17.2350 Y62.8409 
G01 X17.1956 Y63.0897 
G01 X17.1178 Y63.3292 
G01 X17.0034 Y63.5536 
G01 X16.8554 Y63.7573 
G01 X16.6773 Y63.9354 
G01 X16.4736 Y64.0834 
G01 X16.2492 Y64.1978 
G01 X16.0097 Y64.2756 
G01 X15.7609 Y64.3150 
G01 X15.5091 Y64.3150 
G01 X15.2603 Y64.2756 
G01 X15.0208 Y64.1978 
G01 X14.7964 Y64.0834 
G01 X14.5927 Y63.9354 
G01 X14.4146 Y63.7573 
G01 X14.2666 Y63.5536 
G01 X14.1522 Y63.3292 
G01 X14.0744 Y63.0897 
G01 X14.0350 Y62.8409 
G01 X14.0350 Y62.5891 
G01 X14.0744 Y62.3403 
G01 X14.1522 Y62.1008 
G01 X14.1909 Y62.0249 
G01 X11.1026 Y58.9367 
G01 X11.0033 Y58.8374 
G01 X10.9331 Y58.7158 
G01 X10.8968 Y58.5802 
G01 X10.8968 Y45.6498 
G01 X10.9331 Y45.5142 
G01 X11.0033 Y45.3926 
G01 X11.1026 Y45.2933 
G01 X11.2242 Y45.2231 
G01 X11.3598 Y45.1868 
G01 X16.5802 Y45.1868 
G01 X16.7158 Y45.2231 
G01 X16.8374 Y45.2933 
G01 X16.9367 Y45.3926 
G01 X17.0069 Y45.5142 
G01 X17.0432 Y45.6498 
G01 X17.0432 Y46.5611 
G01 X17.0781 Y46.5789 
G01 X17.2162 Y46.6792 
G01 X17.3368 Y46.7998 
G01 X17.4371 Y46.9379 
G01 X17.5146 Y47.0899 
G01 X17.5673 Y47.2522 
G01 X17.5940 Y47.4207 
G01 X17.5940 Y49.0993 
G01 X17.5673 Y49.2678 
G01 X17.5146 Y49.4301 
G01 X17.4371 Y49.5821 
G01 X17.3368 Y49.7202 
G01 X17.2162 Y49.8408 
G01 X17.0781 Y49.9411 
G01 X16.9261 Y50.0186 
G01 X16.7638 Y50.0713 
G01 X16.5953 Y50.0980 
G01 X16.4247 Y50.0980 
G01 X16.2562 Y50.0713 
G01 X16.0939 Y50.0186 
G01 X15.9419 Y49.9411 
G01 X15.8038 Y49.8408 
G01 X15.6832 Y49.7202 
G01 X15.5829 Y49.5821 
G01 X15.5054 Y49.4301 
G01 X15.4527 Y49.2678 
G01 X15.4260 Y49.0993 
G00 Z3.0000 
G00 X17.9660 Y49.0993 
G01 Z-0.0700 F80.00 
G01 X17.9660 Y47.4207 F250.00 
G01 X17.9927 Y47.2522 
G01 X18.0454 Y47.0899 
G01 X18.1229 Y46.9379 
G01 X18.2232 Y46.7998 
G01 X18.3438 Y46.6792 
G01 X18.4819 Y46.5789 
G01 X18.5295 Y46.5546 
G01 X18.5295 Y45.6117 
G01 X18.0850 Y45.1672 
G01 X18.0850 Y44.3678 
G01 X18.6503 Y43.8025 
G01 X19.4497 Y43.8025 
G01 X20.0150 Y44.3678 
G01 X20.0150 Y45.1672 
G01 X19.5705 Y45.6117 
G01 X19.5705 Y46.5546 
G01 X19.6181 Y46.5789 
G01 X19.7562 Y46.6792 
G01 X19.8768 Y46.7998 
G01 X19.9771 Y46.9379 
G01 X20.0546 Y47.0899 
G01 X20.1073 Y47.2522 
G01 X20.1340 Y47.4207 
G01 X20.1340 Y49.0993 
G01 X20.1073 Y49.2678 
G01 X20.0546 Y49.4301 
G01 X19.9771 Y49.5821 
G01 X19.8768 Y49.7202 
G01 X19.7562 Y49.8408 
G01 X19.6181 Y49.9411 
G01 X19.4661 Y50.0186 
G01 X19.3038 Y50.0713 
G01 X19.1353 Y50.0980 
G01 X18.9647 Y50.0980 
G01 X18.7962 Y50.0713 
G01 X18.6339 Y50.0186 
G01 X18.4819 Y49.9411 
G01 X18.3438 Y49.8408 
G01 X18.2232 Y49.7202 
G01 X18.1229 Y49.5821 
G01 X18.0454 Y49.4301 
G01 X17.9927 Y49.2678 
G01 X17.9660 Y49.0993 
G00 Z3.0000 
G00 X20.5060 Y49.0993 
G01 Z-0.0700 F80.00 
G01 X20.5060 Y47.4207 F250.00 
G01 X20.5327 Y47.2522 
G01 X20.5854 Y47.0899 
G01 X20.6629 Y46.9379 
G01 X20.7632 Y46.7998 
G01 X20.8838 Y46.6792 
G01 X21.0219 Y46.5789 
G01 X21.0695 Y46.5546 
G01 X21.0695 Y45.6117 
G01 X20.6250 Y45.1672 
G01 X20.6250 Y44.3678 
G01 X21.1903 Y43.8025 
G01 X21.9897 Y43.8025 
G01 X22.5550 Y44.3678 
G01 X22.5550 Y45.1672 
G01 X22.1105 Y45.6117 
G01 X22.1105 Y46.5546 
G01 X22.1581 Y46.5789 
G01 X22.2962 Y46.6792 
G01 X22.4168 Y46.7998 
G01 X22.5171 Y46.9379 
G01 X22.5946 Y47.0899 
G01 X22.6473 Y47.2522 
G01 X22.6740 Y47.4207 
G01 X22.6740 Y49.0993 
G01 X22.6473 Y49.2678 
G01 X22.5946 Y49.4301 
G01 X22.5171 Y49.5821 
G01 X22.4168 Y49.7202 
G01 X22.2962 Y49.8408 
G01 X22.1581 Y49.9411 
G01 X22.0061 Y50.0186 
G01 X21.8438 Y50.0713 
G01 X21.6753 Y50.0980 
G01 X21.5047 Y50.0980 
G01 X21.3362 Y50.0713 
G01 X21.1739 Y50.0186 
G01 X21.0219 Y49.9411 
G01 X20.8838 Y49.8408 
G01 X20.7632 Y49.7202 
G01 X20.6629 Y49.5821 
G01 X20.5854 Y49.4301 
G01 X20.5327 Y49.2678 
G01 X20.5060 Y49.0993 
G00 Z3.0000 
G00 X23.0460 Y49.0993 
G01 Z-0.0700 F80.00 
G01 X23.0460 Y47.4207 F250.00 
G01 X23.0727 Y47.2522 
G01 X23.1254 Y47.0899 
G01 X23.2029 Y46.9379 
G01 X23.3032 Y46.7998 
G01 X23.4238 Y46.6792 
G01 X23.5619 Y46.5789 
G01 X23.6095 Y46.5546 
G01 X23.6095 Y44.3417 
G01 X23.1650 Y43.8972 
G01 X23.1650 Y43.0978 
G01 X23.7303 Y42.5325 
G01 X24.5297 Y42.5325 
G01 X25.0950 Y43.0978 
G01 X25.0950 Y43.8972 
G01 X24.6505 Y44.3417 
G01 X24.6505 Y46.5546 
G01 X24.6981 Y46.5789 
G01 X24.8362 Y46.6792 
G01 X24.9568 Y46.7998 
G01 X25.0571 Y46.9379 
G01 X25.1346 Y47.0899 
G01 X25.1873 Y47.2522 
G01 X25.2140 Y47.4207 
G01 X25.2140 Y49.0993 
G01 X25.1873 Y49.2678 
G01 X25.1346 Y49.4301 
G01 X25.0571 Y49.5821 
G01 X24.9568 Y49.7202 
G01 X24.8362 Y49.8408 
G01 X24.6981 Y49.9411 
G01 X24.5461 Y50.0186 
G01 X24.3838 Y50.0713 
G01 X24.2153 Y50.0980 
G01 X24.0447 Y50.0980 
G01 X23.8762 Y50.0713 
G01 X23.7139 Y50.0186 
G01 X23.5619 Y49.9411 
G01 X23.4238 Y49.8408 
G01 X23.3032 Y49.7202 
G01 X23.2029 Y49.5821 
G01 X23.1254 Y49.4301 
G01 X23.0727 Y49.2678 
G01 X23.0460 Y49.0993 
G00 Z3.0000 
G00 X28.1260 Y49.0993 
G01 Z-0.0700 F80.00 
G01 X28.1260 Y47.4207 F250.00 
G01 X28.1527 Y47.2522 
G01 X28.2054 Y47.0899 
G01 X28.2829 Y46.9379 
G01 X28.3832 Y46.7998 
G01 X28.5038 Y46.6792 
G01 X28.6419 Y46.5789 
G01 X28.6895 Y46.5546 
G01 X28.6895 Y21.7076 
G01 X28.6768 Y21.6602 
G01 X28.6768 Y21.5198 
G01 X28.7131 Y21.3842 
G01 X28.7833 Y21.2626 
G01 X32.5709 Y17.4750 
G01 X31.9853 Y17.4750 
G01 X31.5535 Y17.0432 
G01 X27.2032 Y17.0432 
G01 X27.2032 Y46.5611 
G01 X27.2381 Y46.5789 
G01 X27.3762 Y46.6792 
G01 X27.4968 Y46.7998 
G01 X27.5971 Y46.9379 
G01 X27.6746 Y47.0899 
G01 X27.7273 Y47.2522 
G01 X27.7540 Y47.4207 
G01 X27.7540 Y49.0993 
G01 X27.7273 Y49.2678 
G01 X27.6746 Y49.4301 
G01 X27.5971 Y49.5821 
G01 X27.4968 Y49.7202 
G01 X27.3762 Y49.8408 
G01 X27.2381 Y49.9411 
G01 X27.0861 Y50.0186 
G01 X26.9238 Y50.0713 
G01 X26.7553 Y50.0980 
G01 X26.5847 Y50.0980 
G01 X26.4162 Y50.0713 
G01 X26.2539 Y50.0186 
G01 X26.1019 Y49.9411 
G01 X25.9638 Y49.8408 
G01 X25.8432 Y49.7202 
G01 X25.7429 Y49.5821 
G01 X25.6654 Y49.4301 
G01 X25.6127 Y49.2678 
G01 X25.5860 Y49.0993 
G01 X25.5860 Y47.4207 
G01 X25.6127 Y47.2522 
G01 X25.6654 Y47.0899 
G01 X25.7429 Y46.9379 
G01 X25.8432 Y46.7998 
G01 X25.9638 Y46.6792 
G01 X26.1019 Y46.5789 
G01 X26.1368 Y46.5611 
G01 X26.1368 Y16.4398 
G01 X26.1731 Y16.3042 
G01 X26.2433 Y16.1826 
G01 X26.3426 Y16.0833 
G01 X26.4642 Y16.0131 
G01 X26.5998 Y15.9768 
G01 X31.5535 Y15.9768 
G01 X31.9853 Y15.5450 
G01 X32.7847 Y15.5450 
G01 X33.3500 Y16.1103 
G01 X33.3500 Y16.6959 
G01 X33.7568 Y16.2891 
G01 X33.7568 Y14.4840 
G01 X33.6425 Y14.3697 
G01 X33.6425 Y13.5703 
G01 X34.2078 Y13.0050 
G01 X35.0072 Y13.0050 
G01 X35.5725 Y13.5703 
G01 X35.5725 Y14.3697 
G01 X35.0072 Y14.9350 
G01 X34.8232 Y14.9350 
G01 X34.8232 Y16.5802 
G01 X34.7869 Y16.7158 
G01 X34.7167 Y16.8374 
G01 X29.7305 Y21.8236 
G01 X29.7305 Y46.5546 
G01 X29.7781 Y46.5789 
G01 X29.9162 Y46.6792 
G01 X30.0368 Y46.7998 
G01 X30.1371 Y46.9379 
G01 X30.2146 Y47.0899 
G01 X30.2673 Y47.2522 
G01 X30.2940 Y47.4207 
G01 X30.2940 Y49.0993 
G01 X30.2673 Y49.2678 
G01 X30.2146 Y49.4301 
G01 X30.1371 Y49.5821 
G01 X30.0368 Y49.7202 
G01 X29.9162 Y49.8408 
G01 X29.7781 Y49.9411 
G01 X29.6261 Y50.0186 
G01 X29.4638 Y50.0713 
G01 X29.2953 Y50.0980 
G01 X29.1247 Y50.0980 
G01 X28.9562 Y50.0713 
G01 X28.7939 Y50.0186 
G01 X28.6419 Y49.9411 
G01 X28.5038 Y49.8408 
G01 X28.3832 Y49.7202 
G01 X28.2829 Y49.5821 
G01 X28.2054 Y49.4301 
G01 X28.1527 Y49.2678 
G01 X28.1260 Y49.0993 
G00 Z3.0000 
G00 X30.6660 Y49.0993 
G01 Z-0.0700 F80.00 
G01 X30.6660 Y47.4207 F250.00 
G01 X30.6927 Y47.2522 
G01 X30.7454 Y47.0899 
G01 X30.8229 Y46.9379 
G01 X30.9232 Y46.7998 
G01 X31.0438 Y46.6792 
G01 X31.1819 Y46.5789 
G01 X31.2295 Y46.5546 
G01 X31.2295 Y26.7876 
G01 X31.2168 Y26.7402 
G01 X31.2168 Y21.5198 
G01 X31.2531 Y21.3842 
G01 X31.3233 Y21.2626 
G01 X31.4226 Y21.1633 
G01 X31.5442 Y21.0931 
G01 X31.6798 Y21.0568 
G01 X34.4110 Y21.0568 
G01 X34.8428 Y20.6250 
G01 X35.6422 Y20.6250 
G01 X36.2075 Y21.1903 
G01 X36.2075 Y21.9897 
G01 X35.6422 Y22.5550 
G01 X34.8428 Y22.5550 
G01 X34.4110 Y22.1232 
G01 X32.2832 Y22.1232 
G01 X32.2832 Y26.7402 
G01 X32.2705 Y26.7876 
G01 X32.2705 Y46.5546 
G01 X32.3181 Y46.5789 
G01 X32.4562 Y46.6792 
G01 X32.5768 Y46.7998 
G01 X32.6771 Y46.9379 
G01 X32.7546 Y47.0899 
G01 X32.8073 Y47.2522 
G01 X32.8340 Y47.4207 
G01 X32.8340 Y49.0993 
G01 X32.8073 Y49.2678 
G01 X32.7546 Y49.4301 
G01 X32.6771 Y49.5821 
G01 X32.5768 Y49.7202 
G01 X32.4562 Y49.8408 
G01 X32.3181 Y49.9411 
G01 X32.1661 Y50.0186 
G01 X32.0038 Y50.0713 
G01 X31.8353 Y50.0980 
G01 X31.6647 Y50.0980 
G01 X31.4962 Y50.0713 
G01 X31.3339 Y50.0186 
G01 X31.1819 Y49.9411 
G01 X31.0438 Y49.8408 
G01 X30.9232 Y49.7202 
G01 X30.8229 Y49.5821 
G01 X30.7454 Y49.4301 
G01 X30.6927 Y49.2678 
G01 X30.6660 Y49.0993 
G00 Z3.0000 
G00 X58.1912 Y29.6869 
G01 Z-0.0700 F80.00 
G01 X58.1912 Y31.2731 F250.00 
G01 X58.1656 Y31.4350 
G01 X58.1149 Y31.5909 
G01 X58.0405 Y31.7369 
G01 X57.9442 Y31.8695 
G01 X57.8283 Y31.9854 
G01 X57.6957 Y32.0817 
G01 X57.5497 Y32.1561 
G01 X57.3938 Y32.2068 
G01 X57.2319 Y32.2324 
G01 X57.0681 Y32.2324 
G01 X56.9062 Y32.2068 
G01 X56.7503 Y32.1561 
G01 X56.6043 Y32.0817 
G01 X56.4717 Y31.9854 
G01 X56.3558 Y31.8695 
G01 X56.2595 Y31.7369 
G01 X56.1851 Y31.5909 
G01 X56.1344 Y31.4350 
G01 X56.1088 Y31.2731 
G01 X56.1088 Y29.6869 
G01 X56.1344 Y29.5250 
G01 X56.1851 Y29.3691 
G01 X56.2595 Y29.2231 
G01 X56.3558 Y29.0905 
G01 X56.4717 Y28.9746 
G01 X56.6043 Y28.8783 
G01 X56.7503 Y28.8039 
G01 X56.9062 Y28.7532 
G01 X57.0681 Y28.7276 
G01 X57.2319 Y28.7276 
G01 X57.3938 Y28.7532 
G01 X57.5497 Y28.8039 
G01 X57.6957 Y28.8783 
G01 X57.8283 Y28.9746 
G01 X57.9442 Y29.0905 
G01 X58.0405 Y29.2231 
G01 X58.1149 Y29.3691 
G01 X58.1656 Y29.5250 
G01 X58.1912 Y29.6869 
G00 Z3.0000 
G00 X55.6512 Y29.6869 
G01 Z-0.0700 F80.00 
G01 X55.6512 Y31.2731 F250.00 
G01 X55.6256 Y31.4350 
G01 X55.5749 Y31.5909 
G01 X55.5005 Y31.7369 
G01 X55.4042 Y31.8695 
G01 X55.2883 Y31.9854 
G01 X55.1557 Y32.0817 
G01 X55.0097 Y32.1561 
G01 X54.8538 Y32.2068 
G01 X54.6919 Y32.2324 
G01 X54.5281 Y32.2324 
G01 X54.3662 Y32.2068 
G01 X54.2103 Y32.1561 
G01 X54.0643 Y32.0817 
G01 X53.9317 Y31.9854 
G01 X53.8158 Y31.8695 
G01 X53.7195 Y31.7369 
G01 X53.6451 Y31.5909 
G01 X53.5944 Y31.4350 
G01 X53.5688 Y31.2731 
G01 X53.5688 Y29.6869 
G01 X53.5944 Y29.5250 
G01 X53.6451 Y29.3691 
G01 X53.7195 Y29.2231 
G01 X53.8158 Y29.0905 
G01 X53.9317 Y28.9746 
G01 X54.0643 Y28.8783 
G01 X54.2103 Y28.8039 
G01 X54.3662 Y28.7532 
G01 X54.5281 Y28.7276 
G01 X54.6919 Y28.7276 
G01 X54.8538 Y28.7532 
G01 X55.0097 Y28.8039 
G01 X55.1557 Y28.8783 
G01 X55.2883 Y28.9746 
G01 X55.4042 Y29.0905 
G01 X55.5005 Y29.2231 
G01 X55.5749 Y29.3691 
G01 X55.6256 Y29.5250 
G01 X55.6512 Y29.6869 
G00 Z3.0000 
G00 X44.9621 Y6.6296 
G01 Z-0.0700 F80.00 
G01 X46.4779 Y6.6296 F250.00 
G01 X46.6693 Y6.6677 
G01 X46.8495 Y6.7423 
G01 X47.0117 Y6.8507 
G01 X47.1497 Y6.9887 
G01 X47.2581 Y7.1509 
G01 X47.3327 Y7.3311 
G01 X47.3708 Y7.5225 
G01 X47.3708 Y7.7175 
G01 X47.3327 Y7.9089 
G01 X47.2581 Y8.0891 
G01 X47.1497 Y8.2513 
G01 X47.0117 Y8.3893 
G01 X46.8495 Y8.4977 
G01 X46.6693 Y8.5723 
G01 X46.4779 Y8.6104 
G01 X44.9621 Y8.6104 
G01 X44.7707 Y8.5723 
G01 X44.5905 Y8.4977 
G01 X44.4283 Y8.3893 
G01 X44.2903 Y8.2513 
G01 X44.1819 Y8.0891 
G01 X44.1073 Y7.9089 
G01 X44.0692 Y7.7175 
G01 X44.0692 Y7.5225 
G01 X44.1073 Y7.3311 
G01 X44.1819 Y7.1509 
G01 X44.2903 Y6.9887 
G01 X44.4283 Y6.8507 
G01 X44.5905 Y6.7423 
G01 X44.7707 Y6.6677 
G01 X44.9621 Y6.6296 
G00 Z3.0000 
G00 X44.9621 Y16.7896 
G01 Z-0.0700 F80.00 
G01 X46.4779 Y16.7896 F250.00 
G01 X46.6693 Y16.8277 
G01 X46.8495 Y16.9023 
G01 X47.0117 Y17.0107 
G01 X47.1497 Y17.1487 
G01 X47.2581 Y17.3109 
G01 X47.3327 Y17.4911 
G01 X47.3708 Y17.6824 
G01 X47.3708 Y17.8775 
G01 X47.3327 Y18.0689 
G01 X47.2581 Y18.2491 
G01 X47.1497 Y18.4113 
G01 X47.0117 Y18.5493 
G01 X46.8495 Y18.6577 
G01 X46.6693 Y18.7323 
G01 X46.4779 Y18.7704 
G01 X44.9621 Y18.7704 
G01 X44.7707 Y18.7323 
G01 X44.5905 Y18.6577 
G01 X44.4283 Y18.5493 
G01 X44.2903 Y18.4113 
G01 X44.1819 Y18.2491 
G01 X44.1073 Y18.0689 
G01 X44.0692 Y17.8775 
G01 X44.0692 Y17.6824 
G01 X44.1073 Y17.4911 
G01 X44.1819 Y17.3109 
G01 X44.2903 Y17.1487 
G01 X44.4283 Y17.0107 
G01 X44.5905 Y16.9023 
G01 X44.7707 Y16.8277 
G01 X44.9621 Y16.7896 
G00 Z3.0000 
G00 X44.9621 Y19.3296 
G01 Z-0.0700 F80.00 
G01 X46.4779 Y19.3296 F250.00 
G01 X46.6693 Y19.3677 
G01 X46.8495 Y19.4423 
G01 X47.0117 Y19.5507 
G01 X47.1497 Y19.6887 
G01 X47.2581 Y19.8509 
G01 X47.3327 Y20.0311 
G01 X47.3708 Y20.2225 
G01 X47.3708 Y20.4175 
G01 X47.3327 Y20.6089 
G01 X47.2581 Y20.7891 
G01 X47.1497 Y20.9513 
G01 X47.0117 Y21.0893 
G01 X46.8495 Y21.1977 
G01 X46.6693 Y21.2723 
G01 X46.4779 Y21.3104 
G01 X44.9621 Y21.3104 
G01 X44.7707 Y21.2723 
G01 X44.5905 Y21.1977 
G01 X44.4283 Y21.0893 
G01 X44.2903 Y20.9513 
G01 X44.1819 Y20.7891 
G01 X44.1073 Y20.6089 
G01 X44.0692 Y20.4175 
G01 X44.0692 Y20.2225 
G01 X44.1073 Y20.0311 
G01 X44.1819 Y19.8509 
G01 X44.2903 Y19.6887 
G01 X44.4283 Y19.5507 
G01 X44.5905 Y19.4423 
G01 X44.7707 Y19.3677 
G01 X44.9621 Y19.3296 
G00 Z3.0000 
G00 X44.9621 Y21.8696 
G01 Z-0.0700 F80.00 
G01 X46.4779 Y21.8696 F250.00 
G01 X46.6693 Y21.9077 
G01 X46.8495 Y21.9823 
G01 X47.0117 Y22.0907 
G01 X47.1497 Y22.2287 
G01 X47.2581 Y22.3909 
G01 X47.3327 Y22.5711 
G01 X47.3708 Y22.7625 
G01 X47.3708 Y22.9575 
G01 X47.3327 Y23.1489 
G01 X47.2581 Y23.3291 
G01 X47.1497 Y23.4913 
G01 X47.0117 Y23.6293 
G01 X46.8495 Y23.7377 
G01 X46.6693 Y23.8123 
G01 X46.4779 Y23.8504 
G01 X44.9621 Y23.8504 
G01 X44.7707 Y23.8123 
G01 X44.5905 Y23.7377 
G01 X44.4283 Y23.6293 
G01 X44.2903 Y23.4913 
G01 X44.1819 Y23.3291 
G01 X44.1073 Y23.1489 
G01 X44.0692 Y22.9575 
G01 X44.0692 Y22.7625 
G01 X44.1073 Y22.5711 
G01 X44.1819 Y22.3909 
G01 X44.2903 Y22.2287 
G01 X44.4283 Y22.0907 
G01 X44.5905 Y21.9823 
G01 X44.7707 Y21.9077 
G01 X44.9621 Y21.8696 
G00 Z3.0000 
G00 X44.9621 Y24.4096 
G01 Z-0.0700 F80.00 
G01 X46.4779 Y24.4096 F250.00 
G01 X46.6693 Y24.4477 
G01 X46.8495 Y24.5223 
G01 X47.0117 Y24.6307 
G01 X47.1497 Y24.7687 
G01 X47.2581 Y24.9309 
G01 X47.3327 Y25.1111 
G01 X47.3708 Y25.3025 
G01 X47.3708 Y25.4975 
G01 X47.3327 Y25.6889 
G01 X47.2581 Y25.8691 
G01 X47.1497 Y26.0313 
G01 X47.0117 Y26.1693 
G01 X46.8495 Y26.2777 
G01 X46.6693 Y26.3523 
G01 X46.4779 Y26.3904 
G01 X44.9621 Y26.3904 
G01 X44.7707 Y26.3523 
G01 X44.5905 Y26.2777 
G01 X44.4283 Y26.1693 
G01 X44.2903 Y26.0313 
G01 X44.1819 Y25.8691 
G01 X44.1073 Y25.6889 
G01 X44.0692 Y25.4975 
G01 X44.0692 Y25.3025 
G01 X44.1073 Y25.1111 
G01 X44.1819 Y24.9309 
G01 X44.2903 Y24.7687 
G01 X44.4283 Y24.6307 
G01 X44.5905 Y24.5223 
G01 X44.7707 Y24.4477 
G01 X44.9621 Y24.4096 
G00 Z3.0000 
G00 X44.9621 Y26.9496 
G01 Z-0.0700 F80.00 
G01 X46.4779 Y26.9496 F250.00 
G01 X46.6693 Y26.9877 
G01 X46.8495 Y27.0623 
G01 X47.0117 Y27.1707 
G01 X47.1497 Y27.3087 
G01 X47.2581 Y27.4709 
G01 X47.3327 Y27.6511 
G01 X47.3708 Y27.8425 
G01 X47.3708 Y28.0375 
G01 X47.3327 Y28.2289 
G01 X47.2581 Y28.4091 
G01 X47.1497 Y28.5713 
G01 X47.0117 Y28.7093 
G01 X46.8495 Y28.8177 
G01 X46.6693 Y28.8923 
G01 X46.4779 Y28.9304 
G01 X44.9621 Y28.9304 
G01 X44.7707 Y28.8923 
G01 X44.5905 Y28.8177 
G01 X44.4283 Y28.7093 
G01 X44.2903 Y28.5713 
G01 X44.1819 Y28.4091 
G01 X44.1073 Y28.2289 
G01 X44.0692 Y28.0375 
G01 X44.0692 Y27.8425 
G01 X44.1073 Y27.6511 
G01 X44.1819 Y27.4709 
G01 X44.2903 Y27.3087 
G01 X44.4283 Y27.1707 
G01 X44.5905 Y27.0623 
G01 X44.7707 Y26.9877 
G01 X44.9621 Y26.9496 
G00 Z3.0000 
G00 X44.9621 Y32.0296 
G01 Z-0.0700 F80.00 
G01 X46.4779 Y32.0296 F250.00 
G01 X46.6693 Y32.0677 
G01 X46.8495 Y32.1423 
G01 X47.0117 Y32.2507 
G01 X47.1497 Y32.3887 
G01 X47.2581 Y32.5509 
G01 X47.3327 Y32.7311 
G01 X47.3708 Y32.9225 
G01 X47.3708 Y33.1175 
G01 X47.3327 Y33.3089 
G01 X47.2581 Y33.4891 
G01 X47.1497 Y33.6513 
G01 X47.0117 Y33.7893 
G01 X46.8495 Y33.8977 
G01 X46.6693 Y33.9723 
G01 X46.4779 Y34.0104 
G01 X44.9621 Y34.0104 
G01 X44.7707 Y33.9723 
G01 X44.5905 Y33.8977 
G01 X44.4283 Y33.7893 
G01 X44.2903 Y33.6513 
G01 X44.1819 Y33.4891 
G01 X44.1073 Y33.3089 
G01 X44.0692 Y33.1175 
G01 X44.0692 Y32.9225 
G01 X44.1073 Y32.7311 
G01 X44.1819 Y32.5509 
G01 X44.2903 Y32.3887 
G01 X44.4283 Y32.2507 
G01 X44.5905 Y32.1423 
G01 X44.7707 Y32.0677 
G01 X44.9621 Y32.0296 
G00 Z3.0000 
G00 X44.9621 Y34.5696 
G01 Z-0.0700 F80.00 
G01 X46.4779 Y34.5696 F250.00 
G01 X46.6693 Y34.6077 
G01 X46.8495 Y34.6823 
G01 X47.0117 Y34.7907 
G01 X47.1497 Y34.9287 
G01 X47.2581 Y35.0909 
G01 X47.3327 Y35.2711 
G01 X47.3708 Y35.4625 
G01 X47.3708 Y35.6575 
G01 X47.3327 Y35.8489 
G01 X47.2581 Y36.0291 
G01 X47.1497 Y36.1913 
G01 X47.0117 Y36.3293 
G01 X46.8495 Y36.4377 
G01 X46.6693 Y36.5123 
G01 X46.4779 Y36.5504 
G01 X44.9621 Y36.5504 
G01 X44.7707 Y36.5123 
G01 X44.5905 Y36.4377 
G01 X44.4283 Y36.3293 
G01 X44.2903 Y36.1913 
G01 X44.1819 Y36.0291 
G01 X44.1073 Y35.8489 
G01 X44.0692 Y35.6575 
G01 X44.0692 Y35.4625 
G01 X44.1073 Y35.2711 
G01 X44.1819 Y35.0909 
G01 X44.2903 Y34.9287 
G01 X44.4283 Y34.7907 
G01 X44.5905 Y34.6823 
G01 X44.7707 Y34.6077 
G01 X44.9621 Y34.5696 
G00 Z3.0000 
G00 X44.9621 Y37.1096 
G01 Z-0.0700 F80.00 
G01 X46.4779 Y37.1096 F250.00 
G01 X46.6693 Y37.1477 
G01 X46.8495 Y37.2223 
G01 X47.0117 Y37.3307 
G01 X47.1497 Y37.4687 
G01 X47.2581 Y37.6309 
G01 X47.3327 Y37.8111 
G01 X47.3708 Y38.0025 
G01 X47.3708 Y38.1975 
G01 X47.3327 Y38.3889 
G01 X47.2581 Y38.5691 
G01 X47.1497 Y38.7313 
G01 X47.0117 Y38.8693 
G01 X46.8495 Y38.9777 
G01 X46.6693 Y39.0523 
G01 X46.4779 Y39.0904 
G01 X44.9621 Y39.0904 
G01 X44.7707 Y39.0523 
G01 X44.5905 Y38.9777 
G01 X44.4283 Y38.8693 
G01 X44.2903 Y38.7313 
G01 X44.1819 Y38.5691 
G01 X44.1073 Y38.3889 
G01 X44.0692 Y38.1975 
G01 X44.0692 Y38.0025 
G01 X44.1073 Y37.8111 
G01 X44.1819 Y37.6309 
G01 X44.2903 Y37.4687 
G01 X44.4283 Y37.3307 
G01 X44.5905 Y37.2223 
G01 X44.7707 Y37.1477 
G01 X44.9621 Y37.1096 
G00 Z3.0000 
G00 X44.9621 Y39.6496 
G01 Z-0.0700 F80.00 
G01 X46.4779 Y39.6496 F250.00 
G01 X46.6693 Y39.6877 
G01 X46.8495 Y39.7623 
G01 X47.0117 Y39.8707 
