(.../pcb-gcode-3.6.0.4/pcb-gcode.ulp)
(Copyright 2005 - 2012 by John Johnson)
(See readme.txt for licensing terms.)
(This file generated from the board:)
(.../projects/freezeTime/freezeTime.brd)
(Current profile is .../pcb-gcode-3.6.0.4/profiles/emc.pp  )
(This file generated 10.9.2014 1:12:35)
(Settings from pcb-machine.h)
(  Tool Size)
(0.2000 )
(Z Axis Settings)
(  High     Up        Down     Drill)
(20.0000 	3.0000 	-0.1000 	-2.0000 )
(spindle on time = 3.0000)
(milling depth = -0.2540)
(text depth = -0.1270)
(tool change at 12.7000 15.2400 25.4000 )
(feed rate xy = F300.00 )
(feed rate z  = F150.00 )
(Settings from pcb-defaults.h)
(isolate min = 0.0254)
(isolate max = 0.5080)
(isolate step = 0.1270)
(Generated top outlines, top drill, bottom outlines, bottom drill, )
(Unit of measure: mm)
( Tool|       Size       |  Min Sub |  Max Sub |   Count )
( T01 | 0.600mm 0.0236in | 0.0000in | 0.0000in |       0 )
( T02 | 0.610mm 0.0240in | 0.0000in | 0.0000in |       0 )
( T03 | 0.800mm 0.0315in | 0.0000in | 0.0000in |       0 )
( T04 | 0.813mm 0.0320in | 0.0000in | 0.0000in |       0 )
( T05 | 0.914mm 0.0360in | 0.0000in | 0.0000in |       0 )
( T06 | 1.000mm 0.0394in | 0.0000in | 0.0000in |       0 )
( T07 | 1.194mm 0.0470in | 0.0000in | 0.0000in |       0 )
( T08 | 1.300mm 0.0512in | 0.0000in | 0.0000in |       0 )
( T09 | 1.400mm 0.0551in | 0.0000in | 0.0000in |       0 )
( T10 | 1.600mm 0.0630in | 0.0000in | 0.0000in |       0 )
( T11 | 1.803mm 0.0710in | 0.0000in | 0.0000in |       0 )
(Metric Mode)
G21
(Absolute Coordinates)
G90
M05
G00 Z25.4000 
G00 X12.7000 Y15.2400 
M06 T01 (0.6000 )
G01 Z0.0000 F150.00 
M06 T01 (0.6000 )
G00 Z3.0000 
M03
G04 P3.000000
G82 X80.0100 Y24.6900 Z-2.0000 F150.00 R3.0000 P1.000000
G82 X80.0100 Y31.1900 
M05
G00 Z25.4000 
M06 T02 (0.6096 )
G01 Z0.0000 F150.00 
M06 T02 (0.6096 )
G00 Z3.0000 
M03
G04 P3.000000
G82 X71.1200 Y52.0700 Z-2.0000 F150.00 R3.0000 P1.000000
G82 X71.7550 Y53.3400 
M05
G00 Z25.4000 
M06 T03 (0.8000 )
G01 Z0.0000 F150.00 
M06 T03 (0.8000 )
G00 Z3.0000 
M03
G04 P3.000000
G82 X40.6400 Y35.5600 Z-2.0000 F150.00 R3.0000 P1.000000
G82 X40.6400 Y38.1000 
G82 X40.6400 Y40.6400 
G82 X40.6400 Y43.1800 
G82 X40.6400 Y45.7200 
G82 X40.6400 Y48.2600 
G82 X40.6400 Y50.8000 
G82 X40.6400 Y53.3400 
M05
G00 Z25.4000 
M06 T04 (0.8128 )
G01 Z0.0000 F150.00 
M06 T04 (0.8128 )
G00 Z3.0000 
M03
G04 P3.000000
G82 X49.5300 Y31.7500 Z-2.0000 F150.00 R3.0000 P1.000000
G82 X49.5300 Y34.2900 
G82 X49.5300 Y36.8300 
G82 X49.5300 Y39.3700 
G82 X49.5300 Y41.9100 
G82 X49.5300 Y44.4500 
G82 X49.5300 Y46.9900 
G82 X49.5300 Y49.5300 
G82 X49.5300 Y52.0700 
G82 X49.5300 Y54.6100 
G82 X49.5300 Y57.1500 
G82 X49.5300 Y67.3100 
G82 X49.5300 Y24.1300 
G82 X49.5300 Y26.6700 
G82 X49.5300 Y29.2100 
G82 X50.8000 Y62.2300 
G82 X55.8800 Y62.2300 
G82 X57.1500 Y31.7500 
G82 X57.1500 Y34.2900 
G82 X57.1500 Y36.8300 
G82 X57.1500 Y39.3700 
G82 X57.1500 Y41.9100 
G82 X57.1500 Y44.4500 
G82 X57.1500 Y46.9900 
G82 X57.1500 Y49.5300 
G82 X57.1500 Y52.0700 
G82 X57.1500 Y54.6100 
G82 X57.1500 Y57.1500 
G82 X57.1500 Y24.1300 
G82 X57.1500 Y26.6700 
G82 X57.1500 Y29.2100 
G82 X58.4200 Y62.2300 
G82 X59.6900 Y67.3100 
G82 X63.5000 Y62.2300 
G82 X67.3100 Y69.8500 
G82 X69.8500 Y69.8500 
G82 X71.1200 Y57.2770 
G82 X71.1200 Y62.1030 
M05
G00 Z25.4000 
M06 T05 (0.9144 )
G01 Z0.0000 F150.00 
M06 T05 (0.9144 )
G00 Z3.0000 
M03
G04 P3.000000
G82 X66.0400 Y45.7200 Z-2.0000 F150.00 R3.0000 P1.000000
G82 X66.0400 Y48.2600 
M05
G00 Z25.4000 
M06 T06 (1.0000 )
G01 Z0.0000 F150.00 
M06 T06 (1.0000 )
G00 Z3.0000 
M03
G04 P3.000000
G82 X66.0400 Y31.7500 Z-2.0000 F150.00 R3.0000 P1.000000
G82 X66.0400 Y34.2900 
G82 X66.0400 Y36.8300 
G82 X66.0400 Y26.6700 
G82 X66.0400 Y29.2100 
G82 X68.5800 Y31.7500 
G82 X68.5800 Y34.2900 
G82 X68.5800 Y36.8300 
G82 X68.5800 Y26.6700 
G82 X68.5800 Y29.2100 
G82 X15.6350 Y74.1450 
G82 X21.9700 Y74.1450 
M05
G00 Z25.4000 
M06 T07 (1.1938 )
G01 Z0.0000 F150.00 
M06 T07 (1.1938 )
G00 Z3.0000 
M03
G04 P3.000000
G82 X80.1116 Y58.4708 Z-2.0000 F150.00 R3.0000 P1.000000
G82 X80.1116 Y63.4492 
G82 X92.6084 Y58.4708 
G82 X92.6084 Y63.4492 
M05
G00 Z25.4000 
M06 T08 (1.3000 )
G01 Z0.0000 F150.00 
M06 T08 (1.3000 )
G00 Z3.0000 
M03
G04 P3.000000
G82 X84.8400 Y38.1000 Z-2.0000 F150.00 R3.0000 P1.000000
G82 X86.3600 Y47.3600 
G82 X86.3600 Y28.8400 
G82 X95.6700 Y38.1000 
M05
G00 Z25.4000 
M06 T09 (1.4000 )
G01 Z0.0000 F150.00 
M06 T09 (1.4000 )
G00 Z3.0000 
M03
G04 P3.000000
G82 X-1.1800 Y65.9500 Z-2.0000 F150.00 R3.0000 P1.000000
G82 X-1.1800 Y22.9500 
G82 X41.8200 Y65.9500 
G82 X41.8200 Y22.9500 
M05
G00 Z25.4000 
M06 T10 (1.6000 )
G01 Z0.0000 F150.00 
M06 T10 (1.6000 )
G00 Z3.0000 
M03
G04 P3.000000
G82 X86.3600 Y33.6000 Z-2.0000 F150.00 R3.0000 P1.000000
G82 X86.3600 Y42.6000 
M05
G00 Z25.4000 
M06 T11 (1.8034 )
G01 Z0.0000 F150.00 
M06 T11 (1.8034 )
G00 Z3.0000 
M03
G04 P3.000000
G82 X86.3600 Y56.4642 Z-2.0000 F150.00 R3.0000 P1.000000
G82 X86.3600 Y65.4558 
T01 
G00 Z20.0000 
M05
M02
